(G-CODE GENERATED BY FLATCAM v8.994 - www.flatcam.org - Version Date: 2020/11/7)

(Name: lora_digirepeater_micro-F_Cu.gbr_ncc_cnc)
(Type: G-code from Geometry)
(Units: MM)

(Created on Thursday, 09 March 2023 at 18:22)

(This preprocessor is the default preprocessor used by FlatCAM.)
(It is made to work with MACH3 compatible motion controllers.)

(TOOL DIAMETER: 0.2322 mm)
(Feedrate_XY: 60.0 mm/min)
(Feedrate_Z: 30.0 mm/min)
(Feedrate rapids 1500.0 mm/min)

(Z_Cut: -0.0601 mm)
(Z_Move: 2.0 mm)
(Z Start: None mm)
(Z End: 15.0 mm)
(X,Y End: None mm)
(Steps per circle: 64)
(Preprocessor Geometry: default)

(X range:   -0.0900 ...   59.8619  mm)
(Y range:   -0.0220 ...   19.9340  mm)

(Spindle Speed: 10000.0 RPM)
G21
G90
G94

G01 F60.00

M5
G00 Z15.0000
G00 X0.0000 Y0.0000
T3
M6    
(MSG, Change to Tool Dia = 0.2322)
M0
G00 Z15.0000

M03 S10000.0
G01 F60.00
G00 X0.8218 Y-0.0182
G01 F30.00
G01 Z-0.0601
G01 F60.00
G01 X0.8993 Y-0.0220
G01 X58.5007 Y-0.0220
G01 X58.5782 Y-0.0182
G01 X58.6764 Y-0.0036
G01 X58.7728 Y0.0205
G01 X58.8663 Y0.0540
G01 X58.9561 Y0.0965
G01 X59.0413 Y0.1475
G01 X59.1210 Y0.2067
G01 X59.1946 Y0.2734
G01 X59.2613 Y0.3470
G01 X59.3205 Y0.4267
G01 X59.3715 Y0.5119
G01 X59.4140 Y0.6017
G01 X59.4475 Y0.6952
G01 X59.4716 Y0.7916
G01 X59.4849 Y0.8816
G01 X59.8619 Y6.4260
G01 X59.8619 Y13.4860
G01 X59.4849 Y19.0304
G01 X59.4716 Y19.1204
G01 X59.4475 Y19.2168
G01 X59.4140 Y19.3103
G01 X59.3715 Y19.4001
G01 X59.3205 Y19.4853
G01 X59.2613 Y19.5650
G01 X59.1946 Y19.6386
G01 X59.1210 Y19.7053
G01 X59.0413 Y19.7645
G01 X58.9561 Y19.8155
G01 X58.8663 Y19.8580
G01 X58.7728 Y19.8915
G01 X58.6764 Y19.9156
G01 X58.5782 Y19.9302
G01 X58.5007 Y19.9340
G01 X0.8993 Y19.9340
G01 X0.8218 Y19.9302
G01 X0.7236 Y19.9156
G01 X0.6272 Y19.8915
G01 X0.5337 Y19.8580
G01 X0.4439 Y19.8155
G01 X0.3587 Y19.7645
G01 X0.2790 Y19.7053
G01 X0.2054 Y19.6386
G01 X0.1387 Y19.5650
G01 X0.0795 Y19.4853
G01 X0.0285 Y19.4001
G01 X-0.0140 Y19.3103
G01 X-0.0475 Y19.2168
G01 X-0.0716 Y19.1204
G01 X-0.0862 Y19.0222
G01 X-0.0900 Y18.9447
G01 X-0.0900 Y0.9673
G01 X-0.0862 Y0.8898
G01 X-0.0716 Y0.7916
G01 X-0.0475 Y0.6952
G01 X-0.0140 Y0.6017
G01 X0.0285 Y0.5119
G01 X0.0795 Y0.4267
G01 X0.1387 Y0.3470
G01 X0.2054 Y0.2734
G01 X0.2790 Y0.2067
G01 X0.3587 Y0.1475
G01 X0.4439 Y0.0965
G01 X0.5337 Y0.0540
G01 X0.6272 Y0.0205
G01 X0.7236 Y-0.0036
G01 X0.8218 Y-0.0182
G01 X1.6627 Y0.7458
G01 X1.6862 Y0.7415
G01 X1.9126 Y0.7050
G01 X2.1399 Y0.6742
G01 X2.3679 Y0.6489
G01 X2.5965 Y0.6292
G01 X2.8254 Y0.6151
G01 X3.0546 Y0.6067
G01 X3.2840 Y0.6039
G01 X3.5134 Y0.6067
G01 X3.7426 Y0.6151
G01 X3.9715 Y0.6292
G01 X4.2001 Y0.6489
G01 X4.4281 Y0.6742
G01 X4.6554 Y0.7050
G01 X4.8818 Y0.7415
G01 X5.1073 Y0.7835
G01 X5.3317 Y0.8310
G01 X5.5549 Y0.8840
G01 X5.7767 Y0.9424
G01 X5.9970 Y1.0063
G01 X6.2157 Y1.0756
G01 X6.4326 Y1.1502
G01 X6.6476 Y1.2301
G01 X6.8606 Y1.3153
G01 X7.0714 Y1.4057
G01 X7.2800 Y1.5012
G01 X7.4861 Y1.6018
G01 X7.5515 Y1.6358
G00 Z2.0000
G00 X1.3469 Y-0.0220
G01 F30.00
G01 Z-0.0601
G01 F60.00
G01 X1.3021 Y-0.0136
G01 X1.0582 Y0.0380
G01 X0.8156 Y0.0956
G01 X0.5745 Y0.1592
G01 X0.3351 Y0.2286
G01 X0.2117 Y0.2677
G01 X0.0379 Y0.4963
G01 X0.1484 Y0.4582
G01 X0.3823 Y0.3842
G01 X0.6179 Y0.3158
G01 X0.8551 Y0.2533
G01 X1.0938 Y0.1966
G01 X1.3338 Y0.1458
G01 X1.5750 Y0.1009
G01 X1.8173 Y0.0619
G01 X2.0604 Y0.0289
G01 X2.3042 Y0.0019
G01 X2.5486 Y-0.0192
G01 X2.5937 Y-0.0220
G01 X3.0283 Y0.7703
G01 X3.0586 Y0.7692
G01 X3.2840 Y0.7664
G01 X3.5094 Y0.7692
G01 X3.7346 Y0.7775
G01 X3.9596 Y0.7913
G01 X4.1841 Y0.8106
G01 X4.4082 Y0.8355
G01 X4.6315 Y0.8658
G01 X4.8540 Y0.9016
G01 X5.0756 Y0.9429
G01 X5.2961 Y0.9896
G01 X5.5154 Y1.0416
G01 X5.7334 Y1.0991
G01 X5.9498 Y1.1619
G01 X6.1647 Y1.2299
G01 X6.3778 Y1.3032
G01 X6.5891 Y1.3818
G01 X6.7065 Y1.4287
G01 X6.9117 Y1.1607
G01 X6.7061 Y1.0785
G01 X6.4873 Y0.9972
G01 X6.2667 Y0.9213
G01 X6.0442 Y0.8508
G01 X5.8201 Y0.7858
G01 X5.5944 Y0.7263
G01 X5.3673 Y0.6724
G01 X5.1390 Y0.6240
G01 X4.9096 Y0.5813
G01 X4.6792 Y0.5443
G01 X4.4480 Y0.5128
G01 X4.2160 Y0.4871
G01 X3.9835 Y0.4671
G01 X3.7506 Y0.4528
G01 X3.5174 Y0.4442
G01 X3.2840 Y0.4413
G01 X3.0506 Y0.4442
G01 X2.8174 Y0.4528
G01 X2.5845 Y0.4671
G01 X2.3520 Y0.4871
G01 X2.1200 Y0.5128
G01 X1.8888 Y0.5443
G01 X1.6584 Y0.5813
G01 X1.4290 Y0.6240
G01 X1.2007 Y0.6724
G01 X0.9736 Y0.7263
G01 X0.8933 Y0.7475
G00 Z2.0000
G00 X0.8259 Y0.7652
G01 F30.00
G01 Z-0.0601
G01 F60.00
G01 X0.7479 Y0.7858
G01 X0.5238 Y0.8508
G01 X0.3013 Y0.9213
G01 X0.0807 Y0.9972
G01 X-0.0900 Y1.0606
G01 X-0.0900 Y1.2343
G01 X-0.0796 Y1.2301
G01 X0.1354 Y1.1502
G01 X0.3523 Y1.0756
G01 X0.5710 Y1.0063
G01 X0.6784 Y0.9752
G00 Z2.0000
G00 X0.6778 Y0.9890
G01 F30.00
G01 Z-0.0601
G01 F60.00
G01 X0.6790 Y0.9652
G01 X0.6825 Y0.9416
G01 X0.6883 Y0.9184
G01 X0.6963 Y0.8959
G01 X0.7065 Y0.8744
G01 X0.7189 Y0.8538
G01 X0.7330 Y0.8348
G01 X0.7451 Y0.8212
G01 X0.7511 Y0.8151
G01 X0.7646 Y0.8029
G01 X0.7812 Y0.7901
G01 X0.7907 Y0.7838
G01 X0.8038 Y0.7760
G01 X0.8115 Y0.7720
G01 X0.8307 Y0.7633
G01 X0.8532 Y0.7555
G01 X0.8737 Y0.7505
G01 X0.8915 Y0.7477
G01 X0.9000 Y0.7468
G01 X0.9210 Y0.7458
G01 X2.9252 Y0.7459
G01 X2.9461 Y0.7470
G01 X2.9697 Y0.7505
G01 X2.9929 Y0.7563
G01 X3.0154 Y0.7643
G01 X3.0369 Y0.7745
G01 X3.0574 Y0.7868
G01 X3.0766 Y0.8010
G01 X3.0942 Y0.8171
G01 X3.1084 Y0.8326
G01 X3.1138 Y0.8392
G01 X3.1245 Y0.8539
G01 X3.1368 Y0.8744
G01 X3.1457 Y0.8931
G01 X3.1490 Y0.9013
G01 X3.1550 Y0.9184
G01 X3.1608 Y0.9416
G01 X3.1643 Y0.9652
G01 X3.1653 Y0.9833
G01 X3.1654 Y0.9918
G01 X3.1643 Y1.0128
G01 X3.1613 Y1.0336
G01 X3.1595 Y1.0420
G01 X3.1550 Y1.0596
G01 X3.1490 Y1.0767
G01 X3.1458 Y1.0847
G01 X3.1381 Y1.1011
G01 X3.1260 Y1.1217
G01 X3.1212 Y1.1288
G01 X3.1103 Y1.1433
G01 X3.0962 Y1.1589
G01 X3.0901 Y1.1649
G01 X3.0766 Y1.1770
G01 X3.0598 Y1.1896
G01 X3.0419 Y1.2006
G01 X3.0273 Y1.2086
G01 X2.9676 Y1.2576
G01 X2.9186 Y1.3173
G01 X2.8822 Y1.3853
G01 X2.8598 Y1.4592
G01 X2.8511 Y1.5479
G01 X2.8511 Y3.1241
G01 X2.8598 Y3.2128
G01 X2.8822 Y3.2867
G01 X2.9186 Y3.3547
G01 X2.9676 Y3.4144
G01 X3.0273 Y3.4634
G01 X3.0953 Y3.4998
G01 X3.1692 Y3.5222
G01 X3.2579 Y3.5309
G01 X4.8341 Y3.5309
G01 X4.9228 Y3.5222
G01 X4.9967 Y3.4998
G01 X5.0647 Y3.4634
G01 X5.1244 Y3.4144
G01 X5.1734 Y3.3547
G01 X5.2098 Y3.2867
G01 X5.2334 Y3.2087
G01 X5.2354 Y3.1991
G01 X5.2399 Y3.1815
G01 X5.2459 Y3.1643
G01 X5.2491 Y3.1564
G01 X5.2582 Y3.1374
G01 X5.2705 Y3.1170
G01 X5.2846 Y3.0979
G01 X5.2968 Y3.0842
G01 X5.3027 Y3.0781
G01 X5.3184 Y3.0641
G01 X5.3375 Y3.0499
G01 X5.3580 Y3.0376
G01 X5.3796 Y3.0274
G01 X5.4019 Y3.0194
G01 X5.4252 Y3.0135
G01 X5.4488 Y3.0100
G01 X5.4726 Y3.0089
G01 X5.4965 Y3.0100
G01 X5.5145 Y3.0126
G01 X5.5229 Y3.0141
G01 X5.5432 Y3.0193
G01 X5.5657 Y3.0274
G01 X5.5822 Y3.0350
G01 X5.5922 Y3.0404
G01 X5.6100 Y3.0514
G01 X5.6269 Y3.0641
G01 X5.6425 Y3.0781
G01 X5.8262 Y3.2618
G01 X6.0215 Y3.3922
G01 X6.2384 Y3.4820
G01 X6.4686 Y3.5278
G01 X6.7034 Y3.5278
G01 X6.9336 Y3.4820
G01 X7.1505 Y3.3922
G01 X7.3458 Y3.2618
G01 X7.5118 Y3.0958
G01 X7.6490 Y2.8904
G01 X7.6572 Y2.8771
G01 X7.6682 Y2.8621
G01 X7.6737 Y2.8553
G01 X7.6883 Y2.8396
G01 X7.7065 Y2.8234
G01 X7.7263 Y2.8091
G01 X7.7423 Y2.7997
G01 X7.7500 Y2.7956
G01 X7.7696 Y2.7868
G01 X7.7927 Y2.7790
G01 X7.8164 Y2.7736
G01 X7.8348 Y2.7711
G01 X7.8435 Y2.7703
G01 X7.8592 Y2.7699
G01 X7.8708 Y2.7702
G01 X7.8922 Y2.7722
G01 X7.9161 Y2.7767
G01 X7.9368 Y2.7827
G01 X7.9594 Y2.7916
G01 X7.9811 Y2.8028
G01 X7.9967 Y2.8128
G01 X8.0062 Y2.8197
G01 X8.0227 Y2.8334
G01 X8.0398 Y2.8507
G01 X8.0517 Y2.8650
G01 X8.0579 Y2.8735
G01 X8.0634 Y2.8752
G01 X8.2722 Y2.6663
G01 X8.2493 Y2.6019
G01 X8.2275 Y2.5147
G01 X8.2143 Y2.4258
G01 X8.2099 Y2.3360
G01 X8.2143 Y2.2462
G01 X8.2275 Y2.1573
G01 X8.2493 Y2.0701
G01 X8.2722 Y2.0057
G01 X8.0634 Y1.7968
G01 X8.0519 Y1.8002
G01 X8.0430 Y1.8116
G01 X8.0268 Y1.8291
G01 X8.0089 Y1.8449
G01 X7.9943 Y1.8557
G01 X7.9872 Y1.8604
G01 X7.9690 Y1.8709
G01 X7.9473 Y1.8808
G01 X7.9275 Y1.8878
G01 X7.9099 Y1.8924
G01 X7.9016 Y1.8941
G01 X7.8807 Y1.8971
G01 X7.8569 Y1.8983
G01 X7.8331 Y1.8971
G01 X7.8095 Y1.8936
G01 X7.7863 Y1.8878
G01 X7.7639 Y1.8798
G01 X7.7423 Y1.8696
G01 X7.7242 Y1.8589
G01 X7.7049 Y1.8449
G01 X7.6891 Y1.8310
G01 X7.6810 Y1.8229
G01 X7.6708 Y1.8116
G01 X7.6654 Y1.8049
G01 X7.6547 Y1.7902
G01 X7.5118 Y1.5762
G01 X7.3458 Y1.4102
G01 X7.1505 Y1.2798
G01 X6.9908 Y1.2137
G01 X6.9718 Y1.2048
G01 X6.9513 Y1.1928
G01 X6.9341 Y1.1805
G01 X6.9253 Y1.1732
G01 X6.9100 Y1.1589
G01 X6.8959 Y1.1433
G01 X6.8850 Y1.1288
G01 X6.8802 Y1.1217
G01 X6.8695 Y1.1037
G01 X6.8604 Y1.0847
G01 X6.8572 Y1.0767
G01 X6.8512 Y1.0596
G01 X6.8454 Y1.0364
G01 X6.8422 Y1.0157
G01 X6.8415 Y1.0072
G01 X6.8407 Y0.9890
G01 X6.8419 Y0.9652
G01 X6.8454 Y0.9416
G01 X6.8497 Y0.9239
G01 X6.8521 Y0.9157
G01 X6.8592 Y0.8959
G01 X6.8681 Y0.8769
G01 X6.8722 Y0.8694
G01 X6.8816 Y0.8540
G01 X6.8959 Y0.8347
G01 X6.9119 Y0.8171
G01 X6.9253 Y0.8048
G01 X6.9319 Y0.7993
G01 X6.9488 Y0.7868
G01 X6.9668 Y0.7759
G01 X6.9744 Y0.7720
G01 X6.9910 Y0.7643
G01 X7.0133 Y0.7563
G01 X7.0364 Y0.7505
G01 X7.0544 Y0.7477
G01 X7.0629 Y0.7468
G01 X7.0839 Y0.7458
G01 X8.6177 Y0.7458
G01 X8.6419 Y0.7471
G01 X8.6660 Y0.7507
G01 X8.6895 Y0.7567
G01 X8.7123 Y0.7650
G01 X8.7342 Y0.7756
G01 X8.7525 Y0.7867
G01 X8.7698 Y0.7994
G01 X8.7786 Y0.8069
G01 X8.7921 Y0.8196
G01 X8.8081 Y0.8378
G01 X8.8223 Y0.8576
G01 X8.8343 Y0.8787
G01 X8.8443 Y0.9009
G01 X8.8519 Y0.9239
G01 X8.8573 Y0.9476
G01 X8.8596 Y0.9660
G01 X8.8605 Y0.9775
G01 X8.8608 Y0.9931
G01 X8.8604 Y1.0018
G01 X8.8584 Y1.0231
G01 X8.8538 Y1.0470
G01 X8.8478 Y1.0676
G01 X8.8411 Y1.0848
G01 X8.8362 Y1.0953
G01 X8.8261 Y1.1142
G01 X8.8143 Y1.1320
G01 X8.8009 Y1.1488
G01 X8.7861 Y1.1642
G01 X8.7776 Y1.1721
G01 X8.7632 Y1.1838
G01 X8.7480 Y1.1942
G01 X8.7406 Y1.1988
G01 X8.7267 Y1.2063
G01 X8.5871 Y1.2725
G01 X8.5868 Y1.2734
G01 X8.7957 Y1.4822
G01 X8.8601 Y1.4593
G01 X8.9473 Y1.4375
G01 X9.0362 Y1.4243
G01 X9.1260 Y1.4199
G01 X9.2158 Y1.4243
G01 X9.3047 Y1.4375
G01 X9.3919 Y1.4593
G01 X9.4563 Y1.4822
G01 X9.6652 Y1.2734
G01 X9.6629 Y1.2657
G01 X9.6435 Y1.2553
G01 X9.5364 Y1.2170
G01 X9.5174 Y1.2090
G01 X9.5016 Y1.2008
G01 X9.4943 Y1.1965
G01 X9.4817 Y1.1883
G01 X9.4727 Y1.1816
G01 X9.4568 Y1.1684
G01 X9.4441 Y1.1559
G01 X9.4385 Y1.1496
G01 X9.4271 Y1.1359
G01 X9.4169 Y1.1212
G01 X9.4124 Y1.1141
G01 X9.4051 Y1.1009
G01 X9.4014 Y1.0934
G01 X9.3943 Y1.0770
G01 X9.3861 Y1.0521
G01 X9.3807 Y1.0264
G01 X9.3786 Y1.0087
G01 X9.3781 Y1.0003
G01 X9.3779 Y0.9824
G01 X9.3791 Y0.9646
G01 X9.3800 Y0.9563
G01 X9.3825 Y0.9414
G01 X9.3850 Y0.9305
G01 X9.3908 Y0.9107
G01 X9.3982 Y0.8914
G01 X9.4087 Y0.8704
G01 X9.4211 Y0.8505
G01 X9.4319 Y0.8362
G01 X9.4391 Y0.8277
G01 X9.4534 Y0.8128
G01 X9.4689 Y0.7992
G01 X9.4856 Y0.7870
G01 X9.5032 Y0.7763
G01 X9.5131 Y0.7711
G01 X9.5294 Y0.7637
G01 X9.5515 Y0.7560
G01 X9.5744 Y0.7503
G01 X9.5920 Y0.7476
G01 X9.6003 Y0.7467
G01 X9.6209 Y0.7458
G01 X11.1577 Y0.7458
G01 X11.1819 Y0.7471
G01 X11.2060 Y0.7507
G01 X11.2295 Y0.7567
G01 X11.2523 Y0.7650
G01 X11.2742 Y0.7756
G01 X11.2925 Y0.7867
G01 X11.3098 Y0.7994
G01 X11.3186 Y0.8069
G01 X11.3321 Y0.8196
G01 X11.3481 Y0.8378
G01 X11.3623 Y0.8576
G01 X11.3743 Y0.8787
G01 X11.3843 Y0.9009
G01 X11.3919 Y0.9239
G01 X11.3973 Y0.9476
G01 X11.3996 Y0.9660
G01 X11.4005 Y0.9775
G01 X11.4008 Y0.9931
G01 X11.4004 Y1.0018
G01 X11.3984 Y1.0231
G01 X11.3938 Y1.0470
G01 X11.3878 Y1.0676
G01 X11.3811 Y1.0848
G01 X11.3762 Y1.0953
G01 X11.3661 Y1.1142
G01 X11.3543 Y1.1320
G01 X11.3409 Y1.1488
G01 X11.3261 Y1.1642
G01 X11.3176 Y1.1721
G01 X11.3032 Y1.1838
G01 X11.2880 Y1.1942
G01 X11.2806 Y1.1988
G01 X11.2667 Y1.2063
G01 X11.1271 Y1.2725
G01 X11.1268 Y1.2734
G01 X11.3357 Y1.4822
G01 X11.4001 Y1.4593
G01 X11.4873 Y1.4375
G01 X11.5762 Y1.4243
G01 X11.6660 Y1.4199
G01 X11.7558 Y1.4243
G01 X11.8447 Y1.4375
G01 X11.9319 Y1.4593
G01 X11.9963 Y1.4822
G01 X12.2052 Y1.2734
G01 X12.2029 Y1.2657
G01 X12.1835 Y1.2553
G01 X12.0791 Y1.2180
G01 X12.0599 Y1.2102
G01 X12.0367 Y1.1980
G01 X12.0194 Y1.1867
G01 X12.0127 Y1.1816
G01 X11.9989 Y1.1703
G01 X11.9822 Y1.1538
G01 X11.9671 Y1.1359
G01 X11.9554 Y1.1189
G01 X11.9438 Y1.0984
G01 X11.9354 Y1.0796
G01 X11.9323 Y1.0718
G01 X11.9277 Y1.0575
G01 X11.9248 Y1.0467
G01 X11.9211 Y1.0292
G01 X11.9184 Y1.0059
G01 X11.9179 Y0.9824
G01 X11.9196 Y0.9591
G01 X11.9236 Y0.9359
G01 X11.9299 Y0.9133
G01 X11.9382 Y0.8914
G01 X11.9487 Y0.8704
G01 X11.9611 Y0.8505
G01 X11.9754 Y0.8319
G01 X11.9913 Y0.8148
G01 X12.0089 Y0.7992
G01 X12.0279 Y0.7855
G01 X12.0481 Y0.7736
G01 X12.0694 Y0.7637
G01 X12.0915 Y0.7560
G01 X12.1117 Y0.7509
G01 X12.1198 Y0.7494
G01 X12.1375 Y0.7470
G01 X12.1609 Y0.7458
G01 X13.7081 Y0.7458
G01 X13.7319 Y0.7470
G01 X13.7556 Y0.7505
G01 X13.7787 Y0.7563
G01 X13.7985 Y0.7633
G01 X13.8064 Y0.7667
G01 X13.8227 Y0.7745
G01 X13.8409 Y0.7853
G01 X13.8479 Y0.7901
G01 X13.8623 Y0.8010
G01 X13.8759 Y0.8131
G01 X13.8820 Y0.8191
G01 X13.8961 Y0.8347
G01 X13.9070 Y0.8492
G01 X13.9118 Y0.8563
G01 X13.9212 Y0.8719
G01 X13.9251 Y0.8795
G01 X13.9328 Y0.8959
G01 X13.9390 Y0.9130
G01 X13.9416 Y0.9212
G01 X13.9466 Y0.9416
G01 X13.9498 Y0.9623
G01 X13.9505 Y0.9708
G01 X13.9513 Y0.9890
G01 X13.9505 Y1.0072
G01 X13.9498 Y1.0157
G01 X13.9471 Y1.0336
G01 X13.9454 Y1.0420
G01 X13.9408 Y1.0596
G01 X13.9338 Y1.0794
G01 X13.9305 Y1.0873
G01 X13.9226 Y1.1036
G01 X13.9132 Y1.1194
G01 X13.9087 Y1.1265
G01 X13.8960 Y1.1433
G01 X13.8840 Y1.1568
G01 X13.8780 Y1.1629
G01 X13.8624 Y1.1770
G01 X13.8479 Y1.1879
G01 X13.8384 Y1.1942
G01 X13.8202 Y1.2048
G01 X13.8012 Y1.2137
G01 X13.6415 Y1.2798
G01 X13.4462 Y1.4102
G01 X13.2802 Y1.5762
G01 X13.1430 Y1.7816
G01 X13.1348 Y1.7949
G01 X13.1238 Y1.8099
G01 X13.1164 Y1.8188
G01 X13.1057 Y1.8303
G01 X13.0994 Y1.8364
G01 X13.0832 Y1.8504
G01 X13.0632 Y1.8644
G01 X13.0446 Y1.8751
G01 X13.0224 Y1.8852
G01 X12.9993 Y1.8930
G01 X12.9756 Y1.8984
G01 X12.9514 Y1.9015
G01 X12.9270 Y1.9021
G01 X12.9027 Y1.9002
G01 X12.8815 Y1.8966
G01 X12.8730 Y1.8945
G01 X12.8552 Y1.8893
G01 X12.8352 Y1.8815
G01 X12.8134 Y1.8706
G01 X12.7953 Y1.8592
G01 X12.7858 Y1.8523
G01 X12.7693 Y1.8386
G01 X12.7522 Y1.8213
G01 X12.7403 Y1.8070
G01 X12.7341 Y1.7985
G01 X12.7286 Y1.7968
G01 X12.5198 Y2.0057
G01 X12.5427 Y2.0701
G01 X12.5645 Y2.1573
G01 X12.5777 Y2.2462
G01 X12.5821 Y2.3360
G01 X12.5777 Y2.4258
G01 X12.5645 Y2.5147
G01 X12.5427 Y2.6019
G01 X12.5198 Y2.6663
G01 X12.7286 Y2.8752
G01 X12.7401 Y2.8718
G01 X12.7490 Y2.8604
G01 X12.7652 Y2.8429
G01 X12.7831 Y2.8271
G01 X12.7977 Y2.8163
G01 X12.8048 Y2.8116
G01 X12.8205 Y2.8024
G01 X12.8420 Y2.7922
G01 X12.8645 Y2.7842
G01 X12.8849 Y2.7790
G01 X12.9084 Y2.7752
G01 X12.9294 Y2.7738
G01 X12.9408 Y2.7738
G01 X12.9561 Y2.7746
G01 X12.9646 Y2.7756
G01 X12.9825 Y2.7784
G01 X13.0057 Y2.7842
G01 X13.0281 Y2.7922
G01 X13.0497 Y2.8024
G01 X13.0702 Y2.8147
G01 X13.0893 Y2.8289
G01 X13.1070 Y2.8449
G01 X13.1193 Y2.8583
G01 X13.1248 Y2.8648
G01 X13.1373 Y2.8818
G01 X13.2802 Y3.0958
G01 X13.4462 Y3.2618
G01 X13.6415 Y3.3922
G01 X13.8584 Y3.4820
G01 X14.0886 Y3.5278
G01 X14.3234 Y3.5278
G01 X14.5536 Y3.4820
G01 X14.7705 Y3.3922
G01 X14.9658 Y3.2618
G01 X15.1318 Y3.0958
G01 X15.2753 Y2.8809
G01 X15.2862 Y2.8663
G01 X15.2918 Y2.8597
G01 X15.3041 Y2.8463
G01 X15.3196 Y2.8321
G01 X15.3386 Y2.8177
G01 X15.3564 Y2.8066
G01 X15.3665 Y2.8012
G01 X15.3803 Y2.7947
G01 X15.3883 Y2.7915
G01 X15.4054 Y2.7855
G01 X15.4286 Y2.7797
G01 X15.4522 Y2.7762
G01 X15.4760 Y2.7751
G01 X15.4998 Y2.7762
G01 X15.5234 Y2.7797
G01 X15.5466 Y2.7855
G01 X15.5637 Y2.7915
G01 X15.5717 Y2.7947
G01 X15.5855 Y2.8012
G01 X15.5956 Y2.8066
G01 X15.6135 Y2.8177
G01 X15.6325 Y2.8321
G01 X15.6479 Y2.8463
G01 X15.6602 Y2.8597
G01 X15.6657 Y2.8662
G01 X15.6766 Y2.8808
G01 X15.8202 Y3.0958
G01 X15.9862 Y3.2618
G01 X16.1815 Y3.3922
G01 X16.3984 Y3.4820
G01 X16.6286 Y3.5278
G01 X16.8634 Y3.5278
G01 X17.0936 Y3.4820
G01 X17.3105 Y3.3922
G01 X17.5058 Y3.2618
G01 X17.6718 Y3.0958
G01 X17.8153 Y2.8809
G01 X17.8262 Y2.8663
G01 X17.8318 Y2.8597
G01 X17.8441 Y2.8463
G01 X17.8596 Y2.8321
G01 X17.8786 Y2.8177
G01 X17.8964 Y2.8066
G01 X17.9065 Y2.8012
G01 X17.9203 Y2.7947
G01 X17.9283 Y2.7915
G01 X17.9454 Y2.7855
G01 X17.9686 Y2.7797
G01 X17.9922 Y2.7762
G01 X18.0160 Y2.7751
G01 X18.0398 Y2.7762
G01 X18.0634 Y2.7797
G01 X18.0866 Y2.7855
G01 X18.1037 Y2.7915
G01 X18.1117 Y2.7947
G01 X18.1255 Y2.8012
G01 X18.1356 Y2.8066
G01 X18.1535 Y2.8177
G01 X18.1724 Y2.8321
G01 X18.1859 Y2.8443
G01 X18.1919 Y2.8504
G01 X18.2040 Y2.8640
G01 X18.2166 Y2.8808
G01 X18.3602 Y3.0958
G01 X18.5262 Y3.2618
G01 X18.7215 Y3.3922
G01 X18.9384 Y3.4820
G01 X19.1686 Y3.5278
G01 X19.4034 Y3.5278
G01 X19.6336 Y3.4820
G01 X19.8505 Y3.3922
G01 X20.0458 Y3.2618
G01 X20.2118 Y3.0958
G01 X20.3553 Y2.8809
G01 X20.3662 Y2.8663
G01 X20.3718 Y2.8597
G01 X20.3841 Y2.8463
G01 X20.3996 Y2.8321
G01 X20.4186 Y2.8177
G01 X20.4364 Y2.8066
G01 X20.4465 Y2.8012
G01 X20.4603 Y2.7947
G01 X20.4683 Y2.7915
G01 X20.4854 Y2.7855
G01 X20.5086 Y2.7797
G01 X20.5322 Y2.7762
G01 X20.5560 Y2.7751
G01 X20.5798 Y2.7762
G01 X20.6034 Y2.7797
G01 X20.6266 Y2.7855
G01 X20.6437 Y2.7915
G01 X20.6517 Y2.7947
G01 X20.6655 Y2.8012
G01 X20.6756 Y2.8066
G01 X20.6935 Y2.8177
G01 X20.7124 Y2.8321
G01 X20.7259 Y2.8443
G01 X20.7319 Y2.8504
G01 X20.7440 Y2.8640
G01 X20.7566 Y2.8808
G01 X20.9002 Y3.0958
G01 X21.0662 Y3.2618
G01 X21.2615 Y3.3922
G01 X21.4784 Y3.4820
G01 X21.7086 Y3.5278
G01 X21.9434 Y3.5278
G01 X22.1736 Y3.4820
G01 X22.3905 Y3.3922
G01 X22.5858 Y3.2618
G01 X22.7518 Y3.0958
G01 X22.8953 Y2.8809
G01 X22.9062 Y2.8663
G01 X22.9118 Y2.8597
G01 X22.9241 Y2.8463
G01 X22.9396 Y2.8321
G01 X22.9586 Y2.8177
G01 X22.9764 Y2.8066
G01 X22.9865 Y2.8012
G01 X23.0003 Y2.7947
G01 X23.0083 Y2.7915
G01 X23.0254 Y2.7855
G01 X23.0486 Y2.7797
G01 X23.0722 Y2.7762
G01 X23.0960 Y2.7751
G01 X23.1198 Y2.7762
G01 X23.1434 Y2.7797
G01 X23.1666 Y2.7855
G01 X23.1837 Y2.7915
G01 X23.1917 Y2.7947
G01 X23.2055 Y2.8012
G01 X23.2156 Y2.8066
G01 X23.2335 Y2.8177
G01 X23.2524 Y2.8321
G01 X23.2659 Y2.8443
G01 X23.2719 Y2.8504
G01 X23.2840 Y2.8640
G01 X23.2966 Y2.8808
G01 X23.4402 Y3.0958
G01 X23.6062 Y3.2618
G01 X23.8015 Y3.3922
G01 X24.0184 Y3.4820
G01 X24.2486 Y3.5278
G01 X24.4834 Y3.5278
G01 X24.7136 Y3.4820
G01 X24.9305 Y3.3922
G01 X25.1258 Y3.2618
G01 X25.2918 Y3.0958
G01 X25.4353 Y2.8809
G01 X25.4462 Y2.8663
G01 X25.4518 Y2.8597
G01 X25.4641 Y2.8463
G01 X25.4796 Y2.8321
G01 X25.4986 Y2.8177
G01 X25.5164 Y2.8066
G01 X25.5265 Y2.8012
G01 X25.5403 Y2.7947
G01 X25.5483 Y2.7915
G01 X25.5654 Y2.7855
G01 X25.5886 Y2.7797
G01 X25.6122 Y2.7762
G01 X25.6360 Y2.7751
G01 X25.6598 Y2.7762
G01 X25.6834 Y2.7797
G01 X25.7066 Y2.7855
G01 X25.7237 Y2.7915
G01 X25.7317 Y2.7947
G01 X25.7455 Y2.8012
G01 X25.7556 Y2.8066
G01 X25.7735 Y2.8177
G01 X25.7924 Y2.8321
G01 X25.8059 Y2.8443
G01 X25.8119 Y2.8504
G01 X25.8240 Y2.8640
G01 X25.8366 Y2.8808
G01 X25.9802 Y3.0958
G01 X26.1462 Y3.2618
G01 X26.3415 Y3.3922
G01 X26.5584 Y3.4820
G01 X26.7886 Y3.5278
G01 X27.0234 Y3.5278
G01 X27.2536 Y3.4820
G01 X27.4705 Y3.3922
G01 X27.6658 Y3.2618
G01 X27.8318 Y3.0958
G01 X27.9753 Y2.8809
G01 X27.9862 Y2.8663
G01 X27.9918 Y2.8597
G01 X28.0041 Y2.8463
G01 X28.0196 Y2.8321
G01 X28.0386 Y2.8177
G01 X28.0564 Y2.8066
G01 X28.0665 Y2.8012
G01 X28.0803 Y2.7947
G01 X28.0883 Y2.7915
G01 X28.1054 Y2.7855
G01 X28.1286 Y2.7797
G01 X28.1522 Y2.7762
G01 X28.1760 Y2.7751
G01 X28.1998 Y2.7762
G01 X28.2234 Y2.7797
G01 X28.2466 Y2.7855
G01 X28.2637 Y2.7915
G01 X28.2717 Y2.7947
G01 X28.2855 Y2.8012
G01 X28.2956 Y2.8066
G01 X28.3135 Y2.8177
G01 X28.3324 Y2.8321
G01 X28.3459 Y2.8443
G01 X28.3519 Y2.8504
G01 X28.3640 Y2.8640
G01 X28.3766 Y2.8808
G01 X28.5202 Y3.0958
G01 X28.6862 Y3.2618
G01 X28.8815 Y3.3922
G01 X29.0984 Y3.4820
G01 X29.3286 Y3.5278
G01 X29.5634 Y3.5278
G01 X29.7936 Y3.4820
G01 X30.0105 Y3.3922
G01 X30.2058 Y3.2618
G01 X30.3718 Y3.0958
G01 X30.5153 Y2.8809
G01 X30.5262 Y2.8663
G01 X30.5318 Y2.8597
G01 X30.5441 Y2.8463
G01 X30.5596 Y2.8321
G01 X30.5786 Y2.8177
G01 X30.5964 Y2.8066
G01 X30.6065 Y2.8012
G01 X30.6203 Y2.7947
G01 X30.6283 Y2.7915
G01 X30.6454 Y2.7855
G01 X30.6686 Y2.7797
G01 X30.6922 Y2.7762
G01 X30.7160 Y2.7751
G01 X30.7398 Y2.7762
G01 X30.7634 Y2.7797
G01 X30.7866 Y2.7855
G01 X30.8037 Y2.7915
G01 X30.8117 Y2.7947
G01 X30.8255 Y2.8012
G01 X30.8356 Y2.8066
G01 X30.8535 Y2.8177
G01 X30.8724 Y2.8321
G01 X30.8859 Y2.8443
G01 X30.8919 Y2.8504
G01 X30.9040 Y2.8640
G01 X30.9166 Y2.8808
G01 X31.0602 Y3.0958
G01 X31.2262 Y3.2618
G01 X31.4215 Y3.3922
G01 X31.6384 Y3.4820
G01 X31.8686 Y3.5278
G01 X32.1034 Y3.5278
G01 X32.3336 Y3.4820
G01 X32.5505 Y3.3922
G01 X32.7458 Y3.2618
G01 X32.9118 Y3.0958
G01 X33.0422 Y2.9005
G01 X33.0578 Y2.8629
G01 X33.1320 Y2.6836
G01 X33.1778 Y2.4534
G01 X33.1778 Y2.2186
G01 X33.1320 Y1.9884
G01 X33.0422 Y1.7715
G01 X32.9118 Y1.5762
G01 X32.7458 Y1.4102
G01 X32.5505 Y1.2798
G01 X32.3882 Y1.2125
G01 X32.3693 Y1.2035
G01 X32.3487 Y1.1911
G01 X32.3297 Y1.1770
G01 X32.3161 Y1.1649
G01 X32.3100 Y1.1589
G01 X32.2959 Y1.1433
G01 X32.2833 Y1.1264
G01 X32.2787 Y1.1193
G01 X32.2695 Y1.1037
G01 X32.2615 Y1.0873
G01 X32.2582 Y1.0794
G01 X32.2521 Y1.0623
G01 X32.2460 Y1.0392
G01 X32.2444 Y1.0308
G01 X32.2419 Y1.0128
G01 X32.2408 Y0.9918
G01 X32.2409 Y0.9833
G01 X32.2419 Y0.9652
G01 X32.2454 Y0.9416
G01 X32.2512 Y0.9184
G01 X32.2582 Y0.8986
G01 X32.2615 Y0.8907
G01 X32.2694 Y0.8744
G01 X32.2816 Y0.8540
G01 X32.2959 Y0.8347
G01 X32.3119 Y0.8171
G01 X32.3296 Y0.8010
G01 X32.3488 Y0.7868
G01 X32.3693 Y0.7745
G01 X32.3884 Y0.7654
G01 X32.4133 Y0.7563
G01 X32.4364 Y0.7505
G01 X32.4601 Y0.7470
G01 X32.4839 Y0.7458
G01 X36.0441 Y0.7458
G01 X36.0678 Y0.7470
G01 X36.0914 Y0.7505
G01 X36.1117 Y0.7555
G01 X36.1199 Y0.7580
G01 X36.1369 Y0.7642
G01 X36.1584 Y0.7744
G01 X36.1765 Y0.7851
G01 X36.1835 Y0.7899
G01 X36.1980 Y0.8007
G01 X36.2115 Y0.8128
G01 X36.2176 Y0.8187
G01 X36.2317 Y0.8343
G01 X36.2443 Y0.8510
G01 X36.2489 Y0.8582
G01 X36.2582 Y0.8737
G01 X36.2672 Y0.8924
G01 X36.2747 Y0.9122
G01 X36.2781 Y0.9231
G01 X36.2824 Y0.9407
G01 X36.2852 Y0.9586
G01 X36.2862 Y0.9670
G01 X36.2872 Y0.9851
G01 X36.2897 Y1.5691
G01 X36.3065 Y1.5858
G01 X36.5659 Y1.5858
G01 X36.5659 Y0.9560
G01 X36.5665 Y0.9446
G01 X36.5687 Y0.9306
G01 X36.5709 Y0.9223
G01 X36.5737 Y0.9142
G01 X36.5770 Y0.9064
G01 X36.5810 Y0.8988
G01 X36.5855 Y0.8915
G01 X36.5905 Y0.8846
G01 X36.5960 Y0.8780
G01 X36.6019 Y0.8719
G01 X36.6128 Y0.8627
G01 X36.6199 Y0.8579
G01 X36.6273 Y0.8536
G01 X36.6402 Y0.8477
G01 X36.6510 Y0.8441
G01 X36.6622 Y0.8416
G01 X36.6706 Y0.8405
G01 X36.6820 Y0.8399
G01 X38.1877 Y0.8400
G01 X38.1962 Y0.8408
G01 X38.2074 Y0.8427
G01 X38.2184 Y0.8458
G01 X38.2290 Y0.8499
G01 X38.2392 Y0.8550
G01 X38.2489 Y0.8611
G01 X38.2557 Y0.8663
G01 X38.2641 Y0.8739
G01 X38.2699 Y0.8802
G01 X38.2769 Y0.8891
G01 X38.2830 Y0.8988
G01 X38.2881 Y0.9090
G01 X38.2922 Y0.9196
G01 X38.2953 Y0.9306
G01 X38.2968 Y0.9390
G01 X38.2980 Y0.9503
G01 X38.2981 Y2.9560
G01 X38.2978 Y2.9645
G01 X38.2968 Y2.9730
G01 X38.2953 Y2.9814
G01 X38.2931 Y2.9897
G01 X38.2903 Y2.9978
G01 X38.2870 Y3.0056
G01 X38.2830 Y3.0132
G01 X38.2785 Y3.0205
G01 X38.2717 Y3.0297
G01 X38.2661 Y3.0361
G01 X38.2600 Y3.0420
G01 X38.2534 Y3.0475
G01 X38.2441 Y3.0541
G01 X38.2367 Y3.0584
G01 X38.2290 Y3.0621
G01 X38.2211 Y3.0653
G01 X38.2130 Y3.0679
G01 X38.2046 Y3.0699
G01 X38.1934 Y3.0715
G01 X38.1820 Y3.0721
G01 X37.8022 Y3.0721
G01 X37.8022 Y3.3315
G01 X37.8191 Y3.3485
G01 X38.1709 Y3.3508
G01 X38.2588 Y3.3422
G01 X38.3380 Y3.3182
G01 X38.3614 Y3.3097
G01 X38.3790 Y3.3051
G01 X38.3874 Y3.3034
G01 X38.4053 Y3.3007
G01 X38.4138 Y3.3000
G01 X38.4320 Y3.2992
G01 X38.4502 Y3.3000
G01 X38.4587 Y3.3007
G01 X38.4766 Y3.3034
G01 X38.4850 Y3.3051
G01 X38.5026 Y3.3097
G01 X38.5260 Y3.3182
G01 X38.6052 Y3.3422
G01 X38.6939 Y3.3509
G01 X40.1701 Y3.3509
G01 X40.2588 Y3.3422
G01 X40.3380 Y3.3182
G01 X40.3614 Y3.3097
G01 X40.3790 Y3.3051
G01 X40.3874 Y3.3034
G01 X40.4082 Y3.3004
G01 X40.4263 Y3.2994
G01 X40.4348 Y3.2993
G01 X40.4530 Y3.3002
G01 X40.4615 Y3.3011
G01 X40.4794 Y3.3039
G01 X40.4971 Y3.3082
G01 X40.5080 Y3.3115
G01 X40.5260 Y3.3182
G01 X40.6052 Y3.3422
G01 X40.6939 Y3.3509
G01 X41.4562 Y3.3509
G01 X41.4801 Y3.3521
G01 X41.4980 Y3.3546
G01 X41.5064 Y3.3562
G01 X41.5268 Y3.3614
G01 X41.5440 Y3.3674
G01 X41.5519 Y3.3705
G01 X41.5683 Y3.3783
G01 X41.5758 Y3.3824
G01 X41.5913 Y3.3919
G01 X41.6060 Y3.4026
G01 X41.6127 Y3.4079
G01 X41.6262 Y3.4202
G01 X41.6321 Y3.4263
G01 X41.6442 Y3.4398
G01 X41.6551 Y3.4543
G01 X41.6600 Y3.4614
G01 X41.6693 Y3.4769
G01 X41.6732 Y3.4845
G01 X41.6809 Y3.5010
G01 X41.6880 Y3.5206
G01 X41.6904 Y3.5290
G01 X41.6952 Y3.5494
G01 X41.6982 Y3.5702
G01 X41.6992 Y3.5884
G01 X41.6992 Y3.5998
G01 X41.6979 Y3.6207
G01 X41.6947 Y3.6415
G01 X41.6904 Y3.6592
G01 X41.6871 Y3.6701
G01 X41.6797 Y3.6897
G01 X41.6707 Y3.7087
G01 X41.6600 Y3.7268
G01 X41.6477 Y3.7438
G01 X41.6405 Y3.7526
G01 X41.6282 Y3.7660
G01 X40.3632 Y5.0309
G01 X40.3476 Y5.0450
G01 X40.3284 Y5.0592
G01 X40.3079 Y5.0715
G01 X40.2916 Y5.0793
G01 X40.2810 Y5.0837
G01 X40.2611 Y5.0905
G01 X40.2407 Y5.0955
G01 X40.2198 Y5.0987
G01 X40.2114 Y5.0994
G01 X40.1933 Y5.1002
G01 X29.4968 Y5.1002
G01 X29.4758 Y5.0992
G01 X29.4460 Y5.0963
G01 X29.2908 Y5.1116
G01 X29.1415 Y5.1569
G01 X29.0039 Y5.2304
G01 X28.8834 Y5.3294
G01 X28.8646 Y5.3522
G01 X28.8501 Y5.3680
G01 X24.2170 Y10.0012
G01 X24.2013 Y10.0152
G01 X24.1822 Y10.0294
G01 X24.1617 Y10.0417
G01 X24.1430 Y10.0506
G01 X24.1348 Y10.0539
G01 X24.1176 Y10.0599
G01 X24.0913 Y10.0664
G01 X23.9199 Y10.1374
G01 X23.7656 Y10.2404
G01 X23.6344 Y10.3716
G01 X23.5314 Y10.5259
G01 X23.4604 Y10.6973
G01 X23.4242 Y10.8792
G01 X23.4242 Y11.0648
G01 X23.4604 Y11.2467
G01 X23.5314 Y11.4181
G01 X23.6344 Y11.5724
G01 X23.7656 Y11.7036
G01 X23.9199 Y11.8066
G01 X24.0913 Y11.8776
G01 X24.2732 Y11.9138
G01 X24.4588 Y11.9138
G01 X24.6407 Y11.8776
G01 X24.8121 Y11.8066
G01 X24.9664 Y11.7036
G01 X25.0976 Y11.5724
G01 X25.2006 Y11.4181
G01 X25.2716 Y11.2467
G01 X25.2781 Y11.2204
G01 X25.2841 Y11.2032
G01 X25.2872 Y11.1953
G01 X25.2963 Y11.1763
G01 X25.3055 Y11.1607
G01 X25.3119 Y11.1512
G01 X25.3246 Y11.1345
G01 X25.3388 Y11.1190
G01 X25.5491 Y10.9088
G01 X25.5646 Y10.8946
G01 X25.5712 Y10.8892
G01 X25.5859 Y10.8785
G01 X25.6063 Y10.8663
G01 X25.6278 Y10.8561
G01 X25.6450 Y10.8498
G01 X25.6559 Y10.8465
G01 X25.6764 Y10.8417
G01 X25.6972 Y10.8387
G01 X25.7210 Y10.8375
G01 X25.7392 Y10.8383
G01 X25.7477 Y10.8390
G01 X25.7656 Y10.8417
G01 X25.7740 Y10.8435
G01 X25.7916 Y10.8480
G01 X25.8087 Y10.8540
G01 X25.8167 Y10.8572
G01 X25.8356 Y10.8663
G01 X25.8538 Y10.8770
G01 X25.8608 Y10.8818
G01 X25.8752 Y10.8927
G01 X25.8888 Y10.9048
G01 X25.8949 Y10.9108
G01 X25.9090 Y10.9264
G01 X25.9199 Y10.9410
G01 X25.9247 Y10.9480
G01 X25.9354 Y10.9660
G01 X25.9444 Y10.9848
G01 X25.9519 Y11.0047
G01 X25.9552 Y11.0156
G01 X25.9595 Y11.0334
G01 X25.9623 Y11.0512
G01 X25.9633 Y11.0603
G01 X26.0004 Y11.2467
G01 X26.0714 Y11.4181
G01 X26.1744 Y11.5724
G01 X26.3056 Y11.7036
G01 X26.4599 Y11.8066
G01 X26.6313 Y11.8776
G01 X26.8132 Y11.9138
G01 X26.9988 Y11.9138
G01 X27.1807 Y11.8776
G01 X27.3521 Y11.8066
G01 X27.5064 Y11.7036
G01 X27.6376 Y11.5724
G01 X27.7406 Y11.4181
G01 X27.8116 Y11.2467
G01 X27.8181 Y11.2204
G01 X27.8251 Y11.2005
G01 X27.8284 Y11.1927
G01 X27.8363 Y11.1763
G01 X27.8486 Y11.1558
G01 X27.8628 Y11.1367
G01 X27.8768 Y11.1210
G01 X28.0891 Y10.9088
G01 X28.1067 Y10.8927
G01 X28.1212 Y10.8818
G01 X28.1307 Y10.8755
G01 X28.1489 Y10.8650
G01 X28.1681 Y10.8560
G01 X28.1904 Y10.8480
G01 X28.2106 Y10.8428
G01 X28.2192 Y10.8412
G01 X28.2372 Y10.8387
G01 X28.2610 Y10.8375
G01 X28.2792 Y10.8383
G01 X28.2877 Y10.8390
G01 X28.3056 Y10.8417
G01 X28.3140 Y10.8435
G01 X28.3316 Y10.8480
G01 X28.3487 Y10.8540
G01 X28.3567 Y10.8572
G01 X28.3756 Y10.8663
G01 X28.3914 Y10.8756
G01 X28.3985 Y10.8802
G01 X28.4129 Y10.8909
G01 X28.4196 Y10.8965
G01 X28.4329 Y10.9088
G01 X28.4452 Y10.9221
G01 X28.4507 Y10.9287
G01 X28.4632 Y10.9456
G01 X28.4754 Y10.9660
G01 X28.4844 Y10.9848
G01 X28.4919 Y11.0047
G01 X28.4952 Y11.0156
G01 X28.4995 Y11.0332
G01 X28.5023 Y11.0512
G01 X28.5033 Y11.0603
G01 X28.5404 Y11.2467
G01 X28.6114 Y11.4181
G01 X28.7144 Y11.5724
G01 X28.8456 Y11.7036
G01 X28.9999 Y11.8066
G01 X29.1713 Y11.8776
G01 X29.3532 Y11.9138
G01 X29.5388 Y11.9138
G01 X29.7207 Y11.8776
G01 X29.8921 Y11.8066
G01 X30.0464 Y11.7036
G01 X30.1776 Y11.5724
G01 X30.2806 Y11.4181
G01 X30.3516 Y11.2467
G01 X30.3581 Y11.2204
G01 X30.3651 Y11.2005
G01 X30.3684 Y11.1927
G01 X30.3763 Y11.1763
G01 X30.3886 Y11.1558
G01 X30.4027 Y11.1367
G01 X30.4168 Y11.1210
G01 X31.9908 Y9.5471
G01 X32.0064 Y9.5330
G01 X32.0233 Y9.5204
G01 X32.0411 Y9.5094
G01 X32.0512 Y9.5040
G01 X32.0677 Y9.4963
G01 X32.0901 Y9.4883
G01 X32.1133 Y9.4825
G01 X32.1340 Y9.4793
G01 X32.1426 Y9.4786
G01 X32.1607 Y9.4778
G01 X42.5072 Y9.4778
G01 X42.5282 Y9.4788
G01 X42.5580 Y9.4817
G01 X42.7132 Y9.4664
G01 X42.8625 Y9.4211
G01 X43.0000 Y9.3476
G01 X43.1206 Y9.2486
G01 X43.1394 Y9.2258
G01 X43.1539 Y9.2100
G01 X47.9560 Y4.4079
G01 X47.9715 Y4.3937
G01 X47.9946 Y4.3746
G01 X48.0936 Y4.2541
G01 X48.1139 Y4.2161
G01 X48.1218 Y4.2029
G01 X48.1264 Y4.1957
G01 X48.1390 Y4.1789
G01 X48.1551 Y4.1612
G01 X48.1706 Y4.1470
G01 X48.1872 Y4.1343
G01 X48.1967 Y4.1279
G01 X48.2124 Y4.1187
G01 X48.2341 Y4.1085
G01 X48.2564 Y4.1005
G01 X48.2768 Y4.0953
G01 X48.3003 Y4.0915
G01 X48.3213 Y4.0901
G01 X48.3327 Y4.0901
G01 X48.3537 Y4.0915
G01 X48.3744 Y4.0947
G01 X48.3976 Y4.1005
G01 X48.4201 Y4.1085
G01 X48.4391 Y4.1174
G01 X48.4596 Y4.1293
G01 X48.4768 Y4.1417
G01 X48.4856 Y4.1489
G01 X48.4969 Y4.1592
G01 X48.5029 Y4.1654
G01 X48.5150 Y4.1789
G01 X48.5259 Y4.1934
G01 X48.5307 Y4.2005
G01 X48.5401 Y4.2160
G01 X48.5440 Y4.2236
G01 X48.5516 Y4.2399
G01 X48.5579 Y4.2572
G01 X48.5605 Y4.2653
G01 X48.5660 Y4.2885
G01 X48.5687 Y4.3065
G01 X48.5694 Y4.3150
G01 X48.5702 Y4.3332
G01 X48.5702 Y4.4608
G01 X48.6064 Y4.6427
G01 X48.6774 Y4.8141
G01 X48.7804 Y4.9684
G01 X48.9116 Y5.0996
G01 X49.0659 Y5.2026
G01 X49.2373 Y5.2736
G01 X49.4192 Y5.3098
G01 X49.6048 Y5.3098
G01 X49.7867 Y5.2736
G01 X49.9581 Y5.2026
G01 X50.1124 Y5.0996
G01 X50.2436 Y4.9684
G01 X50.3466 Y4.8141
G01 X50.4176 Y4.6427
G01 X50.4538 Y4.4608
G01 X50.4538 Y4.2752
G01 X50.4176 Y4.0933
G01 X50.3466 Y3.9219
G01 X50.3325 Y3.8987
G01 X50.3247 Y3.8823
G01 X50.3213 Y3.8744
G01 X50.3152 Y3.8573
G01 X50.3128 Y3.8491
G01 X50.3085 Y3.8314
G01 X50.3053 Y3.8107
G01 X50.3046 Y3.8022
G01 X50.3038 Y3.7840
G01 X50.3038 Y3.5786
G01 X50.3048 Y3.5576
G01 X50.3057 Y3.5491
G01 X50.3085 Y3.5312
G01 X50.3143 Y3.5080
G01 X50.3223 Y3.4856
G01 X50.3312 Y3.4665
G01 X50.3354 Y3.4590
G01 X50.3448 Y3.4435
G01 X50.3591 Y3.4243
G01 X50.3711 Y3.4108
G01 X50.3771 Y3.4047
G01 X50.3906 Y3.3924
G01 X50.3972 Y3.3871
G01 X50.4120 Y3.3764
G01 X50.4274 Y3.3670
G01 X50.4349 Y3.3629
G01 X50.4513 Y3.3551
G01 X50.4593 Y3.3519
G01 X50.4764 Y3.3459
G01 X50.4940 Y3.3414
G01 X50.5024 Y3.3396
G01 X50.5203 Y3.3369
G01 X50.5289 Y3.3362
G01 X50.5470 Y3.3355
G01 X50.5652 Y3.3362
G01 X50.5737 Y3.3369
G01 X50.5888 Y3.3392
G01 X50.6018 Y3.3418
G01 X50.6931 Y3.3508
G01 X51.0449 Y3.3485
G01 X51.0618 Y3.3315
G01 X51.0618 Y3.0721
G01 X50.6820 Y3.0721
G01 X50.6706 Y3.0715
G01 X50.6594 Y3.0699
G01 X50.6510 Y3.0679
G01 X50.6429 Y3.0653
G01 X50.6350 Y3.0621
G01 X50.6273 Y3.0584
G01 X50.6175 Y3.0525
G01 X50.6106 Y3.0475
G01 X50.6040 Y3.0420
G01 X50.5979 Y3.0361
G01 X50.5923 Y3.0297
G01 X50.5871 Y3.0229
G01 X50.5824 Y3.0157
G01 X50.5783 Y3.0082
G01 X50.5747 Y3.0004
G01 X50.5718 Y2.9924
G01 X50.5687 Y2.9814
G01 X50.5672 Y2.9730
G01 X50.5662 Y2.9645
G01 X50.5659 Y2.9560
G01 X50.5660 Y0.9503
G01 X50.5668 Y0.9418
G01 X50.5687 Y0.9306
G01 X50.5709 Y0.9223
G01 X50.5747 Y0.9116
G01 X50.5796 Y0.9013
G01 X50.5839 Y0.8939
G01 X50.5887 Y0.8868
G01 X50.5960 Y0.8780
G01 X50.6019 Y0.8719
G01 X50.6106 Y0.8645
G01 X50.6199 Y0.8579
G01 X50.6273 Y0.8536
G01 X50.6350 Y0.8499
G01 X50.6456 Y0.8458
G01 X50.6538 Y0.8434
G01 X50.6650 Y0.8412
G01 X50.6735 Y0.8402
G01 X50.6820 Y0.8399
G01 X52.1820 Y0.8399
G01 X52.1934 Y0.8405
G01 X52.2018 Y0.8416
G01 X52.2130 Y0.8441
G01 X52.2238 Y0.8477
G01 X52.2367 Y0.8536
G01 X52.2441 Y0.8579
G01 X52.2512 Y0.8627
G01 X52.2578 Y0.8681
G01 X52.2641 Y0.8739
G01 X52.2699 Y0.8802
G01 X52.2753 Y0.8868
G01 X52.2830 Y0.8988
G01 X52.2870 Y0.9064
G01 X52.2903 Y0.9142
G01 X52.2946 Y0.9278
G01 X52.2964 Y0.9362
G01 X52.2975 Y0.9446
G01 X52.2981 Y0.9560
G01 X52.2981 Y1.5858
G01 X52.5575 Y1.5858
G01 X52.5743 Y1.5691
G01 X52.5768 Y0.9851
G01 X52.5780 Y0.9642
G01 X52.5806 Y0.9463
G01 X52.5822 Y0.9379
G01 X52.5867 Y0.9203
G01 X52.5935 Y0.9005
G01 X52.5979 Y0.8900
G01 X52.6058 Y0.8737
G01 X52.6181 Y0.8534
G01 X52.6324 Y0.8342
G01 X52.6444 Y0.8208
G01 X52.6504 Y0.8147
G01 X52.6660 Y0.8007
G01 X52.6852 Y0.7866
G01 X52.7006 Y0.7772
G01 X52.7081 Y0.7731
G01 X52.7272 Y0.7642
G01 X52.7468 Y0.7571
G01 X52.7550 Y0.7547
G01 X52.7726 Y0.7505
G01 X52.7933 Y0.7473
G01 X52.8018 Y0.7466
G01 X52.8199 Y0.7458
G01 X58.4790 Y0.7458
G01 X58.5028 Y0.7470
G01 X58.5208 Y0.7495
G01 X58.5292 Y0.7511
G01 X58.5496 Y0.7563
G01 X58.5721 Y0.7643
G01 X58.5885 Y0.7720
G01 X58.5961 Y0.7759
G01 X58.6142 Y0.7869
G01 X58.6309 Y0.7992
G01 X58.6376 Y0.8048
G01 X58.6509 Y0.8171
G01 X58.6632 Y0.8304
G01 X58.6687 Y0.8370
G01 X58.6796 Y0.8516
G01 X58.6842 Y0.8587
G01 X58.6934 Y0.8743
G01 X58.7037 Y0.8961
G01 X58.7108 Y0.9157
G01 X58.7132 Y0.9239
G01 X58.7175 Y0.9414
G01 X58.7203 Y0.9595
G01 X58.7212 Y0.9680
G01 X58.7221 Y0.9862
G01 X58.7222 Y5.8188
G01 X58.7214 Y5.8369
G01 X58.7207 Y5.8454
G01 X58.7180 Y5.8634
G01 X58.7163 Y5.8717
G01 X58.7117 Y5.8893
G01 X58.7047 Y5.9091
G01 X58.6961 Y5.9282
G01 X58.6907 Y5.9382
G01 X58.6813 Y5.9537
G01 X58.6671 Y5.9729
G01 X58.6511 Y5.9906
G01 X58.6377 Y6.0029
G01 X58.6290 Y6.0101
G01 X58.6119 Y6.0224
G01 X58.5939 Y6.0331
G01 X58.5752 Y6.0421
G01 X58.5670 Y6.0454
G01 X58.5472 Y6.0522
G01 X58.5269 Y6.0572
G01 X58.5060 Y6.0604
G01 X58.4975 Y6.0612
G01 X58.4794 Y6.0619
G01 X57.2646 Y6.0640
G01 X57.2482 Y6.0805
G01 X57.2482 Y6.3399
G01 X58.9780 Y6.3399
G01 X58.9865 Y6.3402
G01 X58.9950 Y6.3412
G01 X59.0062 Y6.3434
G01 X59.0171 Y6.3467
G01 X59.0276 Y6.3510
G01 X59.0377 Y6.3564
G01 X59.0472 Y6.3627
G01 X59.0538 Y6.3681
G01 X59.0621 Y6.3759
G01 X59.0695 Y6.3846
G01 X59.0745 Y6.3915
G01 X59.0804 Y6.4013
G01 X59.0853 Y6.4116
G01 X59.0891 Y6.4223
G01 X59.0919 Y6.4334
G01 X59.0935 Y6.4446
G01 X59.0941 Y6.4560
G01 X59.0941 Y7.8088
G01 X59.0932 Y7.8202
G01 X59.0906 Y7.8342
G01 X59.0863 Y7.8478
G01 X59.0817 Y7.8582
G01 X59.0745 Y7.8705
G01 X59.0677 Y7.8797
G01 X59.0601 Y7.8881
G01 X59.0494 Y7.8975
G01 X59.0425 Y7.9025
G01 X59.0352 Y7.9070
G01 X59.0276 Y7.9110
G01 X59.0171 Y7.9153
G01 X59.0062 Y7.9186
G01 X58.9978 Y7.9204
G01 X58.9894 Y7.9215
G01 X58.9808 Y7.9221
G01 X57.2482 Y7.9221
G01 X57.2482 Y8.1815
G01 X57.2646 Y8.1980
G01 X58.4823 Y8.2001
G01 X58.5032 Y8.2013
G01 X58.5212 Y8.2038
G01 X58.5296 Y8.2054
G01 X58.5499 Y8.2106
G01 X58.5723 Y8.2187
G01 X58.5888 Y8.2263
G01 X58.5988 Y8.2317
G01 X58.6167 Y8.2428
G01 X58.6334 Y8.2554
G01 X58.6511 Y8.2714
G01 X58.6671 Y8.2891
G01 X58.6813 Y8.3083
G01 X58.6935 Y8.3287
G01 X58.7037 Y8.3503
G01 X58.7117 Y8.3727
G01 X58.7163 Y8.3903
G01 X58.7180 Y8.3986
G01 X58.7207 Y8.4166
G01 X58.7221 Y8.4404
G01 X58.7221 Y8.6858
G01 X58.7210 Y8.7068
G01 X58.7185 Y8.7248
G01 X58.7169 Y8.7332
G01 X58.7125 Y8.7508
G01 X58.7099 Y8.7589
G01 X58.7037 Y8.7760
G01 X58.6948 Y8.7950
G01 X58.6906 Y8.8025
G01 X58.6811 Y8.8181
G01 X58.6705 Y8.8327
G01 X58.6652 Y8.8393
G01 X58.6509 Y8.8549
G01 X58.6354 Y8.8691
G01 X58.6288 Y8.8744
G01 X58.6141 Y8.8851
G01 X58.5962 Y8.8960
G01 X58.5885 Y8.8999
G01 X58.5719 Y8.9076
G01 X58.5523 Y8.9148
G01 X58.5441 Y8.9171
G01 X58.5266 Y8.9214
G01 X58.5085 Y8.9242
G01 X58.5000 Y8.9252
G01 X58.4790 Y8.9261
G01 X55.2899 Y8.9261
G01 X55.2012 Y8.9348
G01 X55.1273 Y8.9572
G01 X55.0593 Y8.9936
G01 X54.9996 Y9.0426
G01 X54.9709 Y9.0774
G01 X54.9568 Y9.0929
G01 X54.9391 Y9.1090
G01 X54.9246 Y9.1199
G01 X54.9175 Y9.1247
G01 X54.8969 Y9.1368
G01 X54.8807 Y9.1444
G01 X54.8725 Y9.1477
G01 X54.8553 Y9.1537
G01 X54.8378 Y9.1582
G01 X54.8294 Y9.1600
G01 X54.8115 Y9.1627
G01 X54.8030 Y9.1634
G01 X54.7848 Y9.1642
G01 X53.3728 Y9.1642
G01 X53.3518 Y9.1632
G01 X53.3220 Y9.1603
G01 X53.1668 Y9.1756
G01 X53.0175 Y9.2209
G01 X52.8799 Y9.2944
G01 X52.7594 Y9.3934
G01 X52.7403 Y9.4165
G01 X52.7261 Y9.4320
G01 X51.0200 Y11.1381
G01 X51.0045 Y11.1523
G01 X50.9814 Y11.1714
G01 X50.8824 Y11.2920
G01 X50.8089 Y11.4295
G01 X50.7636 Y11.5788
G01 X50.7483 Y11.7340
G01 X50.7512 Y11.7638
G01 X50.7522 Y11.7848
G01 X50.7522 Y16.3449
G01 X50.7510 Y16.3687
G01 X50.7485 Y16.3867
G01 X50.7469 Y16.3951
G01 X50.7417 Y16.4155
G01 X50.7337 Y16.4380
G01 X50.7235 Y16.4595
G01 X50.7141 Y16.4753
G01 X50.7095 Y16.4824
G01 X50.7005 Y16.4947
G01 X50.6932 Y16.5035
G01 X50.6789 Y16.5188
G01 X50.6610 Y16.5347
G01 X50.6441 Y16.5471
G01 X50.6286 Y16.5565
G01 X50.6211 Y16.5607
G01 X50.6021 Y16.5696
G01 X50.5823 Y16.5767
G01 X50.5260 Y16.5938
G01 X50.5026 Y16.6023
G01 X50.4794 Y16.6081
G01 X50.4558 Y16.6116
G01 X50.4320 Y16.6128
G01 X50.4082 Y16.6116
G01 X50.3902 Y16.6091
G01 X50.3818 Y16.6075
G01 X50.3614 Y16.6023
G01 X50.3380 Y16.5938
G01 X50.2588 Y16.5698
G01 X50.1709 Y16.5612
G01 X49.8191 Y16.5635
G01 X49.8022 Y16.5805
G01 X49.8022 Y16.8399
G01 X50.1820 Y16.8399
G01 X50.1934 Y16.8405
G01 X50.2046 Y16.8421
G01 X50.2130 Y16.8441
G01 X50.2211 Y16.8467
G01 X50.2290 Y16.8499
G01 X50.2367 Y16.8536
G01 X50.2441 Y16.8579
G01 X50.2512 Y16.8627
G01 X50.2578 Y16.8681
G01 X50.2641 Y16.8739
G01 X50.2699 Y16.8802
G01 X50.2753 Y16.8868
G01 X50.2801 Y16.8939
G01 X50.2844 Y16.9013
G01 X50.2881 Y16.9090
G01 X50.2913 Y16.9169
G01 X50.2939 Y16.9250
G01 X50.2959 Y16.9334
G01 X50.2975 Y16.9446
G01 X50.2981 Y16.9560
G01 X50.2981 Y18.9560
G01 X50.2978 Y18.9645
G01 X50.2968 Y18.9730
G01 X50.2953 Y18.9814
G01 X50.2931 Y18.9897
G01 X50.2893 Y19.0004
G01 X50.2857 Y19.0082
G01 X50.2816 Y19.0157
G01 X50.2769 Y19.0229
G01 X50.2717 Y19.0297
G01 X50.2661 Y19.0361
G01 X50.2600 Y19.0420
G01 X50.2534 Y19.0475
G01 X50.2465 Y19.0525
G01 X50.2392 Y19.0570
G01 X50.2316 Y19.0610
G01 X50.2238 Y19.0643
G01 X50.2157 Y19.0671
G01 X50.2074 Y19.0693
G01 X50.1962 Y19.0712
G01 X50.1877 Y19.0720
G01 X48.6792 Y19.0721
G01 X48.6678 Y19.0712
G01 X48.6566 Y19.0693
G01 X48.6483 Y19.0671
G01 X48.6376 Y19.0633
G01 X48.6273 Y19.0584
G01 X48.6175 Y19.0525
G01 X48.6083 Y19.0457
G01 X48.5999 Y19.0381
G01 X48.5923 Y19.0297
G01 X48.5871 Y19.0229
G01 X48.5810 Y19.0132
G01 X48.5759 Y19.0030
G01 X48.5718 Y18.9924
G01 X48.5687 Y18.9814
G01 X48.5672 Y18.9730
G01 X48.5660 Y18.9617
G01 X48.5659 Y16.9560
G01 X48.5662 Y16.9475
G01 X48.5672 Y16.9390
G01 X48.5687 Y16.9306
G01 X48.5709 Y16.9223
G01 X48.5737 Y16.9142
G01 X48.5770 Y16.9064
G01 X48.5810 Y16.8988
G01 X48.5855 Y16.8915
G01 X48.5923 Y16.8823
G01 X48.5979 Y16.8759
G01 X48.6040 Y16.8700
G01 X48.6128 Y16.8627
G01 X48.6199 Y16.8579
G01 X48.6273 Y16.8536
G01 X48.6350 Y16.8499
G01 X48.6429 Y16.8467
G01 X48.6510 Y16.8441
G01 X48.6594 Y16.8421
G01 X48.6706 Y16.8405
G01 X48.6820 Y16.8399
G01 X49.0618 Y16.8399
G01 X49.0618 Y16.5805
G01 X49.0449 Y16.5635
G01 X48.6931 Y16.5612
G01 X48.6052 Y16.5698
G01 X48.5348 Y16.5911
G01 X48.5144 Y16.5961
G01 X48.4937 Y16.5993
G01 X48.4727 Y16.6007
G01 X48.4613 Y16.6007
G01 X48.4432 Y16.5996
G01 X48.4196 Y16.5961
G01 X48.3991 Y16.5911
G01 X48.3910 Y16.5886
G01 X48.3739 Y16.5823
G01 X48.3524 Y16.5721
G01 X48.3343 Y16.5614
G01 X48.3272 Y16.5565
G01 X48.3127 Y16.5456
G01 X48.2992 Y16.5335
G01 X48.2931 Y16.5275
G01 X48.2790 Y16.5119
G01 X48.2664 Y16.4951
G01 X48.2618 Y16.4879
G01 X48.2525 Y16.4723
G01 X48.2435 Y16.4533
G01 X48.2361 Y16.4336
G01 X48.2328 Y16.4227
G01 X48.2285 Y16.4051
G01 X48.2257 Y16.3871
G01 X48.2248 Y16.3786
G01 X48.2238 Y16.3576
G01 X48.2238 Y13.5148
G01 X48.2248 Y13.4938
G01 X48.2277 Y13.4640
G01 X48.2124 Y13.3088
G01 X48.1671 Y13.1595
G01 X48.0936 Y13.0220
G01 X47.9946 Y12.9014
G01 X47.9715 Y12.8823
G01 X47.9560 Y12.8681
G01 X46.2979 Y11.2100
G01 X46.2837 Y11.1945
G01 X46.2646 Y11.1714
G01 X46.1440 Y11.0724
G01 X46.0065 Y10.9989
G01 X45.8572 Y10.9536
G01 X45.7020 Y10.9383
G01 X45.6722 Y10.9412
G01 X45.6512 Y10.9422
G01 X39.6568 Y10.9422
G01 X39.6358 Y10.9412
G01 X39.6060 Y10.9383
G01 X39.4508 Y10.9536
G01 X39.3015 Y10.9989
G01 X39.1639 Y11.0724
G01 X39.0434 Y11.1714
G01 X39.0246 Y11.1942
G01 X39.0101 Y11.2100
G01 X36.7642 Y13.4559
G01 X36.7486 Y13.4700
G01 X36.7294 Y13.4842
G01 X36.7089 Y13.4965
G01 X36.6926 Y13.5043
G01 X36.6820 Y13.5087
G01 X36.6621 Y13.5155
G01 X36.6417 Y13.5205
G01 X36.6181 Y13.5240
G01 X36.5943 Y13.5252
G01 X33.6686 Y13.5252
G01 X33.6476 Y13.5242
G01 X33.6391 Y13.5233
G01 X33.6211 Y13.5205
G01 X33.5980 Y13.5147
G01 X33.5755 Y13.5067
G01 X33.5591 Y13.4990
G01 X33.5490 Y13.4936
G01 X33.5312 Y13.4826
G01 X33.5143 Y13.4700
G01 X33.4987 Y13.4559
G01 X33.4843 Y13.4406
G01 X33.4771 Y13.4318
G01 X33.4664 Y13.4171
G01 X33.4541 Y13.3966
G01 X33.4440 Y13.3752
G01 X33.4377 Y13.3580
G01 X33.4344 Y13.3471
G01 X33.4296 Y13.3267
G01 X33.4266 Y13.3058
G01 X33.4254 Y13.2820
G01 X33.4262 Y13.2639
G01 X33.4269 Y13.2554
G01 X33.4296 Y13.2374
G01 X33.4313 Y13.2290
G01 X33.4351 Y13.2142
G01 X33.4377 Y13.2060
G01 X33.4439 Y13.1890
G01 X33.4516 Y13.1725
G01 X33.4555 Y13.1649
G01 X33.4647 Y13.1495
G01 X33.4787 Y13.1301
G01 X33.4880 Y13.1194
G01 X33.5464 Y13.0482
G01 X33.5828 Y12.9802
G01 X33.6052 Y12.9063
G01 X33.6138 Y12.8188
G01 X33.6119 Y12.6295
G01 X33.5945 Y12.6122
G01 X33.3336 Y12.6122
G01 X33.3326 Y12.6210
G01 X33.3290 Y12.6453
G01 X33.3268 Y12.6565
G01 X33.3193 Y12.6858
G01 X33.3072 Y12.7196
G01 X33.2919 Y12.7521
G01 X33.2764 Y12.7781
G01 X33.2718 Y12.7852
G01 X33.2555 Y12.8073
G01 X33.2483 Y12.8161
G01 X33.2279 Y12.8384
G01 X33.2013 Y12.8625
G01 X33.1724 Y12.8839
G01 X33.1465 Y12.8996
G01 X33.1390 Y12.9037
G01 X33.1143 Y12.9154
G01 X33.1038 Y12.9198
G01 X33.0752 Y12.9299
G01 X33.0404 Y12.9386
G01 X33.0049 Y12.9438
G01 X32.9690 Y12.9456
G01 X32.0190 Y12.9456
G01 X31.9831 Y12.9438
G01 X31.9476 Y12.9386
G01 X31.9127 Y12.9298
G01 X31.8789 Y12.9177
G01 X31.8464 Y12.9024
G01 X31.8156 Y12.8839
G01 X31.7868 Y12.8626
G01 X31.7643 Y12.8423
G01 X31.7581 Y12.8363
G01 X31.7378 Y12.8139
G01 X31.7179 Y12.7876
G01 X31.7116 Y12.7781
G01 X31.6975 Y12.7546
G01 X31.6936 Y12.7470
G01 X31.6808 Y12.7198
G01 X31.6705 Y12.6912
G01 X31.6679 Y12.6831
G01 X31.6599 Y12.6509
G01 X31.6554 Y12.6210
G01 X31.6544 Y12.6122
G01 X31.3935 Y12.6122
G01 X31.3761 Y12.6295
G01 X31.3742 Y12.8188
G01 X31.3828 Y12.9063
G01 X31.4052 Y12.9802
G01 X31.4416 Y13.0482
G01 X31.5000 Y13.1194
G01 X31.5074 Y13.1278
G01 X31.5183 Y13.1423
G01 X31.5232 Y13.1493
G01 X31.5325 Y13.1649
G01 X31.5430 Y13.1863
G01 X31.5461 Y13.1943
G01 X31.5521 Y13.2114
G01 X31.5567 Y13.2292
G01 X31.5584 Y13.2374
G01 X31.5611 Y13.2554
G01 X31.5618 Y13.2639
G01 X31.5626 Y13.2820
G01 X31.5618 Y13.3002
G01 X31.5611 Y13.3087
G01 X31.5589 Y13.3238
G01 X31.5567 Y13.3350
G01 X31.5512 Y13.3553
G01 X31.5451 Y13.3724
G01 X31.5418 Y13.3803
G01 X31.5339 Y13.3966
G01 X31.5215 Y13.4172
G01 X31.5074 Y13.4363
G01 X31.4914 Y13.4539
G01 X31.4737 Y13.4700
G01 X31.4545 Y13.4842
G01 X31.4340 Y13.4965
G01 X31.4174 Y13.5045
G01 X31.4098 Y13.5077
G01 X31.3927 Y13.5138
G01 X31.3724 Y13.5192
G01 X31.3641 Y13.5210
G01 X31.3489 Y13.5233
G01 X31.3376 Y13.5244
G01 X31.3194 Y13.5252
G01 X22.3753 Y13.5252
G01 X22.3514 Y13.5240
G01 X22.3335 Y13.5215
G01 X22.3251 Y13.5199
G01 X22.3047 Y13.5147
G01 X22.2352 Y13.4936
G01 X22.1189 Y13.4822
G01 X17.5270 Y13.4822
G01 X17.5088 Y13.4814
G01 X17.5003 Y13.4807
G01 X17.4796 Y13.4775
G01 X17.4564 Y13.4717
G01 X17.4339 Y13.4637
G01 X17.4175 Y13.4560
G01 X17.4074 Y13.4506
G01 X17.3895 Y13.4395
G01 X17.3728 Y13.4270
G01 X17.3551 Y13.4109
G01 X17.3390 Y13.3933
G01 X17.3248 Y13.3741
G01 X17.3126 Y13.3537
G01 X17.3047 Y13.3373
G01 X17.3003 Y13.3267
G01 X17.2952 Y13.3123
G01 X17.2928 Y13.3041
G01 X17.2880 Y13.2836
G01 X17.2848 Y13.2600
G01 X17.2838 Y13.2390
G01 X17.2838 Y10.5148
G01 X17.2848 Y10.4938
G01 X17.2877 Y10.4640
G01 X17.2724 Y10.3088
G01 X17.2271 Y10.1595
G01 X17.1536 Y10.0220
G01 X17.0546 Y9.9014
G01 X17.0315 Y9.8823
G01 X17.0160 Y9.8681
G01 X15.8311 Y8.6832
G01 X15.8150 Y8.6656
G01 X15.8008 Y8.6463
G01 X15.7885 Y8.6259
G01 X15.7807 Y8.6096
G01 X15.7773 Y8.6017
G01 X15.7711 Y8.5844
G01 X15.7651 Y8.5615
G01 X15.7635 Y8.5531
G01 X15.7610 Y8.5351
G01 X15.7599 Y8.5141
G01 X15.7599 Y7.3339
G01 X15.7610 Y7.3129
G01 X15.7645 Y7.2893
G01 X15.7703 Y7.2661
G01 X15.7763 Y7.2490
G01 X15.7807 Y7.2384
G01 X15.7899 Y7.2196
G01 X15.8008 Y7.2016
G01 X15.8133 Y7.1847
G01 X15.8188 Y7.1781
G01 X15.8311 Y7.1648
G01 X16.1998 Y6.7961
G01 X16.2153 Y6.7818
G01 X16.2321 Y6.7690
G01 X16.2414 Y6.7628
G01 X16.2571 Y6.7535
G01 X16.2785 Y6.7434
G01 X16.3011 Y6.7353
G01 X16.3187 Y6.7308
G01 X16.3299 Y6.7285
G01 X16.3507 Y6.7258
G01 X16.3717 Y6.7248
G01 X16.8646 Y6.7249
G01 X16.8828 Y6.7258
G01 X16.8913 Y6.7267
G01 X16.9092 Y6.7295
G01 X16.9269 Y6.7338
G01 X16.9351 Y6.7362
G01 X16.9522 Y6.7423
G01 X16.9739 Y6.7522
G01 X16.9814 Y6.7564
G01 X16.9969 Y6.7658
G01 X17.0138 Y6.7783
G01 X17.0204 Y6.7838
G01 X17.0357 Y6.7981
G01 X17.0481 Y6.8118
G01 X17.0698 Y6.8382
G01 X17.1674 Y6.9182
G01 X17.2787 Y6.9777
G01 X17.3994 Y7.0144
G01 X17.5369 Y7.0279
G01 X18.2131 Y7.0279
G01 X18.3506 Y7.0144
G01 X18.4713 Y6.9777
G01 X18.5826 Y6.9182
G01 X18.6802 Y6.8382
G01 X18.6908 Y6.8255
G01 X18.7051 Y6.8102
G01 X18.7207 Y6.7961
G01 X18.7352 Y6.7852
G01 X18.7423 Y6.7804
G01 X18.7579 Y6.7710
G01 X18.7655 Y6.7671
G01 X18.7819 Y6.7595
G01 X18.8017 Y6.7523
G01 X18.8099 Y6.7499
G01 X18.8276 Y6.7456
G01 X18.8483 Y6.7424
G01 X18.8568 Y6.7417
G01 X18.8750 Y6.7409
G01 X18.8960 Y6.7419
G01 X18.9045 Y6.7428
G01 X18.9252 Y6.7462
G01 X18.9456 Y6.7514
G01 X18.9654 Y6.7584
G01 X18.9845 Y6.7671
G01 X18.9946 Y6.7725
G01 X19.0124 Y6.7835
G01 X19.0314 Y6.7979
G01 X19.0489 Y6.8142
G01 X19.0607 Y6.8271
G01 X19.0698 Y6.8382
G01 X19.1673 Y6.9182
G01 X19.1849 Y6.9342
G01 X19.2010 Y6.9519
G01 X19.2152 Y6.9710
G01 X19.2275 Y6.9915
G01 X19.2377 Y7.0131
G01 X19.2457 Y7.0354
G01 X19.2515 Y7.0587
G01 X19.2550 Y7.0823
G01 X19.2560 Y7.1004
G01 X19.2560 Y7.7550
G01 X19.2550 Y7.7731
G01 X19.2525 Y7.7911
G01 X19.2509 Y7.7995
G01 X19.2465 Y7.8171
G01 X19.2439 Y7.8253
G01 X19.2377 Y7.8423
G01 X19.2300 Y7.8588
G01 X19.2261 Y7.8664
G01 X19.2152 Y7.8844
G01 X19.2045 Y7.8991
G01 X19.1991 Y7.9057
G01 X19.1849 Y7.9212
G01 X18.6310 Y8.4752
G01 X18.6134 Y8.4911
G01 X18.5965 Y8.5038
G01 X18.5893 Y8.5085
G01 X18.5737 Y8.5177
G01 X18.5547 Y8.5268
G01 X18.5468 Y8.5299
G01 X18.5296 Y8.5359
G01 X18.5033 Y8.5424
G01 X18.3319 Y8.6134
G01 X18.1776 Y8.7164
G01 X18.0464 Y8.8476
G01 X17.9434 Y9.0019
G01 X17.8724 Y9.1733
G01 X17.8362 Y9.3552
G01 X17.8362 Y9.5408
G01 X17.8724 Y9.7227
G01 X17.9434 Y9.8941
G01 X18.0464 Y10.0484
G01 X18.1776 Y10.1796
G01 X18.3319 Y10.2826
G01 X18.5033 Y10.3536
G01 X18.6852 Y10.3898
G01 X18.8708 Y10.3898
G01 X19.0527 Y10.3536
G01 X19.2241 Y10.2826
G01 X19.3784 Y10.1796
G01 X19.5096 Y10.0484
G01 X19.6126 Y9.8941
G01 X19.6836 Y9.7227
G01 X19.6901 Y9.6964
G01 X19.6961 Y9.6792
G01 X19.6992 Y9.6713
G01 X19.7083 Y9.6523
G01 X19.7175 Y9.6367
G01 X19.7222 Y9.6295
G01 X19.7348 Y9.6127
G01 X19.7508 Y9.5950
G01 X20.5720 Y8.7739
G01 X20.5875 Y8.7597
G01 X20.6106 Y8.7406
G01 X20.7096 Y8.6201
G01 X20.7831 Y8.4825
G01 X20.8284 Y8.3332
G01 X20.8437 Y8.1780
G01 X20.8408 Y8.1482
G01 X20.8398 Y8.1272
G01 X20.8398 Y6.9680
G01 X20.8410 Y6.9442
G01 X20.8435 Y6.9262
G01 X20.8451 Y6.9178
G01 X20.8495 Y6.9001
G01 X20.8521 Y6.8920
G01 X20.8583 Y6.8749
G01 X20.8660 Y6.8585
G01 X20.8699 Y6.8509
G01 X20.8779 Y6.8376
G01 X20.8825 Y6.8305
G01 X20.8950 Y6.8138
G01 X20.9111 Y6.7961
G01 X20.9287 Y6.7800
G01 X20.9432 Y6.7691
G01 X20.9503 Y6.7643
G01 X20.9683 Y6.7536
G01 X20.9850 Y6.7455
G01 X20.9927 Y6.7423
G01 X21.0124 Y6.7353
G01 X21.0329 Y6.7301
G01 X21.0412 Y6.7285
G01 X21.0592 Y6.7260
G01 X21.0773 Y6.7250
G01 X21.6118 Y6.7248
G01 X21.6356 Y6.7260
G01 X21.6592 Y6.7295
G01 X21.6824 Y6.7353
G01 X21.7048 Y6.7433
G01 X21.7264 Y6.7535
G01 X21.7469 Y6.7658
G01 X21.7660 Y6.7800
G01 X21.7837 Y6.7961
G01 X21.7981 Y6.8118
G01 X21.8198 Y6.8382
G01 X21.9174 Y6.9182
G01 X22.0287 Y6.9777
G01 X22.1494 Y7.0144
G01 X22.2869 Y7.0279
G01 X22.9631 Y7.0279
G01 X23.1006 Y7.0144
G01 X23.2213 Y6.9777
G01 X23.3326 Y6.9182
G01 X23.3954 Y6.8668
G01 X23.4121 Y6.8542
G01 X23.4194 Y6.8495
G01 X23.4350 Y6.8403
G01 X23.4542 Y6.8311
G01 X23.4791 Y6.8220
G01 X23.5022 Y6.8162
G01 X23.5258 Y6.8127
G01 X23.5496 Y6.8116
G01 X23.5678 Y6.8123
G01 X23.5763 Y6.8130
G01 X23.5943 Y6.8157
G01 X23.6026 Y6.8175
G01 X23.6202 Y6.8220
G01 X23.6374 Y6.8280
G01 X23.6453 Y6.8312
G01 X23.6643 Y6.8403
G01 X23.6847 Y6.8525
G01 X23.6994 Y6.8632
G01 X23.7061 Y6.8686
G01 X23.7236 Y6.8848
G01 X23.7358 Y6.8983
G01 X23.7466 Y6.9114
G01 X23.8063 Y6.9604
G01 X23.8743 Y6.9968
G01 X23.9482 Y7.0192
G01 X24.0358 Y7.0278
G01 X24.2375 Y7.0258
G01 X24.2548 Y7.0085
G01 X24.2548 Y6.7482
G01 X24.2363 Y6.7470
G01 X24.2008 Y6.7415
G01 X24.1687 Y6.7333
G01 X24.1402 Y6.7233
G01 X24.1323 Y6.7201
G01 X24.1024 Y6.7059
G01 X24.0715 Y6.6873
G01 X24.0427 Y6.6660
G01 X24.0203 Y6.6458
G01 X24.0141 Y6.6398
G01 X23.9920 Y6.6153
G01 X23.9706 Y6.5864
G01 X23.9521 Y6.5556
G01 X23.9368 Y6.5233
G01 X23.9246 Y6.4892
G01 X23.9159 Y6.4544
G01 X23.9107 Y6.4189
G01 X23.9089 Y6.3830
G01 X23.9089 Y5.4830
G01 X23.9107 Y5.4471
G01 X23.9150 Y5.4172
G01 X23.9165 Y5.4088
G01 X23.9247 Y5.3767
G01 X23.9357 Y5.3455
G01 X23.9496 Y5.3155
G01 X23.9549 Y5.3055
G01 X23.9707 Y5.2795
G01 X23.9920 Y5.2507
G01 X24.0161 Y5.2241
G01 X24.0406 Y5.2018
G01 X24.0669 Y5.1819
G01 X24.0764 Y5.1755
G01 X24.1024 Y5.1601
G01 X24.1297 Y5.1471
G01 X24.1375 Y5.1437
G01 X24.1688 Y5.1326
G01 X24.2008 Y5.1245
G01 X24.2363 Y5.1190
G01 X24.2548 Y5.1177
G01 X24.2548 Y4.8575
G01 X24.2375 Y4.8402
G01 X24.0358 Y4.8382
G01 X23.9482 Y4.8468
G01 X23.8743 Y4.8692
G01 X23.8063 Y4.9056
G01 X23.7466 Y4.9546
G01 X23.7358 Y4.9677
G01 X23.7236 Y4.9812
G01 X23.7062 Y4.9973
G01 X23.6870 Y5.0119
G01 X23.6668 Y5.0244
G01 X23.6592 Y5.0283
G01 X23.6427 Y5.0359
G01 X23.6229 Y5.0431
G01 X23.6147 Y5.0455
G01 X23.5971 Y5.0498
G01 X23.5791 Y5.0526
G01 X23.5706 Y5.0535
G01 X23.5496 Y5.0544
G01 X23.5258 Y5.0533
G01 X23.5022 Y5.0498
G01 X23.4791 Y5.0440
G01 X23.4619 Y5.0380
G01 X23.4540 Y5.0348
G01 X23.4350 Y5.0257
G01 X23.4194 Y5.0165
G01 X23.4122 Y5.0118
G01 X23.3954 Y4.9992
G01 X23.3326 Y4.9478
G01 X23.2213 Y4.8883
G01 X23.1006 Y4.8516
G01 X22.9631 Y4.8381
G01 X22.2869 Y4.8381
G01 X22.1494 Y4.8516
G01 X22.0287 Y4.8883
G01 X21.9174 Y4.9478
G01 X21.8198 Y5.0278
G01 X21.7979 Y5.0544
G01 X21.7877 Y5.0658
G01 X21.7817 Y5.0719
G01 X21.7682 Y5.0841
G01 X21.7615 Y5.0895
G01 X21.7469 Y5.1002
G01 X21.7264 Y5.1125
G01 X21.7075 Y5.1215
G01 X21.6995 Y5.1247
G01 X21.6824 Y5.1307
G01 X21.6648 Y5.1352
G01 X21.6564 Y5.1370
G01 X21.6384 Y5.1397
G01 X21.6299 Y5.1404
G01 X21.6118 Y5.1412
G01 X20.8882 Y5.1412
G01 X20.8644 Y5.1400
G01 X20.8464 Y5.1375
G01 X20.8380 Y5.1359
G01 X20.8176 Y5.1307
G01 X20.7952 Y5.1227
G01 X20.7736 Y5.1124
G01 X20.7531 Y5.1002
G01 X20.7340 Y5.0860
G01 X20.7163 Y5.0699
G01 X20.7019 Y5.0542
G01 X20.6802 Y5.0278
G01 X20.5826 Y4.9478
G01 X20.4713 Y4.8883
G01 X20.3506 Y4.8516
G01 X20.2131 Y4.8381
G01 X19.5369 Y4.8381
G01 X19.3994 Y4.8516
G01 X19.2787 Y4.8883
G01 X19.1674 Y4.9478
G01 X19.0698 Y5.0278
G01 X19.0611 Y5.0383
G01 X19.0489 Y5.0518
G01 X19.0428 Y5.0578
G01 X19.0293 Y5.0699
G01 X19.0101 Y5.0841
G01 X18.9896 Y5.0963
G01 X18.9733 Y5.1042
G01 X18.9654 Y5.1076
G01 X18.9483 Y5.1137
G01 X18.9401 Y5.1161
G01 X18.9224 Y5.1204
G01 X18.9045 Y5.1232
G01 X18.8960 Y5.1241
G01 X18.8750 Y5.1251
G01 X18.8540 Y5.1241
G01 X18.8455 Y5.1232
G01 X18.8276 Y5.1204
G01 X18.8099 Y5.1161
G01 X18.8017 Y5.1137
G01 X18.7846 Y5.1076
G01 X18.7767 Y5.1042
G01 X18.7604 Y5.0963
G01 X18.7400 Y5.0841
G01 X18.7208 Y5.0699
G01 X18.7072 Y5.0578
G01 X18.7011 Y5.0518
G01 X18.6893 Y5.0389
G01 X18.6802 Y5.0278
G01 X18.5826 Y4.9478
G01 X18.4713 Y4.8883
G01 X18.3506 Y4.8516
G01 X18.2131 Y4.8381
G01 X17.5369 Y4.8381
G01 X17.3994 Y4.8516
G01 X17.2787 Y4.8883
G01 X17.1674 Y4.9478
G01 X17.0698 Y5.0278
G01 X17.0479 Y5.0544
G01 X17.0337 Y5.0699
G01 X17.0160 Y5.0860
G01 X17.0015 Y5.0969
G01 X16.9945 Y5.1017
G01 X16.9789 Y5.1111
G01 X16.9575 Y5.1215
G01 X16.9495 Y5.1247
G01 X16.9324 Y5.1307
G01 X16.9092 Y5.1365
G01 X16.8856 Y5.1400
G01 X16.8618 Y5.1412
G01 X15.9938 Y5.1412
G01 X15.9728 Y5.1402
G01 X15.9430 Y5.1373
G01 X15.7878 Y5.1526
G01 X15.6385 Y5.1979
G01 X15.5010 Y5.2714
G01 X15.3804 Y5.3704
G01 X15.3613 Y5.3935
G01 X15.3471 Y5.4090
G01 X14.7112 Y6.0449
G01 X14.6936 Y6.0610
G01 X14.6744 Y6.0752
G01 X14.6564 Y6.0861
G01 X14.6373 Y6.0955
G01 X14.6270 Y6.0997
G01 X14.6100 Y6.1057
G01 X14.5868 Y6.1115
G01 X14.5631 Y6.1150
G01 X14.5421 Y6.1161
G01 X10.7521 Y6.1162
G01 X10.7282 Y6.1150
G01 X10.7046 Y6.1115
G01 X10.6870 Y6.1072
G01 X10.6788 Y6.1048
G01 X10.6617 Y6.0987
G01 X10.6538 Y6.0953
G01 X10.6374 Y6.0875
G01 X10.6218 Y6.0782
G01 X10.6146 Y6.0735
G01 X10.6023 Y6.0645
G01 X10.5957 Y6.0592
G01 X10.5822 Y6.0469
G01 X10.5762 Y6.0408
G01 X10.5641 Y6.0273
G01 X10.5499 Y6.0081
G01 X10.5404 Y5.9926
G01 X10.5363 Y5.9851
G01 X10.5274 Y5.9659
G01 X10.5194 Y5.9436
G01 X10.5136 Y5.9206
G01 X10.5104 Y5.8997
G01 X10.5089 Y5.8758
G01 X10.5089 Y5.8074
G01 X10.4954 Y5.6699
G01 X10.4587 Y5.5492
G01 X10.3992 Y5.4379
G01 X10.3192 Y5.3403
G01 X10.2216 Y5.2603
G01 X10.1103 Y5.2008
G01 X9.9896 Y5.1641
G01 X9.8521 Y5.1506
G01 X6.8759 Y5.1506
G01 X6.7384 Y5.1641
G01 X6.6177 Y5.2008
G01 X6.5064 Y5.2603
G01 X6.4088 Y5.3403
G01 X6.3288 Y5.4379
G01 X6.3036 Y5.4846
G01 X6.2942 Y5.5001
G01 X6.2835 Y5.5148
G01 X6.2781 Y5.5214
G01 X6.2659 Y5.5349
G01 X6.2484 Y5.5511
G01 X6.2317 Y5.5639
G01 X6.2223 Y5.5702
G01 X6.2066 Y5.5795
G01 X6.1850 Y5.5897
G01 X6.1626 Y5.5977
G01 X6.1448 Y5.6023
G01 X6.1366 Y5.6040
G01 X6.1215 Y5.6063
G01 X6.1101 Y5.6074
G01 X6.0920 Y5.6082
G01 X4.8840 Y5.6082
G01 X4.8658 Y5.6074
G01 X4.8545 Y5.6063
G01 X4.8337 Y5.6029
G01 X4.8134 Y5.5977
G01 X4.7936 Y5.5907
G01 X4.7857 Y5.5873
G01 X4.7693 Y5.5795
G01 X4.7461 Y5.5654
G01 X4.5747 Y5.4944
G01 X4.3928 Y5.4582
G01 X4.2072 Y5.4582
G01 X4.0253 Y5.4944
G01 X3.8539 Y5.5654
G01 X3.6996 Y5.6684
G01 X3.5684 Y5.7996
G01 X3.4654 Y5.9539
G01 X3.3944 Y6.1253
G01 X3.3582 Y6.3072
G01 X3.3582 Y6.4928
G01 X3.3944 Y6.6747
G01 X3.4654 Y6.8461
G01 X3.5684 Y7.0004
G01 X3.6996 Y7.1316
G01 X3.8603 Y7.2389
G01 X3.8781 Y7.2497
G01 X3.8951 Y7.2622
G01 X3.9016 Y7.2677
G01 X3.9150 Y7.2800
G01 X3.9273 Y7.2934
G01 X3.9328 Y7.2999
G01 X3.9419 Y7.3122
G01 X3.9468 Y7.3192
G01 X3.9561 Y7.3348
G01 X3.9666 Y7.3565
G01 X3.9739 Y7.3759
G01 X3.9765 Y7.3841
G01 X3.9815 Y7.4045
G01 X3.9843 Y7.4224
G01 X3.9853 Y7.4309
G01 X3.9862 Y7.4519
G01 X3.9853 Y7.4729
G01 X3.9843 Y7.4814
G01 X3.9815 Y7.4994
G01 X3.9772 Y7.5170
G01 X3.9749 Y7.5252
G01 X3.9677 Y7.5450
G01 X3.9588 Y7.5640
G01 X3.9547 Y7.5715
G01 X3.9452 Y7.5871
G01 X3.9328 Y7.6040
G01 X3.9273 Y7.6105
G01 X3.9150 Y7.6239
G01 X3.8973 Y7.6399
G01 X3.8781 Y7.6541
G01 X3.8576 Y7.6664
G01 X3.8361 Y7.6766
G01 X3.8136 Y7.6846
G01 X3.7905 Y7.6904
G01 X3.7725 Y7.6932
G01 X3.7640 Y7.6942
G01 X3.7430 Y7.6951
G01 X2.4459 Y7.6951
G01 X2.3572 Y7.7038
G01 X2.2833 Y7.7262
G01 X2.2153 Y7.7626
G01 X2.1556 Y7.8116
G01 X2.1066 Y7.8713
G01 X2.0702 Y7.9393
G01 X2.0478 Y8.0132
G01 X2.0391 Y8.1019
G01 X2.0391 Y9.7781
G01 X2.0478 Y9.8668
G01 X2.0702 Y9.9407
G01 X2.1066 Y10.0087
G01 X2.1556 Y10.0684
G01 X2.2153 Y10.1174
G01 X2.2833 Y10.1538
G01 X2.3411 Y10.1713
G01 X2.3578 Y10.1771
G01 X2.3682 Y10.1814
G01 X2.3817 Y10.1878
G01 X2.3891 Y10.1918
G01 X2.4043 Y10.2009
G01 X2.4231 Y10.2147
G01 X2.4406 Y10.2302
G01 X2.4546 Y10.2452
G01 X2.4690 Y10.2636
G01 X2.4801 Y10.2809
G01 X2.4843 Y10.2882
G01 X2.4910 Y10.3016
G01 X2.4954 Y10.3118
G01 X2.5024 Y10.3311
G01 X2.5084 Y10.3537
G01 X2.5118 Y10.3740
G01 X2.5136 Y10.4001
G01 X2.5131 Y10.4207
G01 X2.5111 Y10.4383
G01 X2.5093 Y10.4493
G01 X2.5047 Y10.4694
G01 X2.4983 Y10.4889
G01 X2.4903 Y10.5079
G01 X2.4807 Y10.5260
G01 X2.4749 Y10.5355
G01 X2.4631 Y10.5524
G01 X2.4517 Y10.5660
G01 X2.4460 Y10.5722
G01 X2.4333 Y10.5846
G01 X2.3670 Y10.6443
G01 X2.2216 Y10.8393
G01 X2.1146 Y11.0640
G01 X2.1042 Y11.0980
G01 X2.1105 Y11.1098
G01 X2.3916 Y11.1098
G01 X2.4320 Y11.0246
G01 X2.4777 Y10.9481
G01 X2.4840 Y10.9386
G01 X2.5371 Y10.8672
G01 X2.5969 Y10.8010
G01 X2.6050 Y10.7929
G01 X2.6711 Y10.7332
G01 X2.7473 Y10.6767
G01 X2.8236 Y10.6308
G01 X2.8337 Y10.6254
G01 X2.9143 Y10.5874
G01 X3.0036 Y10.5555
G01 X3.0955 Y10.5325
G01 X3.1837 Y10.5192
G01 X3.1950 Y10.5181
G01 X3.2840 Y10.5139
G01 X3.3730 Y10.5181
G01 X3.3843 Y10.5192
G01 X3.4725 Y10.5325
G01 X3.5644 Y10.5555
G01 X3.6537 Y10.5874
G01 X3.7343 Y10.6254
G01 X3.7444 Y10.6308
G01 X3.8207 Y10.6767
G01 X3.8924 Y10.7297
G01 X3.9012 Y10.7369
G01 X3.9671 Y10.7969
G01 X4.0308 Y10.8671
G01 X4.0840 Y10.9386
G01 X4.0903 Y10.9481
G01 X4.1360 Y11.0245
G01 X4.1764 Y11.1098
G01 X4.4575 Y11.1098
G01 X4.4638 Y11.0980
G01 X4.4534 Y11.0640
G01 X4.3464 Y10.8393
G01 X4.2010 Y10.6443
G01 X4.1307 Y10.5808
G01 X4.1163 Y10.5661
G01 X4.1049 Y10.5524
G01 X4.1000 Y10.5456
G01 X4.0901 Y10.5309
G01 X4.0801 Y10.5129
G01 X4.0718 Y10.4941
G01 X4.0687 Y10.4863
G01 X4.0626 Y10.4667
G01 X4.0587 Y10.4493
G01 X4.0569 Y10.4383
G01 X4.0548 Y10.4179
G01 X4.0546 Y10.3945
G01 X4.0559 Y10.3768
G01 X4.0570 Y10.3685
G01 X4.0602 Y10.3510
G01 X4.0648 Y10.3338
G01 X4.0673 Y10.3259
G01 X4.0726 Y10.3118
G01 X4.0758 Y10.3041
G01 X4.0838 Y10.2881
G01 X4.0958 Y10.2682
G01 X4.1116 Y10.2473
G01 X4.1255 Y10.2322
G01 X4.1427 Y10.2165
G01 X4.1591 Y10.2041
G01 X4.1684 Y10.1980
G01 X4.1863 Y10.1878
G01 X4.2050 Y10.1791
G01 X4.2217 Y10.1730
G01 X4.2847 Y10.1538
G01 X4.3527 Y10.1174
G01 X4.4124 Y10.0684
G01 X4.4614 Y10.0087
G01 X4.4978 Y9.9407
G01 X4.5202 Y9.8668
G01 X4.5289 Y9.7781
G01 X4.5289 Y8.1019
G01 X4.5202 Y8.0132
G01 X4.4978 Y7.9393
G01 X4.4614 Y7.8713
G01 X4.4124 Y7.8116
G01 X4.3431 Y7.7547
G01 X4.3256 Y7.7384
G01 X4.3134 Y7.7250
G01 X4.3081 Y7.7183
G01 X4.2974 Y7.7036
G01 X4.2865 Y7.6856
G01 X4.2772 Y7.6668
G01 X4.2728 Y7.6563
G01 X4.2669 Y7.6392
G01 X4.2610 Y7.6160
G01 X4.2575 Y7.5924
G01 X4.2565 Y7.5742
G01 X4.2564 Y7.5657
G01 X4.2575 Y7.5447
G01 X4.2601 Y7.5267
G01 X4.2616 Y7.5183
G01 X4.2660 Y7.5007
G01 X4.2686 Y7.4925
G01 X4.2738 Y7.4781
G01 X4.2772 Y7.4703
G01 X4.2851 Y7.4539
G01 X4.2943 Y7.4382
G01 X4.2990 Y7.4311
G01 X4.3098 Y7.4165
G01 X4.3153 Y7.4099
G01 X4.3276 Y7.3966
G01 X4.3410 Y7.3843
G01 X4.3475 Y7.3788
G01 X4.3621 Y7.3680
G01 X4.3693 Y7.3633
G01 X4.3849 Y7.3541
G01 X4.4039 Y7.3450
G01 X4.4235 Y7.3376
G01 X4.4317 Y7.3350
G01 X4.4521 Y7.3300
G01 X4.5747 Y7.3056
G01 X4.7461 Y7.2346
G01 X4.7644 Y7.2234
G01 X4.7744 Y7.2180
G01 X4.7936 Y7.2093
G01 X4.8161 Y7.2015
G01 X4.8366 Y7.1965
G01 X4.8545 Y7.1937
G01 X4.8630 Y7.1928
G01 X4.8840 Y7.1918
G01 X5.9788 Y7.1919
G01 X5.9998 Y7.1930
G01 X6.0178 Y7.1955
G01 X6.0262 Y7.1971
G01 X6.0465 Y7.2023
G01 X6.0690 Y7.2103
G01 X6.0855 Y7.2180
G01 X6.0955 Y7.2234
G01 X6.1134 Y7.2345
G01 X6.1301 Y7.2470
G01 X6.1479 Y7.2631
G01 X6.1639 Y7.2807
G01 X6.1748 Y7.2952
G01 X6.1797 Y7.3023
G01 X6.1904 Y7.3203
G01 X6.1984 Y7.3370
G01 X6.2017 Y7.3447
G01 X6.2094 Y7.3672
G01 X6.2139 Y7.3849
G01 X6.2154 Y7.3932
G01 X6.2179 Y7.4112
G01 X6.2191 Y7.4350
G01 X6.2191 Y8.0086
G01 X6.2326 Y8.1461
G01 X6.2693 Y8.2668
G01 X6.3288 Y8.3781
G01 X6.4088 Y8.4757
G01 X6.5064 Y8.5557
G01 X6.6177 Y8.6152
G01 X6.7384 Y8.6519
G01 X6.8759 Y8.6654
G01 X9.8521 Y8.6654
G01 X9.9896 Y8.6519
G01 X10.1103 Y8.6152
G01 X10.2216 Y8.5557
G01 X10.3192 Y8.4757
G01 X10.3992 Y8.3781
G01 X10.4587 Y8.2668
G01 X10.4954 Y8.1461
G01 X10.5089 Y8.0086
G01 X10.5089 Y7.9402
G01 X10.5104 Y7.9163
G01 X10.5136 Y7.8956
G01 X10.5194 Y7.8724
G01 X10.5274 Y7.8499
G01 X10.5351 Y7.8335
G01 X10.5390 Y7.8259
G01 X10.5499 Y7.8078
G01 X10.5606 Y7.7932
G01 X10.5659 Y7.7866
G01 X10.5781 Y7.7731
G01 X10.5843 Y7.7671
G01 X10.5978 Y7.7550
G01 X10.6146 Y7.7424
G01 X10.6218 Y7.7378
G01 X10.6374 Y7.7286
G01 X10.6541 Y7.7205
G01 X10.6643 Y7.7163
G01 X10.6815 Y7.7103
G01 X10.6991 Y7.7058
G01 X10.7074 Y7.7040
G01 X10.7254 Y7.7013
G01 X10.7339 Y7.7006
G01 X10.7521 Y7.6998
G01 X13.9330 Y7.6998
G01 X13.9568 Y7.7010
G01 X13.9748 Y7.7035
G01 X13.9860 Y7.7058
G01 X14.0063 Y7.7112
G01 X14.0261 Y7.7183
G01 X14.0476 Y7.7285
G01 X14.0658 Y7.7393
G01 X14.0728 Y7.7441
G01 X14.0872 Y7.7550
G01 X14.1049 Y7.7711
G01 X14.1191 Y7.7866
G01 X14.1245 Y7.7932
G01 X14.1352 Y7.8079
G01 X14.1474 Y7.8283
G01 X14.1577 Y7.8501
G01 X14.1639 Y7.8670
G01 X14.1665 Y7.8752
G01 X14.1715 Y7.8957
G01 X14.1750 Y7.9192
G01 X14.1762 Y7.9430
G01 X14.1762 Y8.8892
G01 X14.1752 Y8.9102
G01 X14.1723 Y8.9400
G01 X14.1876 Y9.0952
G01 X14.2329 Y9.2445
G01 X14.3064 Y9.3820
G01 X14.4054 Y9.5026
G01 X14.4282 Y9.5214
G01 X14.4440 Y9.5359
G01 X15.6309 Y10.7228
G01 X15.6431 Y10.7363
G01 X15.6485 Y10.7429
G01 X15.6592 Y10.7576
G01 X15.6686 Y10.7731
G01 X15.6728 Y10.7806
G01 X15.6806 Y10.7972
G01 X15.6897 Y10.8221
G01 X15.6955 Y10.8453
G01 X15.6983 Y10.8632
G01 X15.6992 Y10.8717
G01 X15.7002 Y10.8927
G01 X15.7002 Y13.2390
G01 X15.6990 Y13.2628
G01 X15.6965 Y13.2808
G01 X15.6949 Y13.2892
G01 X15.6897 Y13.3096
G01 X15.6837 Y13.3267
G01 X15.6805 Y13.3347
G01 X15.6715 Y13.3536
G01 X15.6592 Y13.3741
G01 X15.6485 Y13.3888
G01 X15.6431 Y13.3954
G01 X15.6289 Y13.4109
G01 X15.6113 Y13.4270
G01 X15.5968 Y13.4379
G01 X15.5897 Y13.4427
G01 X15.5716 Y13.4535
G01 X15.5502 Y13.4636
G01 X15.5330 Y13.4699
G01 X15.5221 Y13.4732
G01 X15.5016 Y13.4780
G01 X15.4808 Y13.4810
G01 X15.4570 Y13.4822
G01 X15.1624 Y13.4822
G01 X15.1442 Y13.4814
G01 X15.1357 Y13.4807
G01 X15.1150 Y13.4775
G01 X15.0918 Y13.4717
G01 X15.0693 Y13.4637
G01 X15.0529 Y13.4560
G01 X15.0453 Y13.4521
G01 X15.0321 Y13.4442
G01 X15.0226 Y13.4379
G01 X15.0060 Y13.4251
G01 X14.9885 Y13.4089
G01 X14.9745 Y13.3933
G01 X14.9635 Y13.3788
G01 X14.9587 Y13.3717
G01 X14.9466 Y13.3511
G01 X14.9390 Y13.3349
G01 X14.9357 Y13.3267
G01 X14.9297 Y13.3096
G01 X14.9252 Y13.2920
G01 X14.9234 Y13.2836
G01 X14.9211 Y13.2685
G01 X14.9202 Y13.2600
G01 X14.9193 Y13.2418
G01 X14.9202 Y13.2180
G01 X14.9234 Y13.1944
G01 X14.9282 Y13.1739
G01 X14.9306 Y13.1657
G01 X14.9357 Y13.1513
G01 X14.9401 Y13.1407
G01 X14.9493 Y13.1219
G01 X14.9618 Y13.1016
G01 X14.9725 Y13.0872
G01 X15.0044 Y13.0482
G01 X15.0408 Y12.9802
G01 X15.0632 Y12.9063
G01 X15.0718 Y12.8188
G01 X15.0699 Y12.6295
G01 X15.0525 Y12.6122
G01 X14.7916 Y12.6122
G01 X14.7906 Y12.6210
G01 X14.7870 Y12.6453
G01 X14.7848 Y12.6565
G01 X14.7773 Y12.6858
G01 X14.7652 Y12.7196
G01 X14.7499 Y12.7521
G01 X14.7344 Y12.7781
G01 X14.7298 Y12.7852
G01 X14.7135 Y12.8073
G01 X14.7063 Y12.8161
G01 X14.6859 Y12.8384
G01 X14.6593 Y12.8625
G01 X14.6304 Y12.8839
G01 X14.6045 Y12.8996
G01 X14.5970 Y12.9037
G01 X14.5723 Y12.9154
G01 X14.5618 Y12.9198
G01 X14.5332 Y12.9299
G01 X14.4984 Y12.9386
G01 X14.4629 Y12.9438
G01 X14.4270 Y12.9456
G01 X13.4770 Y12.9456
G01 X13.4411 Y12.9438
G01 X13.4056 Y12.9386
G01 X13.3707 Y12.9298
G01 X13.3369 Y12.9177
G01 X13.3044 Y12.9024
G01 X13.2736 Y12.8839
G01 X13.2448 Y12.8626
G01 X13.2223 Y12.8423
G01 X13.2161 Y12.8363
G01 X13.1958 Y12.8139
G01 X13.1759 Y12.7876
G01 X13.1696 Y12.7781
G01 X13.1555 Y12.7546
G01 X13.1516 Y12.7470
G01 X13.1387 Y12.7195
G01 X13.1266 Y12.6857
G01 X13.1179 Y12.6509
G01 X13.1134 Y12.6210
G01 X13.1124 Y12.6122
G01 X12.8515 Y12.6122
G01 X12.8341 Y12.6295
G01 X12.8322 Y12.8188
G01 X12.8408 Y12.9063
G01 X12.8632 Y12.9802
G01 X12.8996 Y13.0482
G01 X12.9580 Y13.1194
G01 X12.9672 Y13.1300
G01 X12.9796 Y13.1469
G01 X12.9891 Y13.1624
G01 X12.9932 Y13.1699
G01 X13.0021 Y13.1890
G01 X13.0101 Y13.2114
G01 X13.0159 Y13.2347
G01 X13.0191 Y13.2554
G01 X13.0198 Y13.2639
G01 X13.0206 Y13.2820
G01 X13.0194 Y13.3058
G01 X13.0169 Y13.3238
G01 X13.0153 Y13.3322
G01 X13.0109 Y13.3499
G01 X13.0083 Y13.3580
G01 X13.0021 Y13.3751
G01 X12.9944 Y13.3915
G01 X12.9905 Y13.3991
G01 X12.9825 Y13.4125
G01 X12.9780 Y13.4195
G01 X12.9672 Y13.4340
G01 X12.9513 Y13.4519
G01 X12.9339 Y13.4681
G01 X12.9172 Y13.4809
G01 X12.9101 Y13.4857
G01 X12.8970 Y13.4936
G01 X12.8869 Y13.4990
G01 X12.8703 Y13.5067
G01 X12.8480 Y13.5147
G01 X12.8249 Y13.5205
G01 X12.8041 Y13.5237
G01 X12.7956 Y13.5244
G01 X12.7774 Y13.5252
G01 X12.4358 Y13.5252
G01 X12.4148 Y13.5242
G01 X12.3850 Y13.5213
G01 X12.2298 Y13.5366
G01 X12.0805 Y13.5819
G01 X11.9430 Y13.6554
G01 X11.8224 Y13.7544
G01 X11.8036 Y13.7772
G01 X11.7891 Y13.7930
G01 X11.5190 Y14.0632
G01 X11.5013 Y14.0792
G01 X11.4868 Y14.0901
G01 X11.4798 Y14.0950
G01 X11.4642 Y14.1043
G01 X11.4566 Y14.1082
G01 X11.4403 Y14.1158
G01 X11.4176 Y14.1239
G01 X11.3913 Y14.1304
G01 X11.2199 Y14.2014
G01 X11.0656 Y14.3044
G01 X10.9344 Y14.4356
G01 X10.8314 Y14.5899
G01 X10.7604 Y14.7613
G01 X10.7242 Y14.9432
G01 X10.7242 Y15.1288
G01 X10.7604 Y15.3107
G01 X10.8314 Y15.4821
G01 X10.9344 Y15.6364
G01 X11.0656 Y15.7676
G01 X11.2199 Y15.8706
G01 X11.3929 Y15.9423
G01 X11.4092 Y15.9467
G01 X11.4289 Y15.9539
G01 X11.4454 Y15.9615
G01 X11.4530 Y15.9655
G01 X11.4710 Y15.9764
G01 X11.4856 Y15.9871
G01 X11.4923 Y15.9924
G01 X11.5098 Y16.0086
G01 X11.5220 Y16.0221
G01 X11.5274 Y16.0288
G01 X11.5381 Y16.0435
G01 X11.5503 Y16.0639
G01 X11.5605 Y16.0855
G01 X11.5686 Y16.1080
G01 X11.5744 Y16.1311
G01 X11.5779 Y16.1547
G01 X11.5790 Y16.1785
G01 X11.5779 Y16.2024
G01 X11.5744 Y16.2260
G01 X11.5686 Y16.2491
G01 X11.5605 Y16.2716
G01 X11.5503 Y16.2932
G01 X11.5381 Y16.3135
G01 X11.5239 Y16.3328
G01 X11.5078 Y16.3505
G01 X11.4923 Y16.3647
G01 X11.4756 Y16.3775
G01 X11.4662 Y16.3838
G01 X11.4480 Y16.3943
G01 X11.4263 Y16.4043
G01 X11.4065 Y16.4112
G01 X11.3889 Y16.4158
G01 X11.3184 Y16.4300
G01 X11.1015 Y16.5198
G01 X10.9062 Y16.6502
G01 X10.7402 Y16.8162
G01 X10.5967 Y17.0311
G01 X10.5840 Y17.0479
G01 X10.5699 Y17.0637
G01 X10.5546 Y17.0780
G01 X10.5458 Y17.0852
G01 X10.5311 Y17.0959
G01 X10.5106 Y17.1082
G01 X10.4917 Y17.1173
G01 X10.4837 Y17.1205
G01 X10.4666 Y17.1265
G01 X10.4462 Y17.1317
G01 X10.4378 Y17.1332
G01 X10.4198 Y17.1358
G01 X10.3960 Y17.1369
G01 X10.3778 Y17.1362
G01 X10.3693 Y17.1354
G01 X10.3514 Y17.1328
G01 X10.3430 Y17.1310
G01 X10.3281 Y17.1272
G01 X10.3200 Y17.1247
G01 X10.3029 Y17.1184
G01 X10.2865 Y17.1108
G01 X10.2789 Y17.1068
G01 X10.2632 Y17.0974
G01 X10.2562 Y17.0927
G01 X10.2417 Y17.0817
G01 X10.2261 Y17.0677
G01 X10.2201 Y17.0616
G01 X10.2080 Y17.0480
G01 X10.1954 Y17.0312
G01 X10.0518 Y16.8162
G01 X9.8858 Y16.6502
G01 X9.6905 Y16.5198
G01 X9.4736 Y16.4300
G01 X9.2434 Y16.3842
G01 X9.0086 Y16.3842
G01 X8.7784 Y16.4300
G01 X8.5615 Y16.5198
G01 X8.3662 Y16.6502
G01 X8.2002 Y16.8162
G01 X8.0630 Y17.0216
G01 X8.0548 Y17.0349
G01 X8.0420 Y17.0522
G01 X8.0364 Y17.0588
G01 X8.0237 Y17.0724
G01 X8.0055 Y17.0886
G01 X7.9857 Y17.1029
G01 X7.9672 Y17.1138
G01 X7.9451 Y17.1241
G01 X7.9249 Y17.1313
G01 X7.9137 Y17.1344
G01 X7.8984 Y17.1379
G01 X7.8898 Y17.1393
G01 X7.8714 Y17.1415
G01 X7.8470 Y17.1421
G01 X7.8227 Y17.1402
G01 X7.7987 Y17.1360
G01 X7.7752 Y17.1293
G01 X7.7526 Y17.1204
G01 X7.7309 Y17.1092
G01 X7.7153 Y17.0992
G01 X7.7058 Y17.0923
G01 X7.6893 Y17.0786
G01 X7.6722 Y17.0613
G01 X7.6603 Y17.0470
G01 X7.6541 Y17.0385
G01 X7.6486 Y17.0368
G01 X7.4398 Y17.2457
G01 X7.4627 Y17.3101
G01 X7.4845 Y17.3973
G01 X7.4977 Y17.4862
G01 X7.5021 Y17.5760
G01 X7.4977 Y17.6658
G01 X7.4845 Y17.7547
G01 X7.4627 Y17.8419
G01 X7.4398 Y17.9063
G01 X7.6486 Y18.1152
G01 X7.6601 Y18.1118
G01 X7.6690 Y18.1004
G01 X7.6852 Y18.0829
G01 X7.7031 Y18.0671
G01 X7.7177 Y18.0563
G01 X7.7248 Y18.0516
G01 X7.7430 Y18.0411
G01 X7.7647 Y18.0312
G01 X7.7845 Y18.0242
G01 X7.8021 Y18.0196
G01 X7.8104 Y18.0179
G01 X7.8313 Y18.0149
G01 X7.8551 Y18.0137
G01 X7.8789 Y18.0149
G01 X7.9025 Y18.0184
G01 X7.9257 Y18.0242
G01 X7.9481 Y18.0322
G01 X7.9697 Y18.0424
G01 X7.9878 Y18.0531
G01 X8.0071 Y18.0671
G01 X8.0229 Y18.0810
G01 X8.0310 Y18.0891
G01 X8.0412 Y18.1004
G01 X8.0466 Y18.1071
G01 X8.0573 Y18.1218
G01 X8.2002 Y18.3358
G01 X8.3662 Y18.5018
G01 X8.5615 Y18.6322
G01 X8.7212 Y18.6983
G01 X8.7402 Y18.7072
G01 X8.7584 Y18.7178
G01 X8.7679 Y18.7241
G01 X8.7823 Y18.7350
G01 X8.7980 Y18.7491
G01 X8.8040 Y18.7552
G01 X8.8161 Y18.7687
G01 X8.8287 Y18.7856
G01 X8.8333 Y18.7927
G01 X8.8425 Y18.8083
G01 X8.8505 Y18.8247
G01 X8.8538 Y18.8326
G01 X8.8608 Y18.8524
G01 X8.8660 Y18.8728
G01 X8.8676 Y18.8812
G01 X8.8701 Y18.8992
G01 X8.8711 Y18.9173
G01 X8.8712 Y18.9258
G01 X8.8703 Y18.9440
G01 X8.8694 Y18.9525
G01 X8.8666 Y18.9704
G01 X8.8616 Y18.9908
G01 X8.8590 Y18.9990
G01 X8.8528 Y19.0161
G01 X8.8451 Y19.0325
G01 X8.8412 Y19.0401
G01 X8.8304 Y19.0580
G01 X8.8161 Y19.0773
G01 X8.8020 Y19.0929
G01 X8.7959 Y19.0989
G01 X8.7824 Y19.1110
G01 X8.7679 Y19.1219
G01 X8.7608 Y19.1267
G01 X8.7427 Y19.1375
G01 X8.7261 Y19.1455
G01 X8.7185 Y19.1487
G01 X8.6987 Y19.1557
G01 X8.6756 Y19.1615
G01 X8.6519 Y19.1650
G01 X8.6281 Y19.1662
G01 X7.0943 Y19.1662
G01 X7.0701 Y19.1649
G01 X7.0460 Y19.1613
G01 X7.0225 Y19.1553
G01 X7.0024 Y19.1481
G01 X6.9803 Y19.1378
G01 X6.9619 Y19.1269
G01 X6.9547 Y19.1220
G01 X6.9422 Y19.1126
G01 X6.9334 Y19.1051
G01 X6.9199 Y19.0924
G01 X6.9039 Y19.0742
G01 X6.8897 Y19.0544
G01 X6.8777 Y19.0333
G01 X6.8677 Y19.0111
G01 X6.8609 Y18.9909
G01 X6.8559 Y18.9701
G01 X6.8539 Y18.9586
G01 X6.8518 Y18.9402
G01 X6.8513 Y18.9160
G01 X6.8532 Y18.8917
G01 X6.8575 Y18.8678
G01 X6.8633 Y18.8472
G01 X6.8662 Y18.8390
G01 X6.8732 Y18.8219
G01 X6.8844 Y18.8003
G01 X6.8977 Y18.7800
G01 X6.9092 Y18.7655
G01 X6.9169 Y18.7568
G01 X6.9322 Y18.7418
G01 X6.9465 Y18.7300
G01 X6.9535 Y18.7249
G01 X6.9689 Y18.7147
G01 X6.9853 Y18.7057
G01 X7.1249 Y18.6395
G01 X7.1252 Y18.6386
G01 X6.9163 Y18.4298
G01 X6.8519 Y18.4527
G01 X6.7647 Y18.4745
G01 X6.6758 Y18.4877
G01 X6.5860 Y18.4921
G01 X6.4962 Y18.4877
G01 X6.4073 Y18.4745
G01 X6.3201 Y18.4527
G01 X6.2557 Y18.4298
G01 X6.0468 Y18.6386
G01 X6.0491 Y18.6463
G01 X6.0685 Y18.6567
G01 X6.1729 Y18.6940
G01 X6.1971 Y18.7042
G01 X6.2153 Y18.7140
G01 X6.2303 Y18.7237
G01 X6.2371 Y18.7286
G01 X6.2510 Y18.7399
G01 X6.2659 Y18.7541
G01 X6.2735 Y18.7624
G01 X6.2865 Y18.7784
G01 X6.2996 Y18.7979
G01 X6.3094 Y18.8161
G01 X6.3187 Y18.8376
G01 X6.3259 Y18.8599
G01 X6.3298 Y18.8773
G01 X6.3313 Y18.8856
G01 X6.3334 Y18.9033
G01 X6.3342 Y18.9268
G01 X6.3327 Y18.9502
G01 X6.3295 Y18.9706
G01 X6.3277 Y18.9788
G01 X6.3230 Y18.9960
G01 X6.3159 Y19.0154
G01 X6.3114 Y19.0257
G01 X6.3046 Y19.0392
G01 X6.3005 Y19.0464
G01 X6.2893 Y19.0638
G01 X6.2748 Y19.0822
G01 X6.2607 Y19.0972
G01 X6.2409 Y19.1145
G01 X6.2241 Y19.1265
G01 X6.2039 Y19.1384
G01 X6.1826 Y19.1483
G01 X6.1578 Y19.1568
G01 X6.1376 Y19.1617
G01 X6.1200 Y19.1644
G01 X6.1117 Y19.1653
G01 X6.0911 Y19.1662
G01 X4.5439 Y19.1662
G01 X4.5229 Y19.1652
G01 X4.5144 Y19.1643
G01 X4.4964 Y19.1615
G01 X4.4788 Y19.1572
G01 X4.4706 Y19.1548
G01 X4.4508 Y19.1477
G01 X4.4344 Y19.1400
G01 X4.4268 Y19.1361
G01 X4.4111 Y19.1267
G01 X4.4041 Y19.1219
G01 X4.3897 Y19.1110
G01 X4.3761 Y19.0989
G01 X4.3700 Y19.0929
G01 X4.3578 Y19.0794
G01 X4.3524 Y19.0728
G01 X4.3417 Y19.0581
G01 X4.3322 Y19.0426
G01 X4.3281 Y19.0351
G01 X4.3204 Y19.0187
G01 X4.3172 Y19.0107
G01 X4.3121 Y18.9963
G01 X4.3097 Y18.9881
G01 X4.3054 Y18.9704
G01 X4.3026 Y18.9525
G01 X4.3017 Y18.9440
G01 X4.3008 Y18.9258
G01 X4.3009 Y18.9173
G01 X4.3019 Y18.8992
G01 X4.3044 Y18.8812
G01 X4.3060 Y18.8728
G01 X4.3104 Y18.8551
G01 X4.3130 Y18.8470
G01 X4.3192 Y18.8299
G01 X4.3269 Y18.8135
G01 X4.3308 Y18.8059
G01 X4.3402 Y18.7902
G01 X4.3450 Y18.7832
G01 X4.3560 Y18.7687
G01 X4.3680 Y18.7552
G01 X4.3740 Y18.7491
G01 X4.3896 Y18.7350
G01 X4.4041 Y18.7241
G01 X4.4136 Y18.7178
G01 X4.4318 Y18.7072
G01 X4.4508 Y18.6983
G01 X4.6105 Y18.6322
G01 X4.8058 Y18.5018
G01 X4.9718 Y18.3358
G01 X5.1090 Y18.1304
G01 X5.1172 Y18.1171
G01 X5.1282 Y18.1021
G01 X5.1356 Y18.0932
G01 X5.1463 Y18.0817
G01 X5.1526 Y18.0756
G01 X5.1688 Y18.0616
G01 X5.1888 Y18.0476
G01 X5.2074 Y18.0369
G01 X5.2296 Y18.0268
G01 X5.2527 Y18.0190
G01 X5.2764 Y18.0136
G01 X5.3006 Y18.0105
G01 X5.3250 Y18.0099
G01 X5.3493 Y18.0118
G01 X5.3705 Y18.0154
G01 X5.3790 Y18.0175
G01 X5.3968 Y18.0227
G01 X5.4168 Y18.0305
G01 X5.4386 Y18.0414
G01 X5.4567 Y18.0528
G01 X5.4662 Y18.0597
G01 X5.4827 Y18.0734
G01 X5.4998 Y18.0907
G01 X5.5117 Y18.1050
G01 X5.5179 Y18.1135
G01 X5.5234 Y18.1152
G01 X5.7322 Y17.9063
G01 X5.7093 Y17.8419
G01 X5.6875 Y17.7547
G01 X5.6743 Y17.6658
G01 X5.6699 Y17.5760
G01 X5.6743 Y17.4862
G01 X5.6875 Y17.3973
G01 X5.7093 Y17.3101
G01 X5.7322 Y17.2457
G01 X5.5234 Y17.0368
G01 X5.5119 Y17.0402
G01 X5.5030 Y17.0516
G01 X5.4868 Y17.0691
G01 X5.4689 Y17.0849
G01 X5.4543 Y17.0957
G01 X5.4472 Y17.1004
G01 X5.4290 Y17.1109
G01 X5.4073 Y17.1208
G01 X5.3875 Y17.1278
G01 X5.3699 Y17.1324
G01 X5.3616 Y17.1341
G01 X5.3407 Y17.1371
G01 X5.3169 Y17.1383
G01 X5.2931 Y17.1371
G01 X5.2695 Y17.1336
G01 X5.2463 Y17.1278
G01 X5.2239 Y17.1198
G01 X5.2023 Y17.1096
G01 X5.1842 Y17.0989
G01 X5.1649 Y17.0849
G01 X5.1491 Y17.0710
G01 X5.1410 Y17.0629
G01 X5.1308 Y17.0516
G01 X5.1254 Y17.0449
G01 X5.1147 Y17.0302
G01 X4.9718 Y16.8162
G01 X4.8058 Y16.6502
G01 X4.6105 Y16.5198
G01 X4.3936 Y16.4300
G01 X4.1634 Y16.3842
G01 X3.9286 Y16.3842
G01 X3.6984 Y16.4300
G01 X3.4815 Y16.5198
G01 X3.2862 Y16.6502
G01 X3.1202 Y16.8162
G01 X2.9898 Y17.0115
G01 X2.9000 Y17.2284
G01 X2.8542 Y17.4586
G01 X2.8542 Y17.6934
G01 X2.9000 Y17.9236
G01 X2.9898 Y18.1405
G01 X3.1202 Y18.3358
G01 X3.2862 Y18.5018
G01 X3.4815 Y18.6322
G01 X3.6412 Y18.6983
G01 X3.6602 Y18.7072
G01 X3.6677 Y18.7114
G01 X3.6855 Y18.7224
G01 X3.7045 Y18.7368
G01 X3.7220 Y18.7531
G01 X3.7342 Y18.7666
G01 X3.7396 Y18.7732
G01 X3.7503 Y18.7879
G01 X3.7625 Y18.8083
G01 X3.7728 Y18.8299
G01 X3.7808 Y18.8524
G01 X3.7866 Y18.8756
G01 X3.7901 Y18.8992
G01 X3.7913 Y18.9230
G01 X3.7903 Y18.9440
G01 X3.7894 Y18.9525
G01 X3.7866 Y18.9704
G01 X3.7816 Y18.9908
G01 X3.7738 Y19.0134
G01 X3.7651 Y19.0325
G01 X3.7598 Y19.0426
G01 X3.7519 Y19.0556
G01 X3.7470 Y19.0628
G01 X3.7342 Y19.0794
G01 X3.7220 Y19.0929
G01 X3.7159 Y19.0989
G01 X3.7024 Y19.1110
G01 X3.6832 Y19.1252
G01 X3.6627 Y19.1375
G01 X3.6410 Y19.1477
G01 X3.6187 Y19.1557
G01 X3.5956 Y19.1615
G01 X3.5719 Y19.1650
G01 X3.5510 Y19.1661
G01 X0.9210 Y19.1662
G01 X0.8972 Y19.1650
G01 X0.8736 Y19.1615
G01 X0.8504 Y19.1557
G01 X0.8279 Y19.1477
G01 X0.8064 Y19.1375
G01 X0.7858 Y19.1251
G01 X0.7668 Y19.1110
G01 X0.7491 Y19.0949
G01 X0.7368 Y19.0816
G01 X0.7313 Y19.0750
G01 X0.7221 Y19.0628
G01 X0.7158 Y19.0533
G01 X0.7052 Y19.0351
G01 X0.6953 Y19.0133
G01 X0.6883 Y18.9936
G01 X0.6825 Y18.9703
G01 X0.6790 Y18.9468
G01 X0.6778 Y18.9230
G01 X0.6778 Y0.9890
G01 X0.6778 Y1.1446
G01 X0.6182 Y1.1619
G01 X0.4033 Y1.2299
G01 X0.1902 Y1.3032
G01 X-0.0211 Y1.3818
G01 X-0.0900 Y1.4093
G01 X-0.0900 Y1.5844
G01 X0.0374 Y1.5334
G01 X0.2449 Y1.4563
G01 X0.4543 Y1.3843
G01 X0.6654 Y1.3174
G01 X0.6778 Y1.3138
G01 X0.6778 Y1.4839
G01 X0.5053 Y1.5386
G01 X0.2997 Y1.6093
G01 X0.0959 Y1.6851
G01 X-0.0900 Y1.7594
G01 X-0.0900 Y1.9358
G01 X-0.0438 Y1.9160
G01 X0.1544 Y1.8367
G01 X0.3544 Y1.7624
G01 X0.5563 Y1.6929
G01 X0.6778 Y1.6544
G01 X0.6778 Y1.8249
G01 X0.6072 Y1.8473
G01 X0.4092 Y1.9154
G01 X0.2129 Y1.9884
G01 X0.0184 Y2.0661
G01 X-0.0900 Y2.1126
G01 X-0.0900 Y2.2894
G01 X0.0806 Y2.2163
G01 X0.2714 Y2.1400
G01 X0.4640 Y2.0684
G01 X0.6582 Y2.0016
G01 X0.6778 Y1.9954
G01 X0.6778 Y2.1667
G01 X0.5187 Y2.2215
G01 X0.3299 Y2.2917
G01 X0.1428 Y2.3665
G01 X-0.0423 Y2.4458
G01 X-0.0900 Y2.4677
G01 X-0.0900 Y2.6464
G01 X0.0235 Y2.5944
G01 X0.2050 Y2.5166
G01 X0.3884 Y2.4433
G01 X0.5735 Y2.3745
G01 X0.6778 Y2.3386
G01 X0.6778 Y2.5105
G01 X0.6282 Y2.5276
G01 X0.4469 Y2.5950
G01 X0.2672 Y2.6668
G01 X0.0894 Y2.7430
G01 X-0.0900 Y2.8253
G01 X-0.0900 Y3.0062
G01 X-0.0170 Y2.9705
G01 X0.1553 Y2.8916
G01 X0.3294 Y2.8170
G01 X0.5054 Y2.7466
G01 X0.6778 Y2.6825
G01 X0.6778 Y2.8559
G01 X0.5639 Y2.8983
G01 X0.3916 Y2.9671
G01 X0.2211 Y3.0402
G01 X0.0525 Y3.1175
G01 X-0.0900 Y3.1870
G01 X-0.0900 Y3.3694
G01 X-0.0411 Y3.3440
G01 X0.1220 Y3.2644
G01 X0.2870 Y3.1888
G01 X0.4538 Y3.1173
G01 X0.6224 Y3.0499
G01 X0.6778 Y3.0293
G01 X0.6778 Y3.2028
G01 X0.5160 Y3.2675
G01 X0.3529 Y3.3374
G01 X0.1915 Y3.4113
G01 X0.0319 Y3.4892
G01 X-0.0900 Y3.5525
G01 X-0.0900 Y3.7369
G01 X-0.0490 Y3.7143
G01 X0.1050 Y3.6344
G01 X0.2610 Y3.5583
G01 X0.4187 Y3.4860
G01 X0.5782 Y3.4176
G01 X0.6778 Y3.3778
G01 X0.6778 Y3.5529
G01 X0.6404 Y3.5678
G01 X0.4846 Y3.6346
G01 X0.3305 Y3.7052
G01 X0.1781 Y3.7796
G01 X0.0276 Y3.8577
G01 X-0.0900 Y3.9224
G01 X-0.0900 Y4.1095
G01 X-0.0408 Y4.0808
G01 X0.1042 Y4.0010
G01 X0.2512 Y3.9248
G01 X0.4000 Y3.8521
G01 X0.5505 Y3.7832
G01 X0.6778 Y3.7286
G01 X0.6778 Y3.9054
G01 X0.6163 Y3.9318
G01 X0.4695 Y3.9991
G01 X0.3243 Y4.0699
G01 X0.1809 Y4.1444
G01 X0.0393 Y4.2223
G01 X-0.0900 Y4.2976
G01 X-0.0900 Y4.4882
G01 X-0.0167 Y4.4430
G01 X0.1194 Y4.3637
G01 X0.2575 Y4.2877
G01 X0.3973 Y4.2151
G01 X0.5390 Y4.1460
G01 X0.6778 Y4.0824
G01 X0.6778 Y4.2612
G01 X0.6085 Y4.2930
G01 X0.4704 Y4.3603
G01 X0.3341 Y4.4310
G01 X0.1995 Y4.5051
G01 X0.0669 Y4.5824
G01 X-0.0639 Y4.6630
G01 X-0.0900 Y4.6800
G01 X-0.0900 Y4.8739
G01 X0.0231 Y4.8003
G01 X0.1504 Y4.7219
G01 X0.2797 Y4.6465
G01 X0.4107 Y4.5744
G01 X0.5435 Y4.5055
G01 X0.6778 Y4.4399
G01 X0.6778 Y4.6208
G01 X0.6166 Y4.6507
G01 X0.4873 Y4.7177
G01 X0.3598 Y4.7880
G01 X0.2340 Y4.8613
G01 X0.1100 Y4.9377
G01 X-0.0120 Y5.0171
G01 X-0.0900 Y5.0705
G01 X-0.0900 Y5.2695
G01 X-0.0385 Y5.2323
G01 X0.0783 Y5.1522
G01 X0.1970 Y5.0750
G01 X0.3175 Y5.0007
G01 X0.4399 Y4.9294
G01 X0.5640 Y4.8611
G01 X0.6778 Y4.8020
G01 X0.6778 Y4.9851
G01 X0.6406 Y5.0044
G01 X0.5200 Y5.0708
G01 X0.4011 Y5.1401
G01 X0.2839 Y5.2123
G01 X0.1686 Y5.2874
G01 X0.0551 Y5.3652
G01 X-0.0565 Y5.4458
G01 X-0.0900 Y5.4713
G01 X-0.0900 Y5.6765
G01 X-0.0660 Y5.6573
G01 X0.0404 Y5.5764
G01 X0.1487 Y5.4981
G01 X0.2589 Y5.4225
G01 X0.3709 Y5.3496
G01 X0.4847 Y5.2795
G01 X0.6001 Y5.2122
G01 X0.6778 Y5.1695
G01 X0.6778 Y5.3551
G01 X0.5682 Y5.4189
G01 X0.4578 Y5.4869
G01 X0.3492 Y5.5576
G01 X0.2423 Y5.6310
G01 X0.1372 Y5.7069
G01 X0.0340 Y5.7854
G01 X-0.0672 Y5.8665
G01 X-0.0900 Y5.8856
G01 X-0.0900 Y6.0993
G01 X-0.0603 Y6.0730
G01 X0.0359 Y5.9921
G01 X0.1340 Y5.9136
G01 X0.2340 Y5.8375
G01 X0.3359 Y5.7639
G01 X0.4395 Y5.6928
G01 X0.5448 Y5.6243
G01 X0.6518 Y5.5583
G01 X0.6778 Y5.5432
G01 X0.6778 Y5.7332
G01 X0.6318 Y5.7616
G01 X0.5298 Y5.8279
G01 X0.4294 Y5.8968
G01 X0.3308 Y5.9680
G01 X0.2340 Y6.0417
G01 X0.1390 Y6.1178
G01 X0.0459 Y6.1961
G01 X-0.0452 Y6.2767
G01 X-0.0900 Y6.3182
G01 X-0.0900 Y6.5432
G01 X-0.0223 Y6.4772
G01 X0.0639 Y6.3971
G01 X0.1521 Y6.3192
G01 X0.2421 Y6.2434
G01 X0.3340 Y6.1699
G01 X0.4277 Y6.0986
G01 X0.5230 Y6.0297
G01 X0.6201 Y5.9631
G01 X0.6778 Y5.9255
G01 X0.6778 Y6.1206
G01 X0.6166 Y6.1626
G01 X0.5245 Y6.2292
G01 X0.4340 Y6.2980
G01 X0.3452 Y6.3690
G01 X0.2582 Y6.4422
G01 X0.1731 Y6.5176
G01 X0.0898 Y6.5949
G01 X0.0084 Y6.6743
G01 X-0.0710 Y6.7557
G01 X-0.0900 Y6.7761
G01 X-0.0900 Y7.0183
G01 X-0.0279 Y6.9482
G01 X0.0467 Y6.8678
G01 X0.1233 Y6.7893
G01 X0.2019 Y6.7127
G01 X0.2822 Y6.6380
G01 X0.3644 Y6.5653
G01 X0.4484 Y6.4947
G01 X0.5340 Y6.4261
G01 X0.6213 Y6.3597
G01 X0.6778 Y6.3189
G01 X0.6778 Y6.5209
G01 X0.6340 Y6.5543
G01 X0.5515 Y6.6203
G01 X0.4706 Y6.6884
G01 X0.3914 Y6.7584
G01 X0.3139 Y6.8304
G01 X0.2383 Y6.9042
G01 X0.1644 Y6.9799
G01 X0.0925 Y7.0573
G01 X0.0225 Y7.1365
G01 X-0.0456 Y7.2174
G01 X-0.0900 Y7.2728
G01 X-0.0900 Y7.5429
G01 X-0.0451 Y7.4809
G01 X0.0165 Y7.3999
G01 X0.0800 Y7.3205
G01 X0.1455 Y7.2427
G01 X0.2129 Y7.1665
G01 X0.2822 Y7.0919
G01 X0.3532 Y7.0191
G01 X0.4260 Y6.9481
G01 X0.5005 Y6.8789
G01 X0.5767 Y6.8115
G01 X0.6546 Y6.7460
G01 X0.6778 Y6.7274
G01 X0.6778 Y6.9390
G01 X0.6097 Y6.9993
G01 X0.5381 Y7.0658
G01 X0.4681 Y7.1341
G01 X0.3999 Y7.2040
G01 X0.3334 Y7.2756
G01 X0.2686 Y7.3488
G01 X0.2057 Y7.4236
G01 X0.1446 Y7.4999
G01 X0.0854 Y7.5777
G01 X0.0282 Y7.6569
G01 X-0.0271 Y7.7375
G01 X-0.0804 Y7.8194
G01 X-0.0900 Y7.8350
G01 X-0.0900 Y8.1595
G01 X-0.0847 Y8.1493
G01 X-0.0395 Y8.0672
G01 X0.0077 Y7.9862
G01 X0.0569 Y7.9064
G01 X0.1080 Y7.8278
G01 X0.1611 Y7.7505
G01 X0.2160 Y7.6745
G01 X0.2728 Y7.5999
G01 X0.3313 Y7.5267
G01 X0.3917 Y7.4550
G01 X0.4538 Y7.3848
G01 X0.5176 Y7.3161
G01 X0.5831 Y7.2490
G01 X0.6502 Y7.1835
G01 X0.6778 Y7.1578
G01 X0.6778 Y7.3846
G01 X0.6353 Y7.4282
G01 X0.5742 Y7.4939
G01 X0.5148 Y7.5612
G01 X0.4570 Y7.6299
G01 X0.4009 Y7.6999
G01 X0.3465 Y7.7714
G01 X0.2940 Y7.8441
G01 X0.2432 Y7.9181
G01 X0.1942 Y7.9934
G01 X0.1472 Y8.0698
G01 X0.1020 Y8.1473
G01 X0.0587 Y8.2260
G01 X0.0173 Y8.3056
G01 X-0.0220 Y8.3863
G01 X-0.0594 Y8.4679
G01 X-0.0900 Y8.5392
G01 X-0.0900 Y9.0404
G01 X-0.0840 Y9.0179
G01 X-0.0601 Y8.9355
G01 X-0.0342 Y8.8537
G01 X-0.0063 Y8.7726
G01 X0.0236 Y8.6922
G01 X0.0554 Y8.6126
G01 X0.0892 Y8.5338
G01 X0.1249 Y8.4558
G01 X0.1625 Y8.3787
G01 X0.2020 Y8.3026
G01 X0.2434 Y8.2274
G01 X0.2866 Y8.1533
G01 X0.3316 Y8.0803
G01 X0.3783 Y8.0084
G01 X0.4269 Y7.9377
G01 X0.4771 Y7.8682
G01 X0.5290 Y7.7999
G01 X0.5826 Y7.7330
G01 X0.6379 Y7.6673
G01 X0.6778 Y7.6221
G01 X0.6778 Y7.8741
G01 X0.6572 Y7.8999
G01 X0.6077 Y7.9650
G01 X0.5598 Y8.0313
G01 X0.5135 Y8.0987
G01 X0.4689 Y8.1673
G01 X0.4260 Y8.2369
G01 X0.3848 Y8.3076
G01 X0.3454 Y8.3792
G01 X0.3077 Y8.4518
G01 X0.2718 Y8.5253
G01 X0.2378 Y8.5996
G01 X0.2056 Y8.6748
G01 X0.1752 Y8.7507
G01 X0.1467 Y8.8274
G01 X0.1201 Y8.9047
G01 X0.0954 Y8.9827
G01 X0.0726 Y9.0612
G01 X0.0518 Y9.1403
G01 X0.0329 Y9.2199
G01 X0.0160 Y9.2999
G01 X0.0010 Y9.3803
G01 X-0.0120 Y9.4610
G01 X-0.0230 Y9.5420
G01 X-0.0320 Y9.6233
G01 X-0.0390 Y9.7048
G01 X-0.0441 Y9.7864
G01 X-0.0471 Y9.8682
G01 X-0.0481 Y9.9499
G01 X-0.0471 Y10.0317
G01 X-0.0441 Y10.1134
G01 X-0.0390 Y10.1950
G01 X-0.0320 Y10.2765
G01 X-0.0230 Y10.3578
G01 X-0.0120 Y10.4388
G01 X0.0010 Y10.5196
G01 X0.0160 Y10.6000
G01 X0.0329 Y10.6800
G01 X0.0518 Y10.7596
G01 X0.0726 Y10.8386
G01 X0.0954 Y10.9172
G01 X0.1201 Y10.9951
G01 X0.1467 Y11.0725
G01 X0.1752 Y11.1491
G01 X0.2056 Y11.2251
G01 X0.2378 Y11.3002
G01 X0.2718 Y11.3746
G01 X0.3077 Y11.4481
G01 X0.3454 Y11.5207
G01 X0.3848 Y11.5923
G01 X0.4260 Y11.6630
G01 X0.4689 Y11.7326
G01 X0.5135 Y11.8011
G01 X0.5598 Y11.8686
G01 X0.6077 Y11.9348
G01 X0.6572 Y11.9999
G01 X0.6778 Y12.0257
G01 X0.6778 Y12.2777
G01 X0.6379 Y12.2325
G01 X0.5826 Y12.1669
G01 X0.5290 Y12.0999
G01 X0.4771 Y12.0317
G01 X0.4269 Y11.9622
G01 X0.3783 Y11.8914
G01 X0.3316 Y11.8195
G01 X0.2866 Y11.7465
G01 X0.2434 Y11.6724
G01 X0.2020 Y11.5973
G01 X0.1625 Y11.5211
G01 X0.1249 Y11.4441
G01 X0.0892 Y11.3661
G01 X0.0554 Y11.2873
G01 X0.0236 Y11.2076
G01 X-0.0063 Y11.1272
G01 X-0.0342 Y11.0461
G01 X-0.0601 Y10.9644
G01 X-0.0840 Y10.8820
G01 X-0.0900 Y10.8594
G01 X-0.0900 Y11.3607
G01 X-0.0594 Y11.4320
G01 X-0.0220 Y11.5136
G01 X0.0173 Y11.5942
G01 X0.0587 Y11.6739
G01 X0.1020 Y11.7525
G01 X0.1472 Y11.8301
G01 X0.1942 Y11.9065
G01 X0.2432 Y11.9817
G01 X0.2940 Y12.0557
G01 X0.3465 Y12.1285
G01 X0.4009 Y12.1999
G01 X0.4570 Y12.2700
G01 X0.5148 Y12.3387
G01 X0.5742 Y12.4059
G01 X0.6353 Y12.4717
G01 X0.6778 Y12.5153
G01 X0.6778 Y12.7420
G01 X0.6502 Y12.7163
G01 X0.5831 Y12.6509
G01 X0.5176 Y12.5838
G01 X0.4538 Y12.5151
G01 X0.3917 Y12.4448
G01 X0.3313 Y12.3731
G01 X0.2728 Y12.2999
G01 X0.2160 Y12.2253
G01 X0.1611 Y12.1493
G01 X0.1080 Y12.0720
G01 X0.0569 Y11.9935
G01 X0.0077 Y11.9136
G01 X-0.0395 Y11.8326
G01 X-0.0847 Y11.7505
G01 X-0.0900 Y11.7403
G01 X-0.0900 Y12.0649
G01 X-0.0804 Y12.0804
G01 X-0.0271 Y12.1623
G01 X0.0282 Y12.2429
G01 X0.0854 Y12.3221
G01 X0.1446 Y12.3999
G01 X0.2057 Y12.4762
G01 X0.2686 Y12.5510
G01 X0.3334 Y12.6242
G01 X0.3999 Y12.6958
G01 X0.4681 Y12.7658
G01 X0.5381 Y12.8340
G01 X0.6097 Y12.9006
G01 X0.6778 Y12.9608
G01 X0.6778 Y13.1725
G01 X0.6546 Y13.1539
G01 X0.5767 Y13.0884
G01 X0.5005 Y13.0210
G01 X0.4260 Y12.9518
G01 X0.3532 Y12.8807
G01 X0.2822 Y12.8079
G01 X0.2129 Y12.7334
G01 X0.1455 Y12.6572
G01 X0.0800 Y12.5793
G01 X0.0165 Y12.4999
G01 X-0.0451 Y12.4190
G01 X-0.0900 Y12.3569
G01 X-0.0900 Y12.6270
G01 X-0.0456 Y12.6825
G01 X0.0225 Y12.7633
G01 X0.0925 Y12.8425
G01 X0.1644 Y12.9200
G01 X0.2383 Y12.9957
G01 X0.3139 Y13.0695
G01 X0.3914 Y13.1414
G01 X0.4706 Y13.2115
G01 X0.5515 Y13.2795
G01 X0.6340 Y13.3456
G01 X0.6778 Y13.3789
G01 X0.6778 Y13.5810
G01 X0.6213 Y13.5401
G01 X0.5340 Y13.4737
G01 X0.4484 Y13.4052
G01 X0.3644 Y13.3345
G01 X0.2822 Y13.2619
G01 X0.2019 Y13.1872
G01 X0.1233 Y13.1106
G01 X0.0467 Y13.0321
G01 X-0.0279 Y12.9517
G01 X-0.0900 Y12.8816
G01 X-0.0900 Y13.1237
G01 X-0.0710 Y13.1441
G01 X0.0084 Y13.2255
G01 X0.0898 Y13.3049
G01 X0.1731 Y13.3823
G01 X0.2582 Y13.4576
G01 X0.3452 Y13.5308
G01 X0.4340 Y13.6019
G01 X0.5245 Y13.6707
G01 X0.6166 Y13.7373
G01 X0.6778 Y13.7793
G01 X0.6778 Y13.9743
G01 X0.6201 Y13.9368
G01 X0.5230 Y13.8702
G01 X0.4277 Y13.8013
G01 X0.3340 Y13.7300
G01 X0.2421 Y13.6565
G01 X0.1521 Y13.5807
G01 X0.0639 Y13.5027
G01 X-0.0223 Y13.4226
G01 X-0.0900 Y13.3566
G01 X-0.0900 Y13.5816
G01 X-0.0452 Y13.6232
G01 X0.0459 Y13.7038
G01 X0.1390 Y13.7821
G01 X0.2340 Y13.8581
G01 X0.3308 Y13.9318
G01 X0.4294 Y14.0031
G01 X0.5298 Y14.0719
G01 X0.6318 Y14.1383
G01 X0.6778 Y14.1667
G01 X0.6778 Y14.3567
G01 X0.6518 Y14.3415
G01 X0.5448 Y14.2756
G01 X0.4395 Y14.2071
G01 X0.3359 Y14.1360
G01 X0.2340 Y14.0624
G01 X0.1340 Y13.9863
G01 X0.0359 Y13.9077
G01 X-0.0603 Y13.8268
G01 X-0.0900 Y13.8006
G01 X-0.0900 Y14.0143
G01 X-0.0672 Y14.0334
G01 X0.0340 Y14.1144
G01 X0.1372 Y14.1929
G01 X0.2423 Y14.2689
G01 X0.3492 Y14.3422
G01 X0.4578 Y14.4129
G01 X0.5682 Y14.4809
G01 X0.6778 Y14.5448
G01 X0.6778 Y14.7304
G01 X0.6001 Y14.6876
G01 X0.4847 Y14.6203
G01 X0.3709 Y14.5502
G01 X0.2589 Y14.4774
G01 X0.1487 Y14.4018
G01 X0.0404 Y14.3235
G01 X-0.0660 Y14.2425
G01 X-0.0900 Y14.2234
G01 X-0.0900 Y14.4285
G01 X-0.0565 Y14.4540
G01 X0.0551 Y14.5346
G01 X0.1686 Y14.6125
G01 X0.2839 Y14.6876
G01 X0.4011 Y14.7598
G01 X0.5200 Y14.8291
G01 X0.6406 Y14.8954
G01 X0.6778 Y14.9147
G01 X0.6778 Y15.0978
G01 X0.5640 Y15.0388
G01 X0.4399 Y14.9705
G01 X0.3175 Y14.8992
G01 X0.1970 Y14.8249
G01 X0.0783 Y14.7476
G01 X-0.0385 Y14.6675
G01 X-0.0900 Y14.6303
G01 X-0.0900 Y14.8293
G01 X-0.0120 Y14.8828
G01 X0.1100 Y14.9622
G01 X0.2340 Y15.0386
G01 X0.3598 Y15.1119
G01 X0.4873 Y15.1821
G01 X0.6166 Y15.2492
G01 X0.6778 Y15.2791
G01 X0.6778 Y15.4599
G01 X0.5435 Y15.3944
G01 X0.4107 Y15.3255
G01 X0.2797 Y15.2533
G01 X0.1504 Y15.1780
G01 X0.0231 Y15.0995
G01 X-0.0900 Y15.0260
G01 X-0.0900 Y15.2199
G01 X-0.0639 Y15.2368
G01 X0.0669 Y15.3174
G01 X0.1995 Y15.3947
G01 X0.3341 Y15.4688
G01 X0.4704 Y15.5395
G01 X0.6085 Y15.6069
G01 X0.6778 Y15.6387
G01 X0.6778 Y15.8174
G01 X0.5390 Y15.7538
G01 X0.3973 Y15.6847
G01 X0.2575 Y15.6122
G01 X0.1194 Y15.5362
G01 X-0.0167 Y15.4568
G01 X-0.0900 Y15.4117
G01 X-0.0900 Y15.6023
G01 X0.0393 Y15.6776
G01 X0.1809 Y15.7555
G01 X0.3243 Y15.8299
G01 X0.4695 Y15.9008
G01 X0.6163 Y15.9681
G01 X0.6778 Y15.9944
G01 X0.6778 Y16.1712
G01 X0.5505 Y16.1166
G01 X0.4000 Y16.0477
G01 X0.2512 Y15.9751
G01 X0.1042 Y15.8988
G01 X-0.0408 Y15.8190
G01 X-0.0900 Y15.7904
G01 X-0.0900 Y15.9775
G01 X0.0276 Y16.0422
G01 X0.1781 Y16.1203
G01 X0.3305 Y16.1946
G01 X0.4846 Y16.2652
G01 X0.6404 Y16.3320
G01 X0.6778 Y16.3470
G01 X0.6778 Y16.5220
G01 X0.5782 Y16.4822
G01 X0.4187 Y16.4138
G01 X0.2610 Y16.3416
G01 X0.1050 Y16.2655
G01 X-0.0490 Y16.1855
G01 X-0.0900 Y16.1630
G01 X-0.0900 Y16.3474
G01 X0.0319 Y16.4106
G01 X0.1915 Y16.4885
G01 X0.3529 Y16.5624
G01 X0.5160 Y16.6324
G01 X0.6778 Y16.6971
G01 X0.6778 Y16.8706
G01 X0.6224 Y16.8499
G01 X0.4538 Y16.7825
G01 X0.2870 Y16.7110
G01 X0.1220 Y16.6354
G01 X-0.0411 Y16.5558
G01 X-0.0900 Y16.5305
G01 X-0.0900 Y16.7128
G01 X0.0525 Y16.7824
G01 X0.2211 Y16.8596
G01 X0.3916 Y16.9327
G01 X0.5639 Y17.0016
G01 X0.6778 Y17.0440
G01 X0.6778 Y17.2173
G01 X0.5054 Y17.1532
G01 X0.3294 Y17.0829
G01 X0.1553 Y17.0082
G01 X-0.0170 Y16.9293
G01 X-0.0900 Y16.8937
G01 X-0.0900 Y17.0746
G01 X0.0894 Y17.1568
G01 X0.2672 Y17.2330
G01 X0.4469 Y17.3049
G01 X0.6282 Y17.3723
G01 X0.6778 Y17.3894
G01 X0.6778 Y17.5612
G01 X0.5735 Y17.5253
G01 X0.3884 Y17.4565
G01 X0.2050 Y17.3832
G01 X0.0235 Y17.3054
G01 X-0.0900 Y17.2534
G01 X-0.0900 Y17.4322
G01 X-0.0423 Y17.4540
G01 X0.1428 Y17.5334
G01 X0.3299 Y17.6082
G01 X0.5187 Y17.6784
G01 X0.6778 Y17.7331
G01 X0.6778 Y17.9045
G01 X0.6582 Y17.8982
G01 X0.4640 Y17.8314
G01 X0.2714 Y17.7598
G01 X0.0806 Y17.6835
G01 X-0.0900 Y17.6104
G01 X-0.0900 Y17.7873
G01 X0.0184 Y17.8337
G01 X0.2129 Y17.9115
G01 X0.4092 Y17.9845
G01 X0.6072 Y18.0526
G01 X0.6778 Y18.0749
G01 X0.6778 Y18.2454
G01 X0.5563 Y18.2069
G01 X0.3544 Y18.1375
G01 X0.1544 Y18.0631
G01 X-0.0438 Y17.9839
G01 X-0.0900 Y17.9641
G01 X-0.0900 Y18.1405
G01 X0.0959 Y18.2148
G01 X0.2997 Y18.2905
G01 X0.5053 Y18.3613
G01 X0.6778 Y18.4159
G01 X0.6778 Y18.5861
G01 X0.6654 Y18.5825
G01 X0.4543 Y18.5156
G01 X0.2449 Y18.4436
G01 X0.0374 Y18.3664
G01 X-0.0900 Y18.3155
G01 X-0.0900 Y18.4905
G01 X-0.0211 Y18.5181
G01 X0.1902 Y18.5966
G01 X0.4033 Y18.6699
G01 X0.6182 Y18.7380
G01 X0.6778 Y18.7553
G00 Z2.0000
G00 X0.6779 Y18.9245
G01 F30.00
G01 Z-0.0601
G01 F60.00
G01 X0.5710 Y18.8935
G01 X0.3523 Y18.8243
G01 X0.1354 Y18.7496
G01 X-0.0796 Y18.6697
G01 X-0.0900 Y18.6656
G01 X-0.0900 Y18.8393
G01 X0.0807 Y18.9027
G01 X0.3013 Y18.9786
G01 X0.5238 Y19.0491
G01 X0.7479 Y19.1141
G01 X0.7833 Y19.1234
G00 Z2.0000
G00 X0.9456 Y19.1662
G01 F30.00
G01 Z-0.0601
G01 F60.00
G01 X0.9736 Y19.1736
G01 X1.2007 Y19.2275
G01 X1.4290 Y19.2758
G01 X1.6584 Y19.3185
G01 X1.8888 Y19.3556
G01 X2.1200 Y19.3870
G01 X2.3520 Y19.4127
G01 X2.5845 Y19.4328
G01 X2.8174 Y19.4471
G01 X3.0506 Y19.4557
G01 X3.2840 Y19.4585
G01 X3.5174 Y19.4557
G01 X3.7506 Y19.4471
G01 X3.9835 Y19.4328
G01 X4.2160 Y19.4127
G01 X4.4480 Y19.3870
G01 X4.6792 Y19.3556
G01 X4.9096 Y19.3185
G01 X5.1390 Y19.2758
G01 X5.3673 Y19.2275
G01 X5.5944 Y19.1736
G01 X5.6224 Y19.1662
G00 Z2.0000
G00 X6.1333 Y18.6799
G01 F30.00
G01 Z-0.0601
G01 F60.00
G01 X6.1647 Y18.6699
G01 X6.3778 Y18.5966
G01 X6.5891 Y18.5181
G01 X6.6632 Y18.4884
G01 X7.0079 Y18.5214
G01 X6.8606 Y18.5846
G01 X6.6476 Y18.6697
G01 X6.4326 Y18.7496
G01 X6.2983 Y18.7958
G00 Z2.0000
G00 X6.3319 Y18.9562
G01 F30.00
G01 Z-0.0601
G01 F60.00
G01 X6.4873 Y18.9027
G01 X6.7061 Y18.8214
G01 X6.9228 Y18.7347
G01 X6.9676 Y18.7155
G00 Z2.0000
G00 X6.8517 Y18.9382
G01 F30.00
G01 Z-0.0601
G01 F60.00
G01 X6.7646 Y18.9730
G01 X6.5421 Y19.0557
G01 X6.3177 Y19.1329
G01 X6.0914 Y19.2046
G01 X5.8634 Y19.2707
G01 X5.6339 Y19.3312
G01 X5.4030 Y19.3861
G01 X5.1707 Y19.4352
G01 X4.9374 Y19.4787
G01 X4.7030 Y19.5164
G01 X4.4678 Y19.5483
G01 X4.2319 Y19.5745
G01 X3.9955 Y19.5949
G01 X3.7585 Y19.6094
G01 X3.5213 Y19.6181
G01 X3.2840 Y19.6211
G01 X3.0467 Y19.6181
G01 X2.8095 Y19.6094
G01 X2.5725 Y19.5949
G01 X2.3361 Y19.5745
G01 X2.1002 Y19.5483
G01 X1.8650 Y19.5164
G01 X1.6306 Y19.4787
G01 X1.3973 Y19.4352
G01 X1.1650 Y19.3861
G01 X0.9341 Y19.3312
G01 X0.7046 Y19.2707
G01 X0.4766 Y19.2046
G01 X0.2503 Y19.1329
G01 X0.0259 Y19.0557
G01 X-0.0866 Y19.0139
G01 X-0.0516 Y19.2003
G01 X-0.0289 Y19.2088
G01 X0.1994 Y19.2873
G01 X0.4294 Y19.3602
G01 X0.6612 Y19.4274
G01 X0.8946 Y19.4889
G01 X1.1294 Y19.5447
G01 X1.3655 Y19.5946
G01 X1.6028 Y19.6388
G01 X1.8411 Y19.6772
G01 X2.0803 Y19.7096
G01 X2.3201 Y19.7362
G01 X2.5606 Y19.7570
G01 X2.8015 Y19.7718
G01 X3.0427 Y19.7806
G01 X3.2840 Y19.7836
G01 X3.5253 Y19.7806
G01 X3.7665 Y19.7718
G01 X4.0074 Y19.7570
G01 X4.2479 Y19.7362
G01 X4.4877 Y19.7096
G01 X4.7269 Y19.6772
G01 X4.9652 Y19.6388
G01 X5.2025 Y19.5946
G01 X5.4386 Y19.5447
G01 X5.6734 Y19.4889
G01 X5.9068 Y19.4274
G01 X6.1386 Y19.3602
G01 X6.3686 Y19.2873
G01 X6.5969 Y19.2088
G01 X6.8231 Y19.1247
G01 X6.9156 Y19.0877
G00 Z2.0000
G00 X7.1538 Y19.1662
G01 F30.00
G01 Z-0.0601
G01 F60.00
G01 X7.1094 Y19.1852
G01 X6.8816 Y19.2763
G01 X6.6516 Y19.3618
G01 X6.4196 Y19.4416
G01 X6.1857 Y19.5157
G01 X5.9501 Y19.5840
G01 X5.7129 Y19.6466
G01 X5.4742 Y19.7033
G01 X5.2342 Y19.7541
G01 X4.9930 Y19.7990
G01 X4.7507 Y19.8379
G01 X4.5076 Y19.8710
G01 X4.2638 Y19.8980
G01 X4.0194 Y19.9191
G01 X3.7767 Y19.9340
G00 Z2.0000
G00 X3.6846 Y19.1242
G01 F30.00
G01 Z-0.0601
G01 F60.00
G01 X3.7346 Y19.1224
G01 X3.9596 Y19.1086
G01 X4.1841 Y19.0892
G01 X4.3509 Y19.0707
G00 Z2.0000
G00 X4.3011 Y18.9127
G01 F30.00
G01 Z-0.0601
G01 F60.00
G01 X4.1682 Y18.9275
G01 X3.9476 Y18.9465
G01 X3.7889 Y18.9562
G00 Z2.0000
G00 X3.7550 Y18.7955
G01 F30.00
G01 Z-0.0601
G01 F60.00
G01 X3.9357 Y18.7844
G01 X4.1523 Y18.7657
G01 X4.3684 Y18.7417
G01 X4.3844 Y18.7396
G01 X4.4341 Y18.4048
G01 X4.5361 Y18.3909
G01 X4.7429 Y18.3576
G01 X4.9488 Y18.3193
G01 X4.9883 Y18.3109
G00 Z2.0000
G00 X5.1168 Y18.1176
G01 F30.00
G01 Z-0.0601
G01 F60.00
G01 X4.9171 Y18.1599
G01 X4.7183 Y18.1969
G00 Z2.0000
G00 X4.8548 Y18.0062
G01 F30.00
G01 Z-0.0601
G01 F60.00
G01 X4.8854 Y18.0005
G01 X5.0824 Y17.9588
G01 X5.2784 Y17.9122
G01 X5.4733 Y17.8609
G01 X5.6667 Y17.8048
G01 X5.6975 Y17.7950
G00 Z2.0000
G00 X5.6725 Y17.6324
G01 F30.00
G01 Z-0.0601
G01 F60.00
G01 X5.6196 Y17.6492
G01 X5.4299 Y17.7042
G01 X5.2390 Y17.7545
G01 X5.0468 Y17.8002
G01 X4.9269 Y17.8256
G00 Z2.0000
G00 X4.9585 Y17.6527
G01 F30.00
G01 Z-0.0601
G01 F60.00
G01 X5.0112 Y17.6416
G01 X5.1995 Y17.5969
G01 X5.3865 Y17.5476
G01 X5.5724 Y17.4937
G01 X5.6780 Y17.4602
G00 Z2.0000
G00 X5.7216 Y17.2755
G01 F30.00
G01 Z-0.0601
G01 F60.00
G01 X5.7058 Y17.2809
G01 X5.5252 Y17.3381
G01 X5.3432 Y17.3909
G01 X5.1600 Y17.4392
G01 X4.9756 Y17.4830
G01 X4.9577 Y17.4868
G00 Z2.0000
G00 X4.9271 Y17.3271
G01 F30.00
G01 Z-0.0601
G01 F60.00
G01 X4.9400 Y17.3244
G01 X5.1205 Y17.2815
G01 X5.2998 Y17.2343
G01 X5.4780 Y17.1826
G01 X5.6231 Y17.1366
G00 Z2.0000
G00 X5.1818 Y17.0973
G01 F30.00
G01 Z-0.0601
G01 F60.00
G01 X5.0810 Y17.1239
G01 X4.9044 Y17.1658
G01 X4.8680 Y17.1735
G00 Z2.0000
G00 X4.7778 Y17.0265
G01 F30.00
G01 Z-0.0601
G01 F60.00
G01 X4.8688 Y17.0072
G01 X5.0415 Y16.9662
G01 X5.0674 Y16.9594
G01 X4.9713 Y16.8158
G01 X4.8332 Y16.8486
G01 X4.6634 Y16.8846
G01 X4.6488 Y16.8873
G00 Z2.0000
G00 X4.4561 Y16.7576
G01 F30.00
G01 Z-0.0601
G01 F60.00
G01 X4.6317 Y16.7251
G01 X4.7975 Y16.6900
G01 X4.8363 Y16.6808
G01 X4.6602 Y16.5530
G01 X4.6000 Y16.5657
G01 X4.4372 Y16.5960
G01 X4.2738 Y16.6223
G01 X4.1097 Y16.6446
G01 X3.9452 Y16.6629
G01 X3.7802 Y16.6771
G01 X3.6150 Y16.6872
G01 X3.4495 Y16.6933
G01 X3.2840 Y16.6953
G01 X3.2417 Y16.6948
G01 X3.0943 Y16.8551
G01 X3.1145 Y16.8558
G01 X3.2840 Y16.8579
G01 X3.4535 Y16.8558
G01 X3.4823 Y16.8547
G00 Z2.0000
G00 X3.3190 Y17.0200
G01 F30.00
G01 Z-0.0601
G01 F60.00
G01 X3.2840 Y17.0204
G01 X3.1105 Y17.0183
G01 X2.9888 Y17.0138
G01 X2.9225 Y17.1738
G01 X3.1065 Y17.1808
G01 X3.2199 Y17.1822
G00 Z2.0000
G00 X3.1607 Y17.3440
G01 F30.00
G01 Z-0.0601
G01 F60.00
G01 X3.1025 Y17.3433
G01 X2.9211 Y17.3366
G01 X2.8790 Y17.3340
G01 X2.8542 Y17.4953
G01 X2.9131 Y17.4989
G01 X3.0985 Y17.5058
G01 X3.1332 Y17.5062
G00 Z2.0000
G00 X3.1465 Y17.4029
G01 F30.00
G01 Z-0.0601
G01 F60.00
G01 X3.1488 Y17.3917
G01 X3.1693 Y17.3101
G01 X3.1996 Y17.2254
G01 X3.2381 Y17.1442
G01 X3.2843 Y17.0670
G01 X3.3378 Y16.9948
G01 X3.3982 Y16.9282
G01 X3.4648 Y16.8678
G01 X3.5370 Y16.8143
G01 X3.6142 Y16.7681
G01 X3.6954 Y16.7296
G01 X3.7801 Y16.6993
G01 X3.8673 Y16.6775
G01 X3.9562 Y16.6643
G01 X4.0460 Y16.6599
G01 X4.1358 Y16.6643
G01 X4.2247 Y16.6775
G01 X4.3119 Y16.6993
G01 X4.3966 Y16.7296
G01 X4.4778 Y16.7681
G01 X4.5550 Y16.8143
G01 X4.6272 Y16.8678
G01 X4.6938 Y16.9282
G01 X4.7542 Y16.9948
G01 X4.8077 Y17.0670
G01 X4.8539 Y17.1442
G01 X4.8924 Y17.2254
G01 X4.9227 Y17.3101
G01 X4.9445 Y17.3973
G01 X4.9577 Y17.4862
G01 X4.9621 Y17.5760
G01 X4.9577 Y17.6658
G01 X4.9445 Y17.7547
G01 X4.9227 Y17.8419
G01 X4.8924 Y17.9266
G01 X4.8539 Y18.0078
G01 X4.8077 Y18.0850
G01 X4.7542 Y18.1572
G01 X4.6938 Y18.2238
G01 X4.6272 Y18.2842
G01 X4.5550 Y18.3377
G01 X4.4778 Y18.3839
G01 X4.3966 Y18.4224
G01 X4.3119 Y18.4527
G01 X4.2247 Y18.4745
G01 X4.1358 Y18.4877
G01 X4.0460 Y18.4921
G01 X3.9562 Y18.4877
G01 X3.8673 Y18.4745
G01 X3.7801 Y18.4527
G01 X3.6954 Y18.4224
G01 X3.6142 Y18.3839
G01 X3.5370 Y18.3377
G01 X3.4648 Y18.2842
G01 X3.3982 Y18.2238
G01 X3.3378 Y18.1572
G01 X3.2843 Y18.0850
G01 X3.2381 Y18.0078
G01 X3.1996 Y17.9266
G01 X3.1693 Y17.8419
G01 X3.1475 Y17.7547
G01 X3.1343 Y17.6658
G01 X3.1299 Y17.5760
G01 X3.1343 Y17.4862
G01 X3.1465 Y17.4029
G00 Z2.0000
G00 X3.1346 Y17.6687
G01 F30.00
G01 Z-0.0601
G01 F60.00
G01 X3.0945 Y17.6683
G01 X2.9052 Y17.6613
G01 X2.8542 Y17.6581
G01 X2.8799 Y17.8226
G01 X2.8972 Y17.8236
G01 X3.0905 Y17.8307
G01 X3.1666 Y17.8317
G00 Z2.0000
G00 X3.2318 Y17.9950
G01 F30.00
G01 Z-0.0601
G01 F60.00
G01 X3.0865 Y17.9932
G01 X2.9263 Y17.9873
G01 X2.9979 Y18.1526
G01 X3.0826 Y18.1557
G01 X3.2840 Y18.1582
G01 X3.3382 Y18.1575
G00 Z2.0000
G00 X3.5095 Y18.3175
G01 F30.00
G01 Z-0.0601
G01 F60.00
G01 X3.4894 Y18.3182
G01 X3.2840 Y18.3207
G01 X3.1088 Y18.3186
G01 X3.2676 Y18.4831
G01 X3.2840 Y18.4833
G01 X3.4934 Y18.4807
G01 X3.7027 Y18.4730
G01 X3.8296 Y18.4652
G01 X3.5072 Y18.6428
G01 X3.7107 Y18.6353
G01 X3.9237 Y18.6223
G01 X4.1363 Y18.6039
G01 X4.3485 Y18.5804
G01 X4.5600 Y18.5517
G01 X4.7707 Y18.5178
G01 X4.7860 Y18.5149
G00 Z2.0000
G00 X4.8335 Y19.1662
G01 F30.00
G01 Z-0.0601
G01 F60.00
G01 X4.6554 Y19.1948
G01 X4.4281 Y19.2257
G01 X4.2001 Y19.2510
G01 X3.9715 Y19.2707
G01 X3.7426 Y19.2847
G01 X3.5134 Y19.2932
G01 X3.2840 Y19.2960
G01 X3.0546 Y19.2932
G01 X2.8254 Y19.2847
G01 X2.5965 Y19.2707
G01 X2.3679 Y19.2510
G01 X2.1399 Y19.2257
G01 X1.9126 Y19.1948
G01 X1.7345 Y19.1662
G01 X1.4121 Y19.9340
G01 X1.3021 Y19.9135
G01 X1.0582 Y19.8618
G01 X0.8156 Y19.8042
G01 X0.5745 Y19.7407
G01 X0.3351 Y19.6712
G01 X0.1946 Y19.6268
G01 X0.0287 Y19.4004
G01 X0.1484 Y19.4416
G01 X0.3823 Y19.5157
G01 X0.6179 Y19.5840
G01 X0.8551 Y19.6466
G01 X1.0938 Y19.7033
G01 X1.3338 Y19.7541
G01 X1.5750 Y19.7990
G01 X1.8173 Y19.8379
G01 X2.0604 Y19.8710
G01 X2.3042 Y19.8980
G01 X2.5486 Y19.9191
G01 X2.7913 Y19.9340
G00 Z2.0000
G00 X5.1559 Y19.9340
G01 F30.00
G01 Z-0.0601
G01 F60.00
G01 X5.2659 Y19.9135
G01 X5.5098 Y19.8618
G01 X5.7524 Y19.8042
G01 X5.9935 Y19.7407
G01 X6.2329 Y19.6712
G01 X6.4706 Y19.5959
G01 X6.7064 Y19.5148
G01 X6.9401 Y19.4280
G01 X7.1716 Y19.3354
G01 X7.4007 Y19.2372
G01 X7.5557 Y19.1662
G01 X7.9303 Y19.1662
G01 X7.6969 Y19.2803
G01 X7.4666 Y19.3858
G01 X7.2338 Y19.4856
G01 X6.9986 Y19.5796
G01 X6.7611 Y19.6679
G01 X6.5216 Y19.7503
G01 X6.2801 Y19.8268
G01 X6.0368 Y19.8973
G01 X5.8979 Y19.9340
G01 X6.4800 Y19.9340
G01 X6.5726 Y19.9046
G01 X6.8159 Y19.8209
G01 X7.0571 Y19.7313
G01 X7.2960 Y19.6357
G01 X7.5325 Y19.5343
G01 X7.7664 Y19.4272
G01 X7.9976 Y19.3143
G01 X8.2260 Y19.1958
G01 X8.2800 Y19.1662
G01 X8.6123 Y19.1662
G01 X8.5316 Y19.2132
G01 X8.3027 Y19.3392
G01 X8.0707 Y19.4595
G01 X7.8359 Y19.5741
G01 X7.5983 Y19.6829
G01 X7.3582 Y19.7859
G01 X7.1156 Y19.8829
G01 X6.9782 Y19.9340
G01 X7.4253 Y19.9340
G01 X7.6642 Y19.8315
G01 X7.9054 Y19.7211
G01 X8.1438 Y19.6047
G01 X8.3793 Y19.4825
G01 X8.6117 Y19.3546
G01 X8.8409 Y19.2210
G01 X9.0667 Y19.0819
G01 X9.2891 Y18.9372
G01 X9.5079 Y18.7871
G01 X9.7229 Y18.6317
G01 X9.9340 Y18.4711
G01 X10.1411 Y18.3053
G01 X10.3441 Y18.1345
G01 X10.5428 Y17.9588
G01 X10.7372 Y17.7782
G01 X10.7666 Y17.7495
G00 Z2.0000
G00 X10.8187 Y17.9243
G01 F30.00
G01 Z-0.0601
G01 F60.00
G01 X10.6520 Y18.0792
G01 X10.4503 Y18.2576
G01 X10.2442 Y18.4310
G01 X10.0340 Y18.5992
G01 X9.8197 Y18.7623
G01 X9.6015 Y18.9200
G01 X9.3794 Y19.0724
G01 X9.1537 Y19.2192
G01 X8.9245 Y19.3605
G01 X8.6918 Y19.4960
G01 X8.4559 Y19.6259
G01 X8.2169 Y19.7499
G01 X7.9749 Y19.8680
G01 X7.8309 Y19.9340
G01 X8.2103 Y19.9340
G01 X8.2900 Y19.8951
G01 X8.5325 Y19.7692
G01 X8.7719 Y19.6375
G01 X9.0080 Y19.4999
G01 X9.2407 Y19.3565
G01 X9.4697 Y19.2075
G01 X9.6950 Y19.0529
G01 X9.9165 Y18.8928
G01 X10.1340 Y18.7274
G01 X10.3473 Y18.5566
G01 X10.5564 Y18.3807
G01 X10.7611 Y18.1997
G01 X10.8971 Y18.0733
G00 Z2.0000
G00 X10.9979 Y18.2016
G01 F30.00
G01 Z-0.0601
G01 F60.00
G01 X10.8703 Y18.3201
G01 X10.6626 Y18.5038
G01 X10.4504 Y18.6823
G01 X10.2340 Y18.8555
G01 X10.0133 Y19.0234
G01 X9.7886 Y19.1858
G01 X9.5600 Y19.3426
G01 X9.3276 Y19.4938
G01 X9.0916 Y19.6393
G01 X8.8520 Y19.7789
G01 X8.6091 Y19.9126
G01 X8.5679 Y19.9340
G01 X8.9074 Y19.9340
G01 X8.9322 Y19.9203
G01 X9.1751 Y19.7787
G01 X9.4146 Y19.6312
G01 X9.6503 Y19.4778
G01 X9.8822 Y19.3187
G01 X10.1102 Y19.1539
G01 X10.3340 Y18.9836
G01 X10.5536 Y18.8079
G01 X10.7688 Y18.6268
G01 X10.9794 Y18.4405
G01 X11.1197 Y18.3102
G00 Z2.0000
G00 X11.2639 Y18.3981
G01 F30.00
G01 Z-0.0601
G01 F60.00
G01 X11.0886 Y18.5610
G01 X10.8749 Y18.7499
G01 X10.6567 Y18.9336
G01 X10.4340 Y19.1118
G01 X10.2070 Y19.2845
G01 X9.9758 Y19.4516
G01 X9.7406 Y19.6129
G01 X9.5015 Y19.7685
G01 X9.2587 Y19.9181
G01 X9.2315 Y19.9340
G01 X9.5428 Y19.9340
G01 X9.5885 Y19.9058
G01 X9.8309 Y19.7481
G01 X10.0694 Y19.5845
G01 X10.3038 Y19.4150
G01 X10.5340 Y19.2399
G01 X10.7598 Y19.0592
G01 X10.9811 Y18.8730
G01 X11.1978 Y18.6814
