(G-CODE GENERATED BY FLATCAM v8.994 - www.flatcam.org - Version Date: 2020/11/7)

(Name: lora_digirepeater_micro-F_Cu.gbr_cutout_cnc)
(Type: G-code from Geometry)
(Units: MM)

(Created on Thursday, 09 March 2023 at 19:21)

(This preprocessor is the default preprocessor used by FlatCAM.)
(It is made to work with MACH3 compatible motion controllers.)

(TOOL DIAMETER: 3.175 mm)
(Feedrate_XY: 60.0 mm/min)
(Feedrate_Z: 30.0 mm/min)
(Feedrate rapids 1500.0 mm/min)

(Z_Cut: -1.8 mm)
(DepthPerCut: 0.2 mm <=>9 passes)
(Z_Move: 2.0 mm)
(Z Start: None mm)
(Z End: 15.0 mm)
(X,Y End: None mm)
(Steps per circle: 64)
(Preprocessor Geometry: default)

(X range:   -0.9936 ...   60.7655  mm)
(Y range:   -0.9256 ...   20.8376  mm)

(Spindle Speed: 10000.0 RPM)
G21
G90
G94

G01 F60.00

M5
G00 Z15.0000
G00 X0.0000 Y0.0000
T1
M6    
(MSG, Change to Tool Dia = 3.1750)
M0
G00 Z15.0000

M03 S10000.0
G01 F60.00
G00 X-0.9936 Y7.5685
G01 F30.00
G01 Z-0.2000
G01 F60.00
G01 X-0.9936 Y0.8619
G01 X-0.9850 Y0.6867
G01 X-0.9592 Y0.5132
G01 X-0.9166 Y0.3431
G01 X-0.8575 Y0.1779
G01 X-0.7825 Y0.0193
G01 X-0.6923 Y-0.1311
G01 X-0.5878 Y-0.2720
G01 X-0.4700 Y-0.4020
G01 X-0.3400 Y-0.5198
G01 X-0.1991 Y-0.6243
G01 X-0.0487 Y-0.7145
G01 X0.1099 Y-0.7895
G01 X0.2751 Y-0.8486
G01 X0.4452 Y-0.8912
G01 X0.6187 Y-0.9170
G01 X0.7939 Y-0.9256
G01 X27.4985 Y-0.9256
G00 X27.4985 Y-0.9256
G01 F30.00
G01 Z-0.4000
G01 F60.00
G01 X0.7939 Y-0.9256
G01 X0.6187 Y-0.9170
G01 X0.4452 Y-0.8912
G01 X0.2751 Y-0.8486
G01 X0.1099 Y-0.7895
G01 X-0.0487 Y-0.7145
G01 X-0.1991 Y-0.6243
G01 X-0.3400 Y-0.5198
G01 X-0.4700 Y-0.4020
G01 X-0.5878 Y-0.2720
G01 X-0.6923 Y-0.1311
G01 X-0.7825 Y0.0193
G01 X-0.8575 Y0.1779
G01 X-0.9166 Y0.3431
G01 X-0.9592 Y0.5132
G01 X-0.9850 Y0.6867
G01 X-0.9936 Y0.8619
G01 X-0.9936 Y7.5685
G00 X-0.9936 Y7.5685
G01 F30.00
G01 Z-0.6000
G01 F60.00
G01 X-0.9936 Y0.8619
G01 X-0.9850 Y0.6867
G01 X-0.9592 Y0.5132
G01 X-0.9166 Y0.3431
G01 X-0.8575 Y0.1779
G01 X-0.7825 Y0.0193
G01 X-0.6923 Y-0.1311
G01 X-0.5878 Y-0.2720
G01 X-0.4700 Y-0.4020
G01 X-0.3400 Y-0.5198
G01 X-0.1991 Y-0.6243
G01 X-0.0487 Y-0.7145
G01 X0.1099 Y-0.7895
G01 X0.2751 Y-0.8486
G01 X0.4452 Y-0.8912
G01 X0.6187 Y-0.9170
G01 X0.7939 Y-0.9256
G01 X27.4985 Y-0.9256
G00 X27.4985 Y-0.9256
G01 F30.00
G01 Z-0.8000
G01 F60.00
G01 X0.7939 Y-0.9256
G01 X0.6187 Y-0.9170
G01 X0.4452 Y-0.8912
G01 X0.2751 Y-0.8486
G01 X0.1099 Y-0.7895
G01 X-0.0487 Y-0.7145
G01 X-0.1991 Y-0.6243
G01 X-0.3400 Y-0.5198
G01 X-0.4700 Y-0.4020
G01 X-0.5878 Y-0.2720
G01 X-0.6923 Y-0.1311
G01 X-0.7825 Y0.0193
G01 X-0.8575 Y0.1779
G01 X-0.9166 Y0.3431
G01 X-0.9592 Y0.5132
G01 X-0.9850 Y0.6867
G01 X-0.9936 Y0.8619
G01 X-0.9936 Y7.5685
G00 X-0.9936 Y7.5685
G01 F30.00
G01 Z-1.0000
G01 F60.00
G01 X-0.9936 Y0.8619
G01 X-0.9850 Y0.6867
G01 X-0.9592 Y0.5132
G01 X-0.9166 Y0.3431
G01 X-0.8575 Y0.1779
G01 X-0.7825 Y0.0193
G01 X-0.6923 Y-0.1311
G01 X-0.5878 Y-0.2720
G01 X-0.4700 Y-0.4020
G01 X-0.3400 Y-0.5198
G01 X-0.1991 Y-0.6243
G01 X-0.0487 Y-0.7145
G01 X0.1099 Y-0.7895
G01 X0.2751 Y-0.8486
G01 X0.4452 Y-0.8912
G01 X0.6187 Y-0.9170
G01 X0.7939 Y-0.9256
G01 X27.4985 Y-0.9256
G00 X27.4985 Y-0.9256
G01 F30.00
G01 Z-1.2000
G01 F60.00
G01 X0.7939 Y-0.9256
G01 X0.6187 Y-0.9170
G01 X0.4452 Y-0.8912
G01 X0.2751 Y-0.8486
G01 X0.1099 Y-0.7895
G01 X-0.0487 Y-0.7145
G01 X-0.1991 Y-0.6243
G01 X-0.3400 Y-0.5198
G01 X-0.4700 Y-0.4020
G01 X-0.5878 Y-0.2720
G01 X-0.6923 Y-0.1311
G01 X-0.7825 Y0.0193
G01 X-0.8575 Y0.1779
G01 X-0.9166 Y0.3431
G01 X-0.9592 Y0.5132
G01 X-0.9850 Y0.6867
G01 X-0.9936 Y0.8619
G01 X-0.9936 Y7.5685
G00 X-0.9936 Y7.5685
G01 F30.00
G01 Z-1.4000
G01 F60.00
G01 X-0.9936 Y0.8619
G01 X-0.9850 Y0.6867
G01 X-0.9592 Y0.5132
G01 X-0.9166 Y0.3431
G01 X-0.8575 Y0.1779
G01 X-0.7825 Y0.0193
G01 X-0.6923 Y-0.1311
G01 X-0.5878 Y-0.2720
G01 X-0.4700 Y-0.4020
G01 X-0.3400 Y-0.5198
G01 X-0.1991 Y-0.6243
G01 X-0.0487 Y-0.7145
G01 X0.1099 Y-0.7895
G01 X0.2751 Y-0.8486
G01 X0.4452 Y-0.8912
G01 X0.6187 Y-0.9170
G01 X0.7939 Y-0.9256
G01 X27.4985 Y-0.9256
G00 X27.4985 Y-0.9256
G01 F30.00
G01 Z-1.6000
G01 F60.00
G01 X0.7939 Y-0.9256
G01 X0.6187 Y-0.9170
G01 X0.4452 Y-0.8912
G01 X0.2751 Y-0.8486
G01 X0.1099 Y-0.7895
G01 X-0.0487 Y-0.7145
G01 X-0.1991 Y-0.6243
G01 X-0.3400 Y-0.5198
G01 X-0.4700 Y-0.4020
G01 X-0.5878 Y-0.2720
G01 X-0.6923 Y-0.1311
G01 X-0.7825 Y0.0193
G01 X-0.8575 Y0.1779
G01 X-0.9166 Y0.3431
G01 X-0.9592 Y0.5132
G01 X-0.9850 Y0.6867
G01 X-0.9936 Y0.8619
G01 X-0.9936 Y7.5685
G00 X-0.9936 Y7.5685
G01 F30.00
G01 Z-1.8000
G01 F60.00
G01 X-0.9936 Y0.8619
G01 X-0.9850 Y0.6867
G01 X-0.9592 Y0.5132
G01 X-0.9166 Y0.3431
G01 X-0.8575 Y0.1779
G01 X-0.7825 Y0.0193
G01 X-0.6923 Y-0.1311
G01 X-0.5878 Y-0.2720
G01 X-0.4700 Y-0.4020
G01 X-0.3400 Y-0.5198
G01 X-0.1991 Y-0.6243
G01 X-0.0487 Y-0.7145
G01 X0.1099 Y-0.7895
G01 X0.2751 Y-0.8486
G01 X0.4452 Y-0.8912
G01 X0.6187 Y-0.9170
G01 X0.7939 Y-0.9256
G01 X27.4985 Y-0.9256
G00 Z2.0000
G00 X-0.9936 Y12.7435
G01 F30.00
G01 Z-0.2000
G01 F60.00
G01 X-0.9936 Y19.0501
G01 X-0.9850 Y19.2253
G01 X-0.9592 Y19.3988
G01 X-0.9166 Y19.5689
G01 X-0.8575 Y19.7341
G01 X-0.7825 Y19.8927
G01 X-0.6923 Y20.0431
G01 X-0.5878 Y20.1840
G01 X-0.4700 Y20.3140
G01 X-0.3400 Y20.4318
G01 X-0.1991 Y20.5363
G01 X-0.0487 Y20.6265
G01 X0.1099 Y20.7015
G01 X0.2751 Y20.7606
G01 X0.4452 Y20.8032
G01 X0.6187 Y20.8290
G01 X0.7939 Y20.8376
G01 X27.4985 Y20.8376
G00 X27.4985 Y20.8376
G01 F30.00
G01 Z-0.4000
G01 F60.00
G01 X0.7939 Y20.8376
G01 X0.6187 Y20.8290
G01 X0.4452 Y20.8032
G01 X0.2751 Y20.7606
G01 X0.1099 Y20.7015
G01 X-0.0487 Y20.6265
G01 X-0.1991 Y20.5363
G01 X-0.3400 Y20.4318
G01 X-0.4700 Y20.3140
G01 X-0.5878 Y20.1840
G01 X-0.6923 Y20.0431
G01 X-0.7825 Y19.8927
G01 X-0.8575 Y19.7341
G01 X-0.9166 Y19.5689
G01 X-0.9592 Y19.3988
G01 X-0.9850 Y19.2253
G01 X-0.9936 Y19.0501
G01 X-0.9936 Y12.7435
G00 X-0.9936 Y12.7435
G01 F30.00
G01 Z-0.6000
G01 F60.00
G01 X-0.9936 Y19.0501
G01 X-0.9850 Y19.2253
G01 X-0.9592 Y19.3988
G01 X-0.9166 Y19.5689
G01 X-0.8575 Y19.7341
G01 X-0.7825 Y19.8927
G01 X-0.6923 Y20.0431
G01 X-0.5878 Y20.1840
G01 X-0.4700 Y20.3140
G01 X-0.3400 Y20.4318
G01 X-0.1991 Y20.5363
G01 X-0.0487 Y20.6265
G01 X0.1099 Y20.7015
G01 X0.2751 Y20.7606
G01 X0.4452 Y20.8032
G01 X0.6187 Y20.8290
G01 X0.7939 Y20.8376
G01 X27.4985 Y20.8376
G00 X27.4985 Y20.8376
G01 F30.00
G01 Z-0.8000
G01 F60.00
G01 X0.7939 Y20.8376
G01 X0.6187 Y20.8290
G01 X0.4452 Y20.8032
G01 X0.2751 Y20.7606
G01 X0.1099 Y20.7015
G01 X-0.0487 Y20.6265
G01 X-0.1991 Y20.5363
G01 X-0.3400 Y20.4318
G01 X-0.4700 Y20.3140
G01 X-0.5878 Y20.1840
G01 X-0.6923 Y20.0431
G01 X-0.7825 Y19.8927
G01 X-0.8575 Y19.7341
G01 X-0.9166 Y19.5689
G01 X-0.9592 Y19.3988
G01 X-0.9850 Y19.2253
G01 X-0.9936 Y19.0501
G01 X-0.9936 Y12.7435
G00 X-0.9936 Y12.7435
G01 F30.00
G01 Z-1.0000
G01 F60.00
G01 X-0.9936 Y19.0501
G01 X-0.9850 Y19.2253
G01 X-0.9592 Y19.3988
G01 X-0.9166 Y19.5689
G01 X-0.8575 Y19.7341
G01 X-0.7825 Y19.8927
G01 X-0.6923 Y20.0431
G01 X-0.5878 Y20.1840
G01 X-0.4700 Y20.3140
G01 X-0.3400 Y20.4318
G01 X-0.1991 Y20.5363
G01 X-0.0487 Y20.6265
G01 X0.1099 Y20.7015
G01 X0.2751 Y20.7606
G01 X0.4452 Y20.8032
G01 X0.6187 Y20.8290
G01 X0.7939 Y20.8376
G01 X27.4985 Y20.8376
G00 X27.4985 Y20.8376
G01 F30.00
G01 Z-1.2000
G01 F60.00
G01 X0.7939 Y20.8376
G01 X0.6187 Y20.8290
G01 X0.4452 Y20.8032
G01 X0.2751 Y20.7606
G01 X0.1099 Y20.7015
G01 X-0.0487 Y20.6265
G01 X-0.1991 Y20.5363
G01 X-0.3400 Y20.4318
G01 X-0.4700 Y20.3140
G01 X-0.5878 Y20.1840
G01 X-0.6923 Y20.0431
G01 X-0.7825 Y19.8927
G01 X-0.8575 Y19.7341
G01 X-0.9166 Y19.5689
G01 X-0.9592 Y19.3988
G01 X-0.9850 Y19.2253
G01 X-0.9936 Y19.0501
G01 X-0.9936 Y12.7435
G00 X-0.9936 Y12.7435
G01 F30.00
G01 Z-1.4000
G01 F60.00
G01 X-0.9936 Y19.0501
G01 X-0.9850 Y19.2253
G01 X-0.9592 Y19.3988
G01 X-0.9166 Y19.5689
G01 X-0.8575 Y19.7341
G01 X-0.7825 Y19.8927
G01 X-0.6923 Y20.0431
G01 X-0.5878 Y20.1840
G01 X-0.4700 Y20.3140
G01 X-0.3400 Y20.4318
G01 X-0.1991 Y20.5363
G01 X-0.0487 Y20.6265
G01 X0.1099 Y20.7015
G01 X0.2751 Y20.7606
G01 X0.4452 Y20.8032
G01 X0.6187 Y20.8290
G01 X0.7939 Y20.8376
G01 X27.4985 Y20.8376
G00 X27.4985 Y20.8376
G01 F30.00
G01 Z-1.6000
G01 F60.00
G01 X0.7939 Y20.8376
G01 X0.6187 Y20.8290
G01 X0.4452 Y20.8032
G01 X0.2751 Y20.7606
G01 X0.1099 Y20.7015
G01 X-0.0487 Y20.6265
G01 X-0.1991 Y20.5363
G01 X-0.3400 Y20.4318
G01 X-0.4700 Y20.3140
G01 X-0.5878 Y20.1840
G01 X-0.6923 Y20.0431
G01 X-0.7825 Y19.8927
G01 X-0.8575 Y19.7341
G01 X-0.9166 Y19.5689
G01 X-0.9592 Y19.3988
G01 X-0.9850 Y19.2253
G01 X-0.9936 Y19.0501
G01 X-0.9936 Y12.7435
G00 X-0.9936 Y12.7435
G01 F30.00
G01 Z-1.8000
G01 F60.00
G01 X-0.9936 Y19.0501
G01 X-0.9850 Y19.2253
G01 X-0.9592 Y19.3988
G01 X-0.9166 Y19.5689
G01 X-0.8575 Y19.7341
G01 X-0.7825 Y19.8927
G01 X-0.6923 Y20.0431
G01 X-0.5878 Y20.1840
G01 X-0.4700 Y20.3140
G01 X-0.3400 Y20.4318
G01 X-0.1991 Y20.5363
G01 X-0.0487 Y20.6265
G01 X0.1099 Y20.7015
G01 X0.2751 Y20.7606
G01 X0.4452 Y20.8032
G01 X0.6187 Y20.8290
G01 X0.7939 Y20.8376
G01 X27.4985 Y20.8376
G00 Z2.0000
G00 X32.6735 Y20.8376
G01 F30.00
G01 Z-0.2000
G01 F60.00
G01 X58.9780 Y20.8376
G01 X59.1532 Y20.8290
G01 X59.3267 Y20.8032
G01 X59.4969 Y20.7606
G01 X59.6620 Y20.7015
G01 X59.8206 Y20.6265
G01 X59.9711 Y20.5363
G01 X60.1120 Y20.4318
G01 X60.2420 Y20.3140
G01 X60.3598 Y20.1840
G01 X60.4643 Y20.0431
G01 X60.5544 Y19.8927
G01 X60.6294 Y19.7341
G01 X60.6885 Y19.5689
G01 X60.7312 Y19.3988
G01 X60.7569 Y19.2253
G01 X60.7655 Y19.0501
G01 X60.7655 Y12.7435
G00 X60.7655 Y12.7435
G01 F30.00
G01 Z-0.4000
G01 F60.00
G01 X60.7655 Y19.0501
G01 X60.7569 Y19.2253
G01 X60.7312 Y19.3988
G01 X60.6885 Y19.5689
G01 X60.6294 Y19.7341
G01 X60.5544 Y19.8927
G01 X60.4643 Y20.0431
G01 X60.3598 Y20.1840
G01 X60.2420 Y20.3140
G01 X60.1120 Y20.4318
G01 X59.9711 Y20.5363
G01 X59.8206 Y20.6265
G01 X59.6620 Y20.7015
G01 X59.4969 Y20.7606
G01 X59.3267 Y20.8032
G01 X59.1532 Y20.8290
G01 X58.9780 Y20.8376
G01 X32.6735 Y20.8376
G00 X32.6735 Y20.8376
G01 F30.00
G01 Z-0.6000
G01 F60.00
G01 X58.9780 Y20.8376
G01 X59.1532 Y20.8290
G01 X59.3267 Y20.8032
G01 X59.4969 Y20.7606
G01 X59.6620 Y20.7015
G01 X59.8206 Y20.6265
G01 X59.9711 Y20.5363
G01 X60.1120 Y20.4318
G01 X60.2420 Y20.3140
G01 X60.3598 Y20.1840
G01 X60.4643 Y20.0431
G01 X60.5544 Y19.8927
G01 X60.6294 Y19.7341
G01 X60.6885 Y19.5689
G01 X60.7312 Y19.3988
G01 X60.7569 Y19.2253
G01 X60.7655 Y19.0501
G01 X60.7655 Y12.7435
G00 X60.7655 Y12.7435
G01 F30.00
G01 Z-0.8000
G01 F60.00
G01 X60.7655 Y19.0501
G01 X60.7569 Y19.2253
G01 X60.7312 Y19.3988
G01 X60.6885 Y19.5689
G01 X60.6294 Y19.7341
G01 X60.5544 Y19.8927
G01 X60.4643 Y20.0431
G01 X60.3598 Y20.1840
G01 X60.2420 Y20.3140
G01 X60.1120 Y20.4318
G01 X59.9711 Y20.5363
G01 X59.8206 Y20.6265
G01 X59.6620 Y20.7015
G01 X59.4969 Y20.7606
G01 X59.3267 Y20.8032
G01 X59.1532 Y20.8290
G01 X58.9780 Y20.8376
G01 X32.6735 Y20.8376
G00 X32.6735 Y20.8376
G01 F30.00
G01 Z-1.0000
G01 F60.00
G01 X58.9780 Y20.8376
G01 X59.1532 Y20.8290
G01 X59.3267 Y20.8032
G01 X59.4969 Y20.7606
G01 X59.6620 Y20.7015
G01 X59.8206 Y20.6265
G01 X59.9711 Y20.5363
G01 X60.1120 Y20.4318
G01 X60.2420 Y20.3140
G01 X60.3598 Y20.1840
G01 X60.4643 Y20.0431
G01 X60.5544 Y19.8927
G01 X60.6294 Y19.7341
G01 X60.6885 Y19.5689
G01 X60.7312 Y19.3988
G01 X60.7569 Y19.2253
G01 X60.7655 Y19.0501
G01 X60.7655 Y12.7435
G00 X60.7655 Y12.7435
G01 F30.00
G01 Z-1.2000
G01 F60.00
G01 X60.7655 Y19.0501
G01 X60.7569 Y19.2253
G01 X60.7312 Y19.3988
G01 X60.6885 Y19.5689
G01 X60.6294 Y19.7341
G01 X60.5544 Y19.8927
G01 X60.4643 Y20.0431
G01 X60.3598 Y20.1840
G01 X60.2420 Y20.3140
G01 X60.1120 Y20.4318
G01 X59.9711 Y20.5363
G01 X59.8206 Y20.6265
G01 X59.6620 Y20.7015
G01 X59.4969 Y20.7606
G01 X59.3267 Y20.8032
G01 X59.1532 Y20.8290
G01 X58.9780 Y20.8376
G01 X32.6735 Y20.8376
G00 X32.6735 Y20.8376
G01 F30.00
G01 Z-1.4000
G01 F60.00
G01 X58.9780 Y20.8376
G01 X59.1532 Y20.8290
G01 X59.3267 Y20.8032
G01 X59.4969 Y20.7606
G01 X59.6620 Y20.7015
G01 X59.8206 Y20.6265
G01 X59.9711 Y20.5363
G01 X60.1120 Y20.4318
G01 X60.2420 Y20.3140
G01 X60.3598 Y20.1840
G01 X60.4643 Y20.0431
G01 X60.5544 Y19.8927
G01 X60.6294 Y19.7341
G01 X60.6885 Y19.5689
G01 X60.7312 Y19.3988
G01 X60.7569 Y19.2253
G01 X60.7655 Y19.0501
G01 X60.7655 Y12.7435
G00 X60.7655 Y12.7435
G01 F30.00
G01 Z-1.6000
G01 F60.00
G01 X60.7655 Y19.0501
G01 X60.7569 Y19.2253
G01 X60.7312 Y19.3988
G01 X60.6885 Y19.5689
G01 X60.6294 Y19.7341
G01 X60.5544 Y19.8927
G01 X60.4643 Y20.0431
G01 X60.3598 Y20.1840
G01 X60.2420 Y20.3140
G01 X60.1120 Y20.4318
G01 X59.9711 Y20.5363
G01 X59.8206 Y20.6265
G01 X59.6620 Y20.7015
G01 X59.4969 Y20.7606
G01 X59.3267 Y20.8032
G01 X59.1532 Y20.8290
G01 X58.9780 Y20.8376
G01 X32.6735 Y20.8376
G00 X32.6735 Y20.8376
G01 F30.00
G01 Z-1.8000
G01 F60.00
G01 X58.9780 Y20.8376
G01 X59.1532 Y20.8290
G01 X59.3267 Y20.8032
G01 X59.4969 Y20.7606
G01 X59.6620 Y20.7015
G01 X59.8206 Y20.6265
G01 X59.9711 Y20.5363
G01 X60.1120 Y20.4318
G01 X60.2420 Y20.3140
G01 X60.3598 Y20.1840
G01 X60.4643 Y20.0431
G01 X60.5544 Y19.8927
G01 X60.6294 Y19.7341
G01 X60.6885 Y19.5689
G01 X60.7312 Y19.3988
G01 X60.7569 Y19.2253
G01 X60.7655 Y19.0501
G01 X60.7655 Y12.7435
G00 Z2.0000
G00 X60.7655 Y7.5685
G01 F30.00
G01 Z-0.2000
G01 F60.00
G01 X60.7655 Y0.8619
G01 X60.7569 Y0.6867
G01 X60.7312 Y0.5132
G01 X60.6885 Y0.3431
G01 X60.6294 Y0.1779
G01 X60.5544 Y0.0193
G01 X60.4643 Y-0.1311
G01 X60.3598 Y-0.2720
G01 X60.2420 Y-0.4020
G01 X60.1120 Y-0.5198
G01 X59.9711 Y-0.6243
G01 X59.8206 Y-0.7145
G01 X59.6620 Y-0.7895
G01 X59.4969 Y-0.8486
G01 X59.3267 Y-0.8912
G01 X59.1532 Y-0.9170
G01 X58.9780 Y-0.9256
G01 X32.6735 Y-0.9256
G00 X32.6735 Y-0.9256
G01 F30.00
G01 Z-0.4000
G01 F60.00
G01 X58.9780 Y-0.9256
G01 X59.1532 Y-0.9170
G01 X59.3267 Y-0.8912
G01 X59.4969 Y-0.8486
G01 X59.6620 Y-0.7895
G01 X59.8206 Y-0.7145
G01 X59.9711 Y-0.6243
G01 X60.1120 Y-0.5198
G01 X60.2420 Y-0.4020
G01 X60.3598 Y-0.2720
G01 X60.4643 Y-0.1311
G01 X60.5544 Y0.0193
G01 X60.6294 Y0.1779
G01 X60.6885 Y0.3431
G01 X60.7312 Y0.5132
G01 X60.7569 Y0.6867
G01 X60.7655 Y0.8619
G01 X60.7655 Y7.5685
G00 X60.7655 Y7.5685
G01 F30.00
G01 Z-0.6000
G01 F60.00
G01 X60.7655 Y0.8619
G01 X60.7569 Y0.6867
G01 X60.7312 Y0.5132
G01 X60.6885 Y0.3431
G01 X60.6294 Y0.1779
G01 X60.5544 Y0.0193
G01 X60.4643 Y-0.1311
G01 X60.3598 Y-0.2720
G01 X60.2420 Y-0.4020
G01 X60.1120 Y-0.5198
G01 X59.9711 Y-0.6243
G01 X59.8206 Y-0.7145
G01 X59.6620 Y-0.7895
G01 X59.4969 Y-0.8486
G01 X59.3267 Y-0.8912
G01 X59.1532 Y-0.9170
G01 X58.9780 Y-0.9256
G01 X32.6735 Y-0.9256
G00 X32.6735 Y-0.9256
G01 F30.00
G01 Z-0.8000
G01 F60.00
G01 X58.9780 Y-0.9256
G01 X59.1532 Y-0.9170
G01 X59.3267 Y-0.8912
G01 X59.4969 Y-0.8486
G01 X59.6620 Y-0.7895
G01 X59.8206 Y-0.7145
G01 X59.9711 Y-0.6243
G01 X60.1120 Y-0.5198
G01 X60.2420 Y-0.4020
G01 X60.3598 Y-0.2720
G01 X60.4643 Y-0.1311
G01 X60.5544 Y0.0193
G01 X60.6294 Y0.1779
G01 X60.6885 Y0.3431
G01 X60.7312 Y0.5132
G01 X60.7569 Y0.6867
G01 X60.7655 Y0.8619
G01 X60.7655 Y7.5685
G00 X60.7655 Y7.5685
G01 F30.00
G01 Z-1.0000
G01 F60.00
G01 X60.7655 Y0.8619
G01 X60.7569 Y0.6867
G01 X60.7312 Y0.5132
G01 X60.6885 Y0.3431
G01 X60.6294 Y0.1779
G01 X60.5544 Y0.0193
G01 X60.4643 Y-0.1311
G01 X60.3598 Y-0.2720
G01 X60.2420 Y-0.4020
G01 X60.1120 Y-0.5198
G01 X59.9711 Y-0.6243
G01 X59.8206 Y-0.7145
G01 X59.6620 Y-0.7895
G01 X59.4969 Y-0.8486
G01 X59.3267 Y-0.8912
G01 X59.1532 Y-0.9170
G01 X58.9780 Y-0.9256
G01 X32.6735 Y-0.9256
G00 X32.6735 Y-0.9256
G01 F30.00
G01 Z-1.2000
G01 F60.00
G01 X58.9780 Y-0.9256
G01 X59.1532 Y-0.9170
G01 X59.3267 Y-0.8912
G01 X59.4969 Y-0.8486
G01 X59.6620 Y-0.7895
G01 X59.8206 Y-0.7145
G01 X59.9711 Y-0.6243
G01 X60.1120 Y-0.5198
G01 X60.2420 Y-0.4020
G01 X60.3598 Y-0.2720
G01 X60.4643 Y-0.1311
G01 X60.5544 Y0.0193
G01 X60.6294 Y0.1779
G01 X60.6885 Y0.3431
G01 X60.7312 Y0.5132
G01 X60.7569 Y0.6867
G01 X60.7655 Y0.8619
G01 X60.7655 Y7.5685
G00 X60.7655 Y7.5685
G01 F30.00
G01 Z-1.4000
G01 F60.00
G01 X60.7655 Y0.8619
G01 X60.7569 Y0.6867
G01 X60.7312 Y0.5132
G01 X60.6885 Y0.3431
G01 X60.6294 Y0.1779
G01 X60.5544 Y0.0193
G01 X60.4643 Y-0.1311
G01 X60.3598 Y-0.2720
G01 X60.2420 Y-0.4020
G01 X60.1120 Y-0.5198
G01 X59.9711 Y-0.6243
G01 X59.8206 Y-0.7145
G01 X59.6620 Y-0.7895
G01 X59.4969 Y-0.8486
G01 X59.3267 Y-0.8912
G01 X59.1532 Y-0.9170
G01 X58.9780 Y-0.9256
G01 X32.6735 Y-0.9256
G00 X32.6735 Y-0.9256
G01 F30.00
G01 Z-1.6000
G01 F60.00
G01 X58.9780 Y-0.9256
G01 X59.1532 Y-0.9170
G01 X59.3267 Y-0.8912
G01 X59.4969 Y-0.8486
G01 X59.6620 Y-0.7895
G01 X59.8206 Y-0.7145
G01 X59.9711 Y-0.6243
G01 X60.1120 Y-0.5198
G01 X60.2420 Y-0.4020
G01 X60.3598 Y-0.2720
G01 X60.4643 Y-0.1311
G01 X60.5544 Y0.0193
G01 X60.6294 Y0.1779
G01 X60.6885 Y0.3431
G01 X60.7312 Y0.5132
G01 X60.7569 Y0.6867
G01 X60.7655 Y0.8619
G01 X60.7655 Y7.5685
G00 X60.7655 Y7.5685
G01 F30.00
G01 Z-1.8000
G01 F60.00
G01 X60.7655 Y0.8619
G01 X60.7569 Y0.6867
G01 X60.7312 Y0.5132
G01 X60.6885 Y0.3431
G01 X60.6294 Y0.1779
G01 X60.5544 Y0.0193
G01 X60.4643 Y-0.1311
G01 X60.3598 Y-0.2720
G01 X60.2420 Y-0.4020
G01 X60.1120 Y-0.5198
G01 X59.9711 Y-0.6243
G01 X59.8206 Y-0.7145
G01 X59.6620 Y-0.7895
G01 X59.4969 Y-0.8486
G01 X59.3267 Y-0.8912
G01 X59.1532 Y-0.9170
G01 X58.9780 Y-0.9256
G01 X32.6735 Y-0.9256
G00 Z2.0000
M05
G00 Z2.0000
G00 Z15.00


