(G-CODE GENERATED BY FLATCAM v8.994 - www.flatcam.org - Version Date: 2020/11/7)

(Name: lora_digirepeater_micro-B_Cu.gbr_iso_combined_cnc)
(Type: G-code from Geometry)
(Units: MM)

(Created on Thursday, 09 March 2023 at 18:23)

(This preprocessor is the default preprocessor used by FlatCAM.)
(It is made to work with MACH3 compatible motion controllers.)

(TOOL DIAMETER: 0.1437 mm)
(Feedrate_XY: 60.0 mm/min)
(Feedrate_Z: 30.0 mm/min)
(Feedrate rapids 1500.0 mm/min)

(Z_Cut: -0.06 mm)
(Z_Move: 2.0 mm)
(Z Start: None mm)
(Z End: 15.0 mm)
(X,Y End: None mm)
(Steps per circle: 64)
(Preprocessor Geometry: default)

(X range:    0.7221 ...   59.0498  mm)
(Y range:    0.8781 ...   19.2099  mm)

(Spindle Speed: 10000.0 RPM)
G21
G90
G94

G01 F60.00

M5
G00 Z15.0000
G00 X0.0000 Y0.0000
T2
M6    
(MSG, Change to Tool Dia = 0.1437)
M0
G00 Z15.0000

M03 S10000.0
G01 F60.00
G00 X4.9135 Y2.3368
G01 F30.00
G01 Z-0.0600
G01 F60.00
G01 X4.9178 Y2.4240
G01 X4.9137 Y2.5095
G01 X4.9011 Y2.5941
G01 X4.8803 Y2.6771
G01 X4.8515 Y2.7576
G01 X4.8149 Y2.8350
G01 X4.7709 Y2.9084
G01 X4.7199 Y2.9771
G01 X4.6625 Y3.0405
G01 X4.5991 Y3.0979
G01 X4.5304 Y3.1489
G01 X4.4570 Y3.1929
G01 X4.3796 Y3.2295
G01 X4.2991 Y3.2583
G01 X4.2161 Y3.2791
G01 X4.1315 Y3.2917
G01 X4.0460 Y3.2958
G01 X3.9605 Y3.2917
G01 X3.8759 Y3.2791
G01 X3.7929 Y3.2583
G01 X3.7124 Y3.2295
G01 X3.6350 Y3.1929
G01 X3.5616 Y3.1489
G01 X3.4929 Y3.0979
G01 X3.4295 Y3.0405
G01 X3.3721 Y2.9771
G01 X3.3211 Y2.9084
G01 X3.2771 Y2.8350
G01 X3.2405 Y2.7576
G01 X3.2117 Y2.6771
G01 X3.1909 Y2.5941
G01 X3.1783 Y2.5095
G01 X3.1742 Y2.4240
G01 X3.1783 Y2.3385
G01 X3.1909 Y2.2539
G01 X3.2117 Y2.1709
G01 X3.2405 Y2.0904
G01 X3.2771 Y2.0130
G01 X3.3211 Y1.9396
G01 X3.3721 Y1.8709
G01 X3.4295 Y1.8075
G01 X3.4929 Y1.7501
G01 X3.5616 Y1.6991
G01 X3.6350 Y1.6551
G01 X3.7124 Y1.6185
G01 X3.7929 Y1.5897
G01 X3.8759 Y1.5689
G01 X3.9605 Y1.5563
G01 X4.0460 Y1.5522
G01 X4.1315 Y1.5563
G01 X4.2161 Y1.5689
G01 X4.2991 Y1.5897
G01 X4.3796 Y1.6185
G01 X4.4570 Y1.6551
G01 X4.5304 Y1.6991
G01 X4.5991 Y1.7501
G01 X4.6625 Y1.8075
G01 X4.7199 Y1.8709
G01 X4.7709 Y1.9396
G01 X4.8149 Y2.0130
G01 X4.8515 Y2.0904
G01 X4.8803 Y2.1709
G01 X4.9011 Y2.2539
G01 X4.9135 Y2.3368
G00 Z2.0000
G00 X6.2556 Y3.2308
G01 F30.00
G01 Z-0.0600
G01 F60.00
G01 X6.3329 Y3.2583
G01 X6.4159 Y3.2791
G01 X6.5005 Y3.2917
G01 X6.5860 Y3.2958
G01 X6.6715 Y3.2917
G01 X6.7561 Y3.2791
G01 X6.8391 Y3.2583
G01 X6.9164 Y3.2308
G01 X6.9271 Y3.2260
G01 X7.1750 Y3.4739
G01 X7.1601 Y3.5246
G01 X7.1215 Y3.5453
G01 X6.8876 Y3.6289
G01 X6.6467 Y3.6646
G01 X6.4035 Y3.6526
G01 X6.1674 Y3.5934
G01 X6.0102 Y3.5190
G01 X5.9970 Y3.4739
G01 X6.2449 Y3.2260
G01 X6.2556 Y3.2308
G00 Z2.0000
G00 X9.9932 Y2.3350
G01 F30.00
G01 Z-0.0600
G01 F60.00
G01 X9.9939 Y2.3421
G01 X9.9978 Y2.4240
G01 X9.9937 Y2.5095
G01 X9.9811 Y2.5941
G01 X9.9603 Y2.6771
G01 X9.9315 Y2.7576
G01 X9.8949 Y2.8350
G01 X9.8509 Y2.9084
G01 X9.7999 Y2.9771
G01 X9.7425 Y3.0405
G01 X9.6791 Y3.0979
G01 X9.6104 Y3.1489
G01 X9.5370 Y3.1929
G01 X9.4596 Y3.2295
G01 X9.3791 Y3.2583
G01 X9.2961 Y3.2791
G01 X9.2115 Y3.2917
G01 X9.1260 Y3.2958
G01 X9.0405 Y3.2917
G01 X8.9559 Y3.2791
G01 X8.8729 Y3.2583
G01 X8.7924 Y3.2295
G01 X8.7150 Y3.1929
G01 X8.6416 Y3.1489
G01 X8.5729 Y3.0979
G01 X8.5095 Y3.0405
G01 X8.4521 Y2.9771
G01 X8.4011 Y2.9084
G01 X8.3571 Y2.8350
G01 X8.3205 Y2.7576
G01 X8.2917 Y2.6771
G01 X8.2709 Y2.5941
G01 X8.2583 Y2.5095
G01 X8.2542 Y2.4240
G01 X8.2583 Y2.3385
G01 X8.2709 Y2.2539
G01 X8.2917 Y2.1709
G01 X8.3205 Y2.0904
G01 X8.3571 Y2.0130
G01 X8.4011 Y1.9396
G01 X8.4521 Y1.8709
G01 X8.5095 Y1.8075
G01 X8.5729 Y1.7501
G01 X8.6416 Y1.6991
G01 X8.7150 Y1.6551
G01 X8.7924 Y1.6185
G01 X8.8729 Y1.5897
G01 X8.9559 Y1.5689
G01 X9.0405 Y1.5563
G01 X9.1260 Y1.5522
G01 X9.2115 Y1.5563
G01 X9.2961 Y1.5689
G01 X9.3791 Y1.5897
G01 X9.4596 Y1.6185
G01 X9.5370 Y1.6551
G01 X9.6104 Y1.6991
G01 X9.6791 Y1.7501
G01 X9.7425 Y1.8075
G01 X9.7999 Y1.8709
G01 X9.8509 Y1.9396
G01 X9.8949 Y2.0130
G01 X9.9315 Y2.0904
G01 X9.9603 Y2.1709
G01 X9.9811 Y2.2539
G01 X9.9932 Y2.3350
G00 Z2.0000
G00 X11.1831 Y4.5723
G01 F30.00
G01 Z-0.0600
G01 F60.00
G01 X11.1939 Y4.5598
G01 X11.1940 Y3.1564
G01 X11.1787 Y3.1469
G01 X11.1157 Y3.1001
G01 X11.1102 Y3.0956
G01 X11.0495 Y3.0405
G01 X10.9921 Y2.9771
G01 X10.9411 Y2.9084
G01 X10.8988 Y2.8381
G01 X10.8955 Y2.8318
G01 X10.8605 Y2.7576
G01 X10.8328 Y2.6804
G01 X10.8308 Y2.6737
G01 X10.8109 Y2.5941
G01 X10.7983 Y2.5095
G01 X10.7942 Y2.4240
G01 X10.7981 Y2.3421
G01 X10.7988 Y2.3350
G01 X10.8113 Y2.2522
G01 X10.8317 Y2.1709
G01 X10.8605 Y2.0904
G01 X10.8971 Y2.0130
G01 X10.9411 Y1.9396
G01 X10.9921 Y1.8709
G01 X11.0495 Y1.8075
G01 X11.1129 Y1.7501
G01 X11.1816 Y1.6991
G01 X11.2550 Y1.6551
G01 X11.3324 Y1.6185
G01 X11.4129 Y1.5897
G01 X11.4959 Y1.5689
G01 X11.5805 Y1.5563
G01 X11.6660 Y1.5522
G01 X11.7515 Y1.5563
G01 X11.8378 Y1.5693
G01 X11.9191 Y1.5897
G01 X11.9964 Y1.6172
G01 X12.0029 Y1.6199
G01 X12.0738 Y1.6535
G01 X12.0801 Y1.6568
G01 X12.1504 Y1.6991
G01 X12.2191 Y1.7501
G01 X12.2825 Y1.8075
G01 X12.3376 Y1.8682
G01 X12.3421 Y1.8737
G01 X12.3889 Y1.9367
G01 X12.3928 Y1.9426
G01 X12.4349 Y2.0130
G01 X12.4715 Y2.0904
G01 X12.5003 Y2.1709
G01 X12.5203 Y2.2505
G01 X12.5217 Y2.2574
G01 X12.5338 Y2.3403
G01 X12.5378 Y2.4240
G01 X12.5339 Y2.5059
G01 X12.5332 Y2.5130
G01 X12.5211 Y2.5941
G01 X12.5012 Y2.6737
G01 X12.4992 Y2.6804
G01 X12.4715 Y2.7576
G01 X12.4365 Y2.8318
G01 X12.4332 Y2.8381
G01 X12.3928 Y2.9054
G01 X12.3889 Y2.9113
G01 X12.3399 Y2.9771
G01 X12.2849 Y3.0379
G01 X12.2799 Y3.0429
G01 X12.2191 Y3.0979
G01 X12.1518 Y3.1479
G01 X12.1381 Y3.1564
G01 X12.1380 Y4.5598
G01 X12.1489 Y4.5723
G01 X12.1810 Y4.6156
G01 X12.1849 Y4.6215
G01 X12.2144 Y4.6709
G01 X12.2391 Y4.7228
G01 X12.2418 Y4.7293
G01 X12.2611 Y4.7835
G01 X12.2759 Y4.8427
G01 X12.2849 Y4.9030
G01 X12.2878 Y4.9640
G01 X12.2849 Y5.0250
G01 X12.2759 Y5.0853
G01 X12.2611 Y5.1445
G01 X12.2418 Y5.1987
G01 X12.2391 Y5.2052
G01 X12.2160 Y5.2540
G01 X12.2127 Y5.2602
G01 X12.1830 Y5.3095
G01 X12.1467 Y5.3585
G01 X12.1057 Y5.4037
G01 X12.0605 Y5.4447
G01 X12.0115 Y5.4810
G01 X11.9591 Y5.5124
G01 X11.9040 Y5.5385
G01 X11.8465 Y5.5591
G01 X11.7873 Y5.5739
G01 X11.7270 Y5.5829
G01 X11.6660 Y5.5858
G01 X11.6050 Y5.5829
G01 X11.5447 Y5.5739
G01 X11.4855 Y5.5591
G01 X11.4280 Y5.5385
G01 X11.3729 Y5.5124
G01 X11.3205 Y5.4810
G01 X11.2715 Y5.4447
G01 X11.2263 Y5.4037
G01 X11.1853 Y5.3585
G01 X11.1490 Y5.3095
G01 X11.1176 Y5.2571
G01 X11.0915 Y5.2020
G01 X11.0709 Y5.1445
G01 X11.0561 Y5.0853
G01 X11.0471 Y5.0250
G01 X11.0442 Y4.9640
G01 X11.0471 Y4.9030
G01 X11.0561 Y4.8427
G01 X11.0709 Y4.7835
G01 X11.0915 Y4.7260
G01 X11.1176 Y4.6709
G01 X11.1490 Y4.6185
G01 X11.1831 Y4.5723
G00 Z2.0000
G00 X13.7360 Y6.0228
G01 F30.00
G01 Z-0.0600
G01 F60.00
G01 X13.7340 Y5.9800
G01 X13.7340 Y3.1564
G01 X13.7202 Y3.1479
G01 X13.6529 Y3.0979
G01 X13.5921 Y3.0429
G01 X13.5871 Y3.0379
G01 X13.5321 Y2.9771
G01 X13.4831 Y2.9113
G01 X13.4792 Y2.9054
G01 X13.4388 Y2.8381
G01 X13.4355 Y2.8318
G01 X13.4005 Y2.7576
G01 X13.3728 Y2.6804
G01 X13.3708 Y2.6737
G01 X13.3509 Y2.5941
G01 X13.3383 Y2.5095
G01 X13.3342 Y2.4275
G01 X13.3342 Y2.4205
G01 X13.3385 Y2.3368
G01 X13.3509 Y2.2539
G01 X13.3717 Y2.1709
G01 X13.4005 Y2.0904
G01 X13.4371 Y2.0130
G01 X13.4811 Y1.9396
G01 X13.5321 Y1.8709
G01 X13.5895 Y1.8075
G01 X13.6529 Y1.7501
G01 X13.7216 Y1.6991
G01 X13.7950 Y1.6551
G01 X13.8724 Y1.6185
G01 X13.9529 Y1.5897
G01 X14.0359 Y1.5689
G01 X14.1205 Y1.5563
G01 X14.2060 Y1.5522
G01 X14.2932 Y1.5565
G01 X14.3761 Y1.5689
G01 X14.4591 Y1.5897
G01 X14.5396 Y1.6185
G01 X14.6138 Y1.6535
G01 X14.6201 Y1.6568
G01 X14.6874 Y1.6972
G01 X14.6933 Y1.7011
G01 X14.7591 Y1.7501
G01 X14.8225 Y1.8075
G01 X14.8799 Y1.8709
G01 X14.9289 Y1.9367
G01 X14.9328 Y1.9426
G01 X14.9732 Y2.0099
G01 X14.9765 Y2.0162
G01 X15.0115 Y2.0904
G01 X15.0403 Y2.1709
G01 X15.0611 Y2.2539
G01 X15.0737 Y2.3385
G01 X15.0778 Y2.4205
G01 X15.0778 Y2.4275
G01 X15.0737 Y2.5095
G01 X15.0611 Y2.5941
G01 X15.0412 Y2.6737
G01 X15.0392 Y2.6804
G01 X15.0115 Y2.7576
G01 X14.9765 Y2.8318
G01 X14.9732 Y2.8381
G01 X14.9328 Y2.9054
G01 X14.9289 Y2.9113
G01 X14.8799 Y2.9771
G01 X14.8249 Y3.0379
G01 X14.8199 Y3.0429
G01 X14.7591 Y3.0979
G01 X14.6918 Y3.1479
G01 X14.6781 Y3.1564
G01 X14.6780 Y5.7845
G01 X18.8260 Y9.9324
G01 X18.8407 Y9.9333
G01 X18.8976 Y9.9418
G01 X18.9568 Y9.9564
G01 X19.0160 Y9.9775
G01 X19.0696 Y10.0028
G01 X19.1235 Y10.0350
G01 X19.1725 Y10.0713
G01 X19.2177 Y10.1123
G01 X19.2564 Y10.1548
G01 X19.2609 Y10.1603
G01 X19.2930 Y10.2036
G01 X19.2969 Y10.2095
G01 X19.3264 Y10.2589
G01 X19.3511 Y10.3108
G01 X19.3538 Y10.3173
G01 X19.3731 Y10.3715
G01 X19.3879 Y10.4307
G01 X19.3969 Y10.4910
G01 X19.3998 Y10.5520
G01 X19.3969 Y10.6130
G01 X19.3879 Y10.6733
G01 X19.3731 Y10.7325
G01 X19.3538 Y10.7867
G01 X19.3511 Y10.7932
G01 X19.3280 Y10.8420
G01 X19.3247 Y10.8482
G01 X19.2950 Y10.8975
G01 X19.2609 Y10.9437
G01 X19.2564 Y10.9492
G01 X19.2177 Y10.9917
G01 X19.1725 Y11.0327
G01 X19.1235 Y11.0690
G01 X19.0711 Y11.1004
G01 X19.0160 Y11.1265
G01 X18.9585 Y11.1471
G01 X18.8993 Y11.1619
G01 X18.8390 Y11.1709
G01 X18.7780 Y11.1738
G01 X18.7170 Y11.1709
G01 X18.6567 Y11.1619
G01 X18.5975 Y11.1471
G01 X18.5400 Y11.1265
G01 X18.4849 Y11.1004
G01 X18.4325 Y11.0690
G01 X18.3863 Y11.0349
G01 X18.3808 Y11.0304
G01 X18.3383 Y10.9917
G01 X18.2973 Y10.9465
G01 X18.2610 Y10.8975
G01 X18.2288 Y10.8436
G01 X18.2035 Y10.7900
G01 X18.1824 Y10.7308
G01 X18.1678 Y10.6716
G01 X18.1593 Y10.6147
G01 X18.1584 Y10.6000
G01 X13.8710 Y6.3125
G01 X13.8411 Y6.2795
G01 X13.8135 Y6.2423
G01 X13.7897 Y6.2025
G01 X13.7713 Y6.1639
G01 X13.7686 Y6.1574
G01 X13.7543 Y6.1170
G01 X13.7438 Y6.0755
G01 X13.7424 Y6.0686
G01 X13.7367 Y6.0298
G01 X13.7360 Y6.0228
G00 Z2.0000
G00 X15.3967 Y2.9239
G01 F30.00
G01 Z-0.0600
G01 F60.00
G01 X15.4032 Y2.9212
G01 X15.4183 Y2.9159
G01 X15.4338 Y2.9119
G01 X15.4407 Y2.9105
G01 X15.4565 Y2.9083
G01 X15.4742 Y2.9073
G01 X15.4972 Y2.9085
G01 X15.5148 Y2.9111
G01 X15.5303 Y2.9150
G01 X15.5371 Y2.9170
G01 X15.5521 Y2.9225
G01 X15.5666 Y2.9292
G01 X15.5728 Y2.9326
G01 X15.5865 Y2.9409
G01 X15.6008 Y2.9514
G01 X15.6141 Y2.9632
G01 X15.6191 Y2.9681
G01 X15.6298 Y2.9801
G01 X15.6404 Y2.9943
G01 X15.7859 Y3.2120
G01 X15.9580 Y3.3841
G01 X16.1605 Y3.5194
G01 X16.3854 Y3.6126
G01 X16.6243 Y3.6601
G01 X16.8677 Y3.6601
G01 X17.1066 Y3.6126
G01 X17.3315 Y3.5194
G01 X17.5340 Y3.3841
G01 X17.7061 Y3.2120
G01 X17.8516 Y2.9943
G01 X17.8634 Y2.9787
G01 X17.8779 Y2.9632
G01 X17.8898 Y2.9525
G01 X17.9055 Y2.9409
G01 X17.9222 Y2.9308
G01 X17.9367 Y2.9239
G01 X17.9432 Y2.9212
G01 X17.9617 Y2.9150
G01 X17.9772 Y2.9111
G01 X17.9965 Y2.9083
G01 X18.0160 Y2.9073
G01 X18.0355 Y2.9083
G01 X18.0548 Y2.9111
G01 X18.0737 Y2.9159
G01 X18.0921 Y2.9225
G01 X18.1098 Y2.9308
G01 X18.1265 Y2.9409
G01 X18.1435 Y2.9536
G01 X18.1567 Y2.9656
G01 X18.1675 Y2.9774
G01 X18.1804 Y2.9943
G01 X18.3259 Y3.2120
G01 X18.4980 Y3.3841
G01 X18.7005 Y3.5194
G01 X18.9254 Y3.6126
G01 X19.1643 Y3.6601
G01 X19.4077 Y3.6601
G01 X19.6466 Y3.6126
G01 X19.8715 Y3.5194
G01 X20.0740 Y3.3841
G01 X20.2461 Y3.2120
G01 X20.3906 Y2.9957
G01 X20.4022 Y2.9801
G01 X20.4141 Y2.9669
G01 X20.4271 Y2.9548
G01 X20.4326 Y2.9503
G01 X20.4455 Y2.9409
G01 X20.4622 Y2.9308
G01 X20.4799 Y2.9225
G01 X20.4949 Y2.9170
G01 X20.5017 Y2.9150
G01 X20.5189 Y2.9108
G01 X20.5383 Y2.9081
G01 X20.5595 Y2.9074
G01 X20.5755 Y2.9083
G01 X20.5913 Y2.9105
G01 X20.6103 Y2.9150
G01 X20.6171 Y2.9170
G01 X20.6321 Y2.9225
G01 X20.6498 Y2.9308
G01 X20.6665 Y2.9409
G01 X20.6835 Y2.9536
G01 X20.6967 Y2.9656
G01 X20.7075 Y2.9774
G01 X20.7204 Y2.9943
G01 X20.8659 Y3.2120
G01 X21.0380 Y3.3841
G01 X21.2405 Y3.5194
G01 X21.4654 Y3.6126
G01 X21.7043 Y3.6601
G01 X21.9477 Y3.6601
G01 X22.1866 Y3.6126
G01 X22.4115 Y3.5194
G01 X22.6140 Y3.3841
G01 X22.7861 Y3.2120
G01 X22.9326 Y2.9928
G01 X22.9422 Y2.9801
G01 X22.9553 Y2.9656
G01 X22.9698 Y2.9525
G01 X22.9840 Y2.9418
G01 X22.9992 Y2.9326
G01 X23.0054 Y2.9292
G01 X23.0199 Y2.9225
G01 X23.0383 Y2.9159
G01 X23.0572 Y2.9111
G01 X23.0730 Y2.9087
G01 X23.0925 Y2.9074
G01 X23.0995 Y2.9074
G01 X23.1155 Y2.9083
G01 X23.1348 Y2.9111
G01 X23.1537 Y2.9159
G01 X23.1688 Y2.9212
G01 X23.1753 Y2.9239
G01 X23.1928 Y2.9326
G01 X23.2065 Y2.9409
G01 X23.2222 Y2.9525
G01 X23.2341 Y2.9632
G01 X23.2391 Y2.9681
G01 X23.2498 Y2.9801
G01 X23.2604 Y2.9943
G01 X23.4059 Y3.2120
G01 X23.4729 Y3.2790
G01 X23.4848 Y3.2922
G01 X23.4964 Y3.3079
G01 X23.5064 Y3.3246
G01 X23.5133 Y3.3391
G01 X23.5160 Y3.3456
G01 X23.5213 Y3.3607
G01 X23.5253 Y3.3762
G01 X23.5267 Y3.3831
G01 X23.5290 Y3.3989
G01 X23.5299 Y3.4166
G01 X23.5299 Y8.4458
G01 X23.5290 Y8.4635
G01 X23.5261 Y8.4828
G01 X23.5213 Y8.5018
G01 X23.5154 Y8.5185
G01 X23.5064 Y8.5378
G01 X23.4974 Y8.5531
G01 X23.4921 Y8.5609
G01 X23.4178 Y8.7404
G01 X23.3799 Y8.9309
G01 X23.3799 Y9.1251
G01 X23.4178 Y9.3156
G01 X23.4710 Y9.4442
G01 X23.4763 Y9.4593
G01 X23.4806 Y9.4765
G01 X23.4840 Y9.4993
G01 X23.4848 Y9.5170
G01 X23.4839 Y9.5365
G01 X23.4810 Y9.5558
G01 X23.4763 Y9.5747
G01 X23.4697 Y9.5931
G01 X23.4613 Y9.6108
G01 X23.4513 Y9.6275
G01 X23.4397 Y9.6432
G01 X23.4266 Y9.6577
G01 X23.4121 Y9.6708
G01 X23.3964 Y9.6824
G01 X23.3828 Y9.6907
G01 X23.3765 Y9.6940
G01 X23.3620 Y9.7008
G01 X23.3470 Y9.7062
G01 X23.3282 Y9.7113
G01 X23.3072 Y9.7148
G01 X23.2894 Y9.7158
G01 X21.3688 Y9.7159
G01 X21.3511 Y9.7151
G01 X21.3180 Y9.7119
G01 X21.1541 Y9.7280
G01 X20.9965 Y9.7758
G01 X20.8512 Y9.8535
G01 X20.7239 Y9.9579
G01 X20.7028 Y9.9836
G01 X20.6909 Y9.9967
G01 X20.1037 Y10.5839
G01 X20.0892 Y10.5971
G01 X20.0735 Y10.6087
G01 X20.0568 Y10.6187
G01 X20.0423 Y10.6256
G01 X20.0241 Y10.6325
G01 X20.0173 Y10.6346
G01 X20.0018 Y10.6384
G01 X19.9825 Y10.6412
G01 X19.9630 Y10.6422
G01 X19.9470 Y10.6415
G01 X19.9400 Y10.6408
G01 X19.9208 Y10.6376
G01 X19.9053 Y10.6336
G01 X19.8869 Y10.6271
G01 X19.8692 Y10.6187
G01 X19.8555 Y10.6106
G01 X19.8496 Y10.6066
G01 X19.8368 Y10.5971
G01 X19.8249 Y10.5864
G01 X19.8199 Y10.5814
G01 X19.8092 Y10.5695
G01 X19.7996 Y10.5567
G01 X19.7957 Y10.5508
G01 X19.7876 Y10.5371
G01 X19.7807 Y10.5226
G01 X19.7780 Y10.5161
G01 X19.7727 Y10.5010
G01 X19.7679 Y10.4821
G01 X19.7652 Y10.4645
G01 X19.7647 Y10.4581
G01 X19.7262 Y10.2644
G01 X19.6519 Y10.0849
G01 X19.5439 Y9.9234
G01 X19.4066 Y9.7861
G01 X19.2451 Y9.6781
G01 X19.0656 Y9.6038
G01 X19.0564 Y9.6020
G01 X19.0392 Y9.5976
G01 X19.0192 Y9.5903
G01 X19.0032 Y9.5827
G01 X18.9864 Y9.5726
G01 X18.9707 Y9.5610
G01 X18.9575 Y9.5491
G01 X15.1003 Y5.6919
G01 X15.0895 Y5.6801
G01 X15.0851 Y5.6747
G01 X15.0756 Y5.6618
G01 X15.0664 Y5.6466
G01 X15.0572 Y5.6274
G01 X15.0518 Y5.6124
G01 X15.0497 Y5.6056
G01 X15.0459 Y5.5901
G01 X15.0435 Y5.5743
G01 X15.0428 Y5.5673
G01 X15.0421 Y5.5513
G01 X15.0421 Y3.4184
G01 X15.0432 Y3.3971
G01 X15.0459 Y3.3796
G01 X15.0497 Y3.3641
G01 X15.0518 Y3.3573
G01 X15.0572 Y3.3423
G01 X15.0640 Y3.3278
G01 X15.0673 Y3.3216
G01 X15.0756 Y3.3079
G01 X15.0851 Y3.2950
G01 X15.0895 Y3.2895
G01 X15.1003 Y3.2777
G01 X15.1661 Y3.2120
G01 X15.3106 Y2.9957
G01 X15.3222 Y2.9801
G01 X15.3353 Y2.9656
G01 X15.3471 Y2.9548
G01 X15.3526 Y2.9503
G01 X15.3685 Y2.9390
G01 X15.3822 Y2.9308
G01 X15.3967 Y2.9239
G00 Z2.0000
G00 X17.6132 Y2.3350
G01 F30.00
G01 Z-0.0600
G01 F60.00
G01 X17.6139 Y2.3421
G01 X17.6178 Y2.4240
G01 X17.6137 Y2.5095
G01 X17.6011 Y2.5941
G01 X17.5803 Y2.6771
G01 X17.5515 Y2.7576
G01 X17.5149 Y2.8350
G01 X17.4709 Y2.9084
G01 X17.4199 Y2.9771
G01 X17.3625 Y3.0405
G01 X17.2991 Y3.0979
G01 X17.2304 Y3.1489
G01 X17.1570 Y3.1929
G01 X17.0796 Y3.2295
G01 X16.9991 Y3.2583
G01 X16.9161 Y3.2791
G01 X16.8315 Y3.2917
G01 X16.7460 Y3.2958
G01 X16.6605 Y3.2917
G01 X16.5759 Y3.2791
G01 X16.4929 Y3.2583
G01 X16.4124 Y3.2295
G01 X16.3350 Y3.1929
G01 X16.2616 Y3.1489
G01 X16.1929 Y3.0979
G01 X16.1295 Y3.0405
G01 X16.0721 Y2.9771
G01 X16.0211 Y2.9084
G01 X15.9771 Y2.8350
G01 X15.9405 Y2.7576
G01 X15.9117 Y2.6771
G01 X15.8909 Y2.5941
G01 X15.8783 Y2.5095
G01 X15.8742 Y2.4240
G01 X15.8783 Y2.3385
G01 X15.8909 Y2.2539
G01 X15.9117 Y2.1709
G01 X15.9405 Y2.0904
G01 X15.9771 Y2.0130
G01 X16.0211 Y1.9396
G01 X16.0721 Y1.8709
G01 X16.1295 Y1.8075
G01 X16.1929 Y1.7501
G01 X16.2616 Y1.6991
G01 X16.3350 Y1.6551
G01 X16.4124 Y1.6185
G01 X16.4929 Y1.5897
G01 X16.5759 Y1.5689
G01 X16.6605 Y1.5563
G01 X16.7460 Y1.5522
G01 X16.8315 Y1.5563
G01 X16.9161 Y1.5689
G01 X16.9991 Y1.5897
G01 X17.0796 Y1.6185
G01 X17.1570 Y1.6551
G01 X17.2304 Y1.6991
G01 X17.2991 Y1.7501
G01 X17.3625 Y1.8075
G01 X17.4199 Y1.8709
G01 X17.4709 Y1.9396
G01 X17.5149 Y2.0130
G01 X17.5515 Y2.0904
G01 X17.5803 Y2.1709
G01 X17.6011 Y2.2539
G01 X17.6132 Y2.3350
G00 Z2.0000
G00 X19.0346 Y3.2588
G01 F30.00
G01 Z-0.0600
G01 F60.00
G01 X18.9524 Y3.2295
G01 X18.8750 Y3.1929
G01 X18.8016 Y3.1489
G01 X18.7329 Y3.0979
G01 X18.6695 Y3.0405
G01 X18.6121 Y2.9771
G01 X18.5611 Y2.9084
G01 X18.5171 Y2.8350
G01 X18.4805 Y2.7576
G01 X18.4517 Y2.6771
G01 X18.4309 Y2.5941
G01 X18.4183 Y2.5095
G01 X18.4142 Y2.4240
G01 X18.4183 Y2.3385
G01 X18.4309 Y2.2539
G01 X18.4517 Y2.1709
G01 X18.4805 Y2.0904
G01 X18.5171 Y2.0130
G01 X18.5611 Y1.9396
G01 X18.6121 Y1.8709
G01 X18.6695 Y1.8075
G01 X18.7329 Y1.7501
G01 X18.8016 Y1.6991
G01 X18.8750 Y1.6551
G01 X18.9524 Y1.6185
G01 X19.0329 Y1.5897
G01 X19.1159 Y1.5689
G01 X19.2005 Y1.5563
G01 X19.2860 Y1.5522
G01 X19.3715 Y1.5563
G01 X19.4561 Y1.5689
G01 X19.5391 Y1.5897
G01 X19.6196 Y1.6185
G01 X19.6970 Y1.6551
G01 X19.7704 Y1.6991
G01 X19.8391 Y1.7501
G01 X19.9025 Y1.8075
G01 X19.9599 Y1.8709
G01 X20.0109 Y1.9396
G01 X20.0549 Y2.0130
G01 X20.0915 Y2.0904
G01 X20.1203 Y2.1709
G01 X20.1411 Y2.2539
G01 X20.1537 Y2.3385
G01 X20.1578 Y2.4240
G01 X20.1537 Y2.5095
G01 X20.1411 Y2.5941
G01 X20.1203 Y2.6771
G01 X20.0915 Y2.7576
G01 X20.0549 Y2.8350
G01 X20.0109 Y2.9084
G01 X19.9599 Y2.9771
G01 X19.9025 Y3.0405
G01 X19.8391 Y3.0979
G01 X19.7704 Y3.1489
G01 X19.6970 Y3.1929
G01 X19.6196 Y3.2295
G01 X19.5391 Y3.2583
G01 X19.4561 Y3.2791
G01 X19.3715 Y3.2917
G01 X19.2860 Y3.2958
G01 X19.2005 Y3.2917
G01 X19.1159 Y3.2791
G01 X19.0346 Y3.2588
G00 Z2.0000
G00 X21.5763 Y3.2592
G01 F30.00
G01 Z-0.0600
G01 F60.00
G01 X21.5696 Y3.2572
G01 X21.4924 Y3.2295
G01 X21.4150 Y3.1929
G01 X21.3416 Y3.1489
G01 X21.2729 Y3.0979
G01 X21.2095 Y3.0405
G01 X21.1521 Y2.9771
G01 X21.1011 Y2.9084
G01 X21.0571 Y2.8350
G01 X21.0205 Y2.7576
G01 X20.9917 Y2.6771
G01 X20.9709 Y2.5941
G01 X20.9583 Y2.5095
G01 X20.9542 Y2.4240
G01 X20.9583 Y2.3385
G01 X20.9709 Y2.2539
G01 X20.9917 Y2.1709
G01 X21.0205 Y2.0904
G01 X21.0571 Y2.0130
G01 X21.1011 Y1.9396
G01 X21.1521 Y1.8709
G01 X21.2095 Y1.8075
G01 X21.2729 Y1.7501
G01 X21.3416 Y1.6991
G01 X21.4150 Y1.6551
G01 X21.4924 Y1.6185
G01 X21.5729 Y1.5897
G01 X21.6559 Y1.5689
G01 X21.7405 Y1.5563
G01 X21.8260 Y1.5522
G01 X21.9115 Y1.5563
G01 X21.9961 Y1.5689
G01 X22.0791 Y1.5897
G01 X22.1596 Y1.6185
G01 X22.2370 Y1.6551
G01 X22.3104 Y1.6991
G01 X22.3791 Y1.7501
G01 X22.4425 Y1.8075
G01 X22.4999 Y1.8709
G01 X22.5509 Y1.9396
G01 X22.5949 Y2.0130
G01 X22.6315 Y2.0904
G01 X22.6603 Y2.1709
G01 X22.6811 Y2.2539
G01 X22.6937 Y2.3385
G01 X22.6978 Y2.4240
G01 X22.6937 Y2.5095
G01 X22.6811 Y2.5941
G01 X22.6603 Y2.6771
G01 X22.6315 Y2.7576
G01 X22.5949 Y2.8350
G01 X22.5509 Y2.9084
G01 X22.4999 Y2.9771
G01 X22.4425 Y3.0405
G01 X22.3791 Y3.0979
G01 X22.3104 Y3.1489
G01 X22.2370 Y3.1929
G01 X22.1596 Y3.2295
G01 X22.0791 Y3.2583
G01 X21.9961 Y3.2791
G01 X21.9115 Y3.2917
G01 X21.8260 Y3.2958
G01 X21.7405 Y3.2917
G01 X21.6559 Y3.2791
G01 X21.5763 Y3.2592
G00 Z2.0000
G00 X23.8831 Y8.6363
G01 F30.00
G01 Z-0.0600
G01 F60.00
G01 X23.8939 Y8.6238
G01 X23.8940 Y3.1564
G01 X23.8802 Y3.1479
G01 X23.8129 Y3.0979
G01 X23.7521 Y3.0429
G01 X23.7471 Y3.0379
G01 X23.6921 Y2.9771
G01 X23.6431 Y2.9113
G01 X23.6392 Y2.9054
G01 X23.5988 Y2.8381
G01 X23.5955 Y2.8318
G01 X23.5605 Y2.7576
G01 X23.5328 Y2.6804
G01 X23.5308 Y2.6737
G01 X23.5109 Y2.5941
G01 X23.4988 Y2.5130
G01 X23.4981 Y2.5059
G01 X23.4942 Y2.4240
G01 X23.4982 Y2.3403
G01 X23.5109 Y2.2539
G01 X23.5317 Y2.1709
G01 X23.5605 Y2.0904
G01 X23.5971 Y2.0130
G01 X23.6411 Y1.9396
G01 X23.6921 Y1.8709
G01 X23.7495 Y1.8075
G01 X23.8129 Y1.7501
G01 X23.8816 Y1.6991
G01 X23.9550 Y1.6551
G01 X24.0324 Y1.6185
G01 X24.1129 Y1.5897
G01 X24.1959 Y1.5689
G01 X24.2805 Y1.5563
G01 X24.3660 Y1.5522
G01 X24.4497 Y1.5562
G01 X24.5361 Y1.5689
G01 X24.6157 Y1.5888
G01 X24.6224 Y1.5908
G01 X24.6964 Y1.6172
G01 X24.7029 Y1.6199
G01 X24.7770 Y1.6551
G01 X24.8504 Y1.6991
G01 X24.9191 Y1.7501
G01 X24.9825 Y1.8075
G01 X25.0399 Y1.8709
G01 X25.0909 Y1.9396
G01 X25.1349 Y2.0130
G01 X25.1701 Y2.0871
G01 X25.1728 Y2.0936
G01 X25.2003 Y2.1709
G01 X25.2203 Y2.2505
G01 X25.2217 Y2.2574
G01 X25.2332 Y2.3350
G01 X25.2339 Y2.3421
G01 X25.2378 Y2.4240
G01 X25.2339 Y2.5059
G01 X25.2332 Y2.5130
G01 X25.2211 Y2.5941
G01 X25.2012 Y2.6737
G01 X25.1992 Y2.6804
G01 X25.1715 Y2.7576
G01 X25.1365 Y2.8318
G01 X25.1332 Y2.8381
G01 X25.0928 Y2.9054
G01 X25.0889 Y2.9113
G01 X25.0399 Y2.9771
G01 X24.9849 Y3.0379
G01 X24.9799 Y3.0429
G01 X24.9191 Y3.0979
G01 X24.8518 Y3.1479
G01 X24.8381 Y3.1564
G01 X24.8380 Y8.6238
G01 X24.8489 Y8.6363
G01 X24.8810 Y8.6796
G01 X24.8849 Y8.6855
G01 X24.9144 Y8.7349
G01 X24.9391 Y8.7868
G01 X24.9418 Y8.7933
G01 X24.9611 Y8.8475
G01 X24.9759 Y8.9067
G01 X24.9849 Y8.9670
G01 X24.9878 Y9.0280
G01 X24.9849 Y9.0890
G01 X24.9759 Y9.1493
G01 X24.9611 Y9.2085
G01 X24.9418 Y9.2627
G01 X24.9391 Y9.2692
G01 X24.9160 Y9.3180
G01 X24.9127 Y9.3242
G01 X24.8830 Y9.3735
G01 X24.8467 Y9.4225
G01 X24.8057 Y9.4677
G01 X24.7605 Y9.5087
G01 X24.7115 Y9.5450
G01 X24.6591 Y9.5764
G01 X24.6040 Y9.6025
G01 X24.5465 Y9.6231
G01 X24.4873 Y9.6379
G01 X24.4270 Y9.6469
G01 X24.3660 Y9.6498
G01 X24.3050 Y9.6469
G01 X24.2447 Y9.6379
G01 X24.1855 Y9.6231
G01 X24.1280 Y9.6025
G01 X24.0729 Y9.5764
G01 X24.0205 Y9.5450
G01 X23.9715 Y9.5087
G01 X23.9263 Y9.4677
G01 X23.8853 Y9.4225
G01 X23.8490 Y9.3735
G01 X23.8176 Y9.3211
G01 X23.7915 Y9.2660
G01 X23.7709 Y9.2085
G01 X23.7561 Y9.1493
G01 X23.7471 Y9.0890
G01 X23.7442 Y9.0280
G01 X23.7471 Y8.9670
G01 X23.7561 Y8.9067
G01 X23.7709 Y8.8475
G01 X23.7915 Y8.7900
G01 X23.8176 Y8.7349
G01 X23.8490 Y8.6825
G01 X23.8831 Y8.6363
G00 Z2.0000
G00 X26.4242 Y8.6349
G01 F30.00
G01 Z-0.0600
G01 F60.00
G01 X26.4339 Y8.6238
G01 X26.4340 Y3.1564
G01 X26.4202 Y3.1479
G01 X26.3529 Y3.0979
G01 X26.2921 Y3.0429
G01 X26.2871 Y3.0379
G01 X26.2321 Y2.9771
G01 X26.1831 Y2.9113
G01 X26.1792 Y2.9054
G01 X26.1388 Y2.8381
G01 X26.1355 Y2.8318
G01 X26.1005 Y2.7576
G01 X26.0728 Y2.6804
G01 X26.0708 Y2.6737
G01 X26.0509 Y2.5941
G01 X26.0388 Y2.5130
G01 X26.0381 Y2.5059
G01 X26.0342 Y2.4240
G01 X26.0382 Y2.3403
G01 X26.0509 Y2.2539
G01 X26.0717 Y2.1709
G01 X26.1005 Y2.0904
G01 X26.1371 Y2.0130
G01 X26.1811 Y1.9396
G01 X26.2321 Y1.8709
G01 X26.2895 Y1.8075
G01 X26.3529 Y1.7501
G01 X26.4216 Y1.6991
G01 X26.4950 Y1.6551
G01 X26.5724 Y1.6185
G01 X26.6529 Y1.5897
G01 X26.7359 Y1.5689
G01 X26.8205 Y1.5563
G01 X26.9060 Y1.5522
G01 X26.9897 Y1.5562
G01 X27.0761 Y1.5689
G01 X27.1557 Y1.5888
G01 X27.1624 Y1.5908
G01 X27.2364 Y1.6172
G01 X27.2429 Y1.6199
G01 X27.3170 Y1.6551
G01 X27.3904 Y1.6991
G01 X27.4591 Y1.7501
G01 X27.5225 Y1.8075
G01 X27.5799 Y1.8709
G01 X27.6309 Y1.9396
G01 X27.6749 Y2.0130
G01 X27.7101 Y2.0871
G01 X27.7128 Y2.0936
G01 X27.7403 Y2.1709
G01 X27.7603 Y2.2505
G01 X27.7617 Y2.2574
G01 X27.7732 Y2.3350
G01 X27.7739 Y2.3421
G01 X27.7778 Y2.4240
G01 X27.7739 Y2.5059
G01 X27.7732 Y2.5130
G01 X27.7611 Y2.5941
G01 X27.7412 Y2.6737
G01 X27.7392 Y2.6804
G01 X27.7115 Y2.7576
G01 X27.6765 Y2.8318
G01 X27.6732 Y2.8381
G01 X27.6328 Y2.9054
G01 X27.6289 Y2.9113
G01 X27.5799 Y2.9771
G01 X27.5249 Y3.0379
G01 X27.5199 Y3.0429
G01 X27.4591 Y3.0979
G01 X27.3918 Y3.1479
G01 X27.3781 Y3.1564
G01 X27.3780 Y8.6238
G01 X27.3889 Y8.6363
G01 X27.4210 Y8.6796
G01 X27.4249 Y8.6855
G01 X27.4544 Y8.7349
G01 X27.4791 Y8.7868
G01 X27.4818 Y8.7933
G01 X27.5011 Y8.8475
G01 X27.5159 Y8.9067
G01 X27.5249 Y8.9670
G01 X27.5278 Y9.0280
G01 X27.5249 Y9.0890
G01 X27.5159 Y9.1493
G01 X27.5011 Y9.2085
G01 X27.4818 Y9.2627
G01 X27.4791 Y9.2692
G01 X27.4560 Y9.3180
G01 X27.4527 Y9.3242
G01 X27.4230 Y9.3735
G01 X27.3867 Y9.4225
G01 X27.3457 Y9.4677
G01 X27.3005 Y9.5087
G01 X27.2515 Y9.5450
G01 X27.1991 Y9.5764
G01 X27.1440 Y9.6025
G01 X27.0865 Y9.6231
G01 X27.0273 Y9.6379
G01 X26.9670 Y9.6469
G01 X26.9060 Y9.6498
G01 X26.8450 Y9.6469
G01 X26.7847 Y9.6379
G01 X26.7255 Y9.6231
G01 X26.6680 Y9.6025
G01 X26.6129 Y9.5764
G01 X26.5605 Y9.5450
G01 X26.5115 Y9.5087
G01 X26.4663 Y9.4677
G01 X26.4253 Y9.4225
G01 X26.3890 Y9.3735
G01 X26.3576 Y9.3211
G01 X26.3315 Y9.2660
G01 X26.3109 Y9.2085
G01 X26.2961 Y9.1493
G01 X26.2871 Y9.0890
G01 X26.2842 Y9.0280
G01 X26.2871 Y8.9670
G01 X26.2961 Y8.9067
G01 X26.3109 Y8.8475
G01 X26.3315 Y8.7900
G01 X26.3576 Y8.7349
G01 X26.3890 Y8.6825
G01 X26.4242 Y8.6349
G00 Z2.0000
G00 X28.9631 Y8.6363
G01 F30.00
G01 Z-0.0600
G01 F60.00
G01 X28.9739 Y8.6238
G01 X28.9740 Y3.1564
G01 X28.9602 Y3.1479
G01 X28.8929 Y3.0979
G01 X28.8321 Y3.0429
G01 X28.8271 Y3.0379
G01 X28.7721 Y2.9771
G01 X28.7231 Y2.9113
G01 X28.7192 Y2.9054
G01 X28.6788 Y2.8381
G01 X28.6755 Y2.8318
G01 X28.6405 Y2.7576
G01 X28.6128 Y2.6804
G01 X28.6108 Y2.6737
G01 X28.5909 Y2.5941
G01 X28.5788 Y2.5130
G01 X28.5781 Y2.5059
G01 X28.5742 Y2.4240
G01 X28.5782 Y2.3403
G01 X28.5909 Y2.2539
G01 X28.6117 Y2.1709
G01 X28.6405 Y2.0904
G01 X28.6771 Y2.0130
G01 X28.7211 Y1.9396
G01 X28.7721 Y1.8709
G01 X28.8295 Y1.8075
G01 X28.8929 Y1.7501
G01 X28.9616 Y1.6991
G01 X29.0350 Y1.6551
G01 X29.1124 Y1.6185
G01 X29.1929 Y1.5897
G01 X29.2759 Y1.5689
G01 X29.3605 Y1.5563
G01 X29.4460 Y1.5522
G01 X29.5297 Y1.5562
G01 X29.6161 Y1.5689
G01 X29.6957 Y1.5888
G01 X29.7024 Y1.5908
G01 X29.7764 Y1.6172
G01 X29.7829 Y1.6199
G01 X29.8570 Y1.6551
G01 X29.9304 Y1.6991
G01 X29.9991 Y1.7501
G01 X30.0625 Y1.8075
G01 X30.1199 Y1.8709
G01 X30.1709 Y1.9396
G01 X30.2149 Y2.0130
G01 X30.2501 Y2.0871
G01 X30.2528 Y2.0936
G01 X30.2803 Y2.1709
G01 X30.3003 Y2.2505
G01 X30.3017 Y2.2574
G01 X30.3132 Y2.3350
G01 X30.3139 Y2.3421
G01 X30.3178 Y2.4240
G01 X30.3139 Y2.5059
G01 X30.3132 Y2.5130
G01 X30.3011 Y2.5941
G01 X30.2812 Y2.6737
G01 X30.2792 Y2.6804
G01 X30.2515 Y2.7576
G01 X30.2165 Y2.8318
G01 X30.2132 Y2.8381
G01 X30.1728 Y2.9054
G01 X30.1689 Y2.9113
G01 X30.1199 Y2.9771
G01 X30.0649 Y3.0379
G01 X30.0599 Y3.0429
G01 X29.9991 Y3.0979
G01 X29.9318 Y3.1479
G01 X29.9181 Y3.1564
G01 X29.9180 Y8.6238
G01 X29.9289 Y8.6363
G01 X29.9610 Y8.6796
G01 X29.9649 Y8.6855
G01 X29.9944 Y8.7349
G01 X30.0191 Y8.7868
G01 X30.0218 Y8.7933
G01 X30.0411 Y8.8475
G01 X30.0559 Y8.9067
G01 X30.0649 Y8.9670
G01 X30.0678 Y9.0280
G01 X30.0649 Y9.0890
G01 X30.0559 Y9.1493
G01 X30.0411 Y9.2085
G01 X30.0218 Y9.2627
G01 X30.0191 Y9.2692
G01 X29.9960 Y9.3180
G01 X29.9927 Y9.3242
G01 X29.9630 Y9.3735
G01 X29.9267 Y9.4225
G01 X29.8857 Y9.4677
G01 X29.8405 Y9.5087
G01 X29.7915 Y9.5450
G01 X29.7391 Y9.5764
G01 X29.6840 Y9.6025
G01 X29.6265 Y9.6231
G01 X29.5673 Y9.6379
G01 X29.5070 Y9.6469
G01 X29.4460 Y9.6498
G01 X29.3850 Y9.6469
G01 X29.3247 Y9.6379
G01 X29.2655 Y9.6231
G01 X29.2080 Y9.6025
G01 X29.1529 Y9.5764
G01 X29.1005 Y9.5450
G01 X29.0515 Y9.5087
G01 X29.0063 Y9.4677
G01 X28.9653 Y9.4225
G01 X28.9290 Y9.3735
G01 X28.8976 Y9.3211
G01 X28.8715 Y9.2660
G01 X28.8509 Y9.2085
G01 X28.8361 Y9.1493
G01 X28.8271 Y9.0890
G01 X28.8242 Y9.0280
G01 X28.8271 Y8.9670
G01 X28.8361 Y8.9067
G01 X28.8509 Y8.8475
G01 X28.8715 Y8.7900
G01 X28.8976 Y8.7349
G01 X28.9290 Y8.6825
G01 X28.9631 Y8.6363
G00 Z2.0000
G00 X30.3880 Y9.6601
G01 F30.00
G01 Z-0.0600
G01 F60.00
G01 X30.3830 Y9.6551
G01 X30.3723 Y9.6432
G01 X30.3607 Y9.6275
G01 X30.3507 Y9.6108
G01 X30.3417 Y9.5915
G01 X30.3352 Y9.5730
G01 X30.3304 Y9.5523
G01 X30.3281 Y9.5365
G01 X30.3273 Y9.5205
G01 X30.3279 Y9.5010
G01 X30.3286 Y9.4940
G01 X30.3310 Y9.4782
G01 X30.3348 Y9.4627
G01 X30.3368 Y9.4559
G01 X30.3423 Y9.4409
G01 X30.3942 Y9.3156
G01 X30.4321 Y9.1251
G01 X30.4321 Y8.9309
G01 X30.3942 Y8.7404
G01 X30.3199 Y8.5609
G01 X30.3146 Y8.5531
G01 X30.3056 Y8.5378
G01 X30.2966 Y8.5185
G01 X30.2907 Y8.5018
G01 X30.2859 Y8.4828
G01 X30.2830 Y8.4635
G01 X30.2821 Y8.4458
G01 X30.2821 Y3.4184
G01 X30.2830 Y3.3989
G01 X30.2863 Y3.3779
G01 X30.2907 Y3.3607
G01 X30.2972 Y3.3423
G01 X30.3056 Y3.3246
G01 X30.3166 Y3.3064
G01 X30.3272 Y3.2922
G01 X30.3391 Y3.2790
G01 X30.4061 Y3.2120
G01 X30.5506 Y2.9957
G01 X30.5634 Y2.9787
G01 X30.5753 Y2.9656
G01 X30.5898 Y2.9525
G01 X30.6055 Y2.9409
G01 X30.6222 Y2.9308
G01 X30.6399 Y2.9225
G01 X30.6583 Y2.9159
G01 X30.6772 Y2.9111
G01 X30.6983 Y2.9081
G01 X30.7160 Y2.9073
G01 X30.7355 Y2.9083
G01 X30.7548 Y2.9111
G01 X30.7737 Y2.9159
G01 X30.7921 Y2.9225
G01 X30.8098 Y2.9308
G01 X30.8265 Y2.9409
G01 X30.8435 Y2.9536
G01 X30.8567 Y2.9656
G01 X30.8675 Y2.9774
G01 X30.8804 Y2.9943
G01 X31.0259 Y3.2120
G01 X31.1980 Y3.3841
G01 X31.4005 Y3.5194
G01 X31.6254 Y3.6126
G01 X31.8643 Y3.6601
G01 X32.1077 Y3.6601
G01 X32.3466 Y3.6126
G01 X32.5715 Y3.5194
G01 X32.7740 Y3.3841
G01 X32.9461 Y3.2120
G01 X33.0814 Y3.0095
G01 X33.1746 Y2.7846
G01 X33.2221 Y2.5457
G01 X33.2221 Y2.3023
G01 X33.1746 Y2.0634
G01 X33.0814 Y1.8385
G01 X32.9461 Y1.6360
G01 X32.7740 Y1.4639
G01 X32.5715 Y1.3286
G01 X32.4061 Y1.2601
G01 X32.3901 Y1.2524
G01 X32.3764 Y1.2443
G01 X32.3705 Y1.2404
G01 X32.3577 Y1.2308
G01 X32.3432 Y1.2177
G01 X32.3301 Y1.2032
G01 X32.3175 Y1.1860
G01 X32.3069 Y1.1676
G01 X32.3001 Y1.1531
G01 X32.2946 Y1.1381
G01 X32.2926 Y1.1313
G01 X32.2888 Y1.1158
G01 X32.2859 Y1.0965
G01 X32.2850 Y1.0770
G01 X32.2857 Y1.0610
G01 X32.2864 Y1.0540
G01 X32.2888 Y1.0382
G01 X32.2926 Y1.0227
G01 X32.2988 Y1.0042
G01 X32.3015 Y0.9977
G01 X32.3085 Y0.9832
G01 X32.3185 Y0.9665
G01 X32.3301 Y0.9508
G01 X32.3408 Y0.9389
G01 X32.3458 Y0.9339
G01 X32.3605 Y0.9211
G01 X32.3734 Y0.9116
G01 X32.3871 Y0.9033
G01 X32.3933 Y0.9000
G01 X32.4078 Y0.8932
G01 X32.4261 Y0.8867
G01 X32.4451 Y0.8819
G01 X32.4609 Y0.8795
G01 X32.4679 Y0.8788
G01 X32.4839 Y0.8781
G01 X58.4790 Y0.8781
G01 X58.4985 Y0.8790
G01 X58.5143 Y0.8813
G01 X58.5212 Y0.8827
G01 X58.5384 Y0.8872
G01 X58.5551 Y0.8932
G01 X58.5712 Y0.9008
G01 X58.5865 Y0.9097
G01 X58.5924 Y0.9136
G01 X58.6052 Y0.9232
G01 X58.6197 Y0.9363
G01 X58.6328 Y0.9508
G01 X58.6424 Y0.9636
G01 X58.6463 Y0.9695
G01 X58.6552 Y0.9848
G01 X58.6628 Y1.0009
G01 X58.6688 Y1.0176
G01 X58.6733 Y1.0348
G01 X58.6747 Y1.0417
G01 X58.6770 Y1.0575
G01 X58.6779 Y1.0752
G01 X58.6779 Y5.9068
G01 X58.6770 Y5.9262
G01 X58.6747 Y5.9421
G01 X58.6733 Y5.9490
G01 X58.6694 Y5.9645
G01 X58.6628 Y5.9828
G01 X58.6545 Y6.0004
G01 X58.6463 Y6.0142
G01 X58.6424 Y6.0201
G01 X58.6317 Y6.0342
G01 X58.6198 Y6.0473
G01 X58.6080 Y6.0581
G01 X58.5926 Y6.0700
G01 X58.5867 Y6.0739
G01 X58.5730 Y6.0821
G01 X58.5554 Y6.0904
G01 X58.5370 Y6.0970
G01 X58.5215 Y6.1010
G01 X58.5146 Y6.1024
G01 X58.4988 Y6.1047
G01 X58.4793 Y6.1057
G01 X57.2463 Y6.1078
G01 X57.2039 Y6.1501
G01 X57.2039 Y6.4721
G01 X58.9780 Y6.4722
G01 X58.9833 Y6.4723
G01 X58.9903 Y6.4732
G01 X58.9972 Y6.4748
G01 X59.0022 Y6.4764
G01 X59.0119 Y6.4806
G01 X59.0179 Y6.4843
G01 X59.0222 Y6.4874
G01 X59.0275 Y6.4920
G01 X59.0335 Y6.4984
G01 X59.0387 Y6.5056
G01 X59.0422 Y6.5117
G01 X59.0450 Y6.5181
G01 X59.0477 Y6.5265
G01 X59.0493 Y6.5352
G01 X59.0498 Y6.5422
G01 X59.0498 Y7.8940
G01 X59.0495 Y7.9010
G01 X59.0488 Y7.9063
G01 X59.0472 Y7.9132
G01 X59.0456 Y7.9182
G01 X59.0430 Y7.9247
G01 X59.0405 Y7.9294
G01 X59.0367 Y7.9354
G01 X59.0335 Y7.9396
G01 X59.0300 Y7.9435
G01 X59.0249 Y7.9484
G01 X59.0194 Y7.9527
G01 X59.0149 Y7.9556
G01 X59.0103 Y7.9582
G01 X59.0039 Y7.9610
G01 X58.9972 Y7.9632
G01 X58.9920 Y7.9645
G01 X58.9868 Y7.9653
G01 X58.9798 Y7.9658
G01 X57.2039 Y7.9658
G01 X57.2039 Y8.2879
G01 X57.2463 Y8.3302
G01 X58.4793 Y8.3323
G01 X58.5006 Y8.3335
G01 X58.5181 Y8.3362
G01 X58.5336 Y8.3400
G01 X58.5403 Y8.3421
G01 X58.5554 Y8.3476
G01 X58.5698 Y8.3543
G01 X58.5760 Y8.3577
G01 X58.5897 Y8.3660
G01 X58.6026 Y8.3754
G01 X58.6080 Y8.3799
G01 X58.6198 Y8.3907
G01 X58.6340 Y8.4065
G01 X58.6445 Y8.4208
G01 X58.6527 Y8.4345
G01 X58.6621 Y8.4536
G01 X58.6694 Y8.4735
G01 X58.6741 Y8.4925
G01 X58.6770 Y8.5118
G01 X58.6779 Y8.5312
G01 X58.6779 Y11.5568
G01 X58.6768 Y11.5780
G01 X58.6741 Y11.5955
G01 X58.6694 Y11.6145
G01 X58.6628 Y11.6328
G01 X58.6561 Y11.6473
G01 X58.6463 Y11.6642
G01 X58.6424 Y11.6701
G01 X58.6329 Y11.6828
G01 X58.6198 Y11.6973
G01 X58.6053 Y11.7104
G01 X58.5926 Y11.7200
G01 X58.5760 Y11.7303
G01 X58.5698 Y11.7337
G01 X58.5554 Y11.7404
G01 X58.5370 Y11.7470
G01 X58.5181 Y11.7518
G01 X58.5006 Y11.7545
G01 X58.4793 Y11.7557
G01 X57.2463 Y11.7578
G01 X57.2039 Y11.8001
G01 X57.2039 Y12.1221
G01 X58.9780 Y12.1222
G01 X58.9850 Y12.1225
G01 X58.9903 Y12.1232
G01 X58.9972 Y12.1248
G01 X59.0022 Y12.1264
G01 X59.0119 Y12.1306
G01 X59.0179 Y12.1343
G01 X59.0222 Y12.1374
G01 X59.0288 Y12.1432
G01 X59.0335 Y12.1484
G01 X59.0387 Y12.1556
G01 X59.0422 Y12.1617
G01 X59.0450 Y12.1681
G01 X59.0477 Y12.1765
G01 X59.0493 Y12.1852
G01 X59.0498 Y12.1922
G01 X59.0498 Y13.5440
G01 X59.0495 Y13.5510
G01 X59.0485 Y13.5580
G01 X59.0468 Y13.5649
G01 X59.0444 Y13.5715
G01 X59.0422 Y13.5763
G01 X59.0396 Y13.5809
G01 X59.0357 Y13.5868
G01 X59.0312 Y13.5923
G01 X59.0275 Y13.5960
G01 X59.0236 Y13.5995
G01 X59.0179 Y13.6037
G01 X59.0119 Y13.6074
G01 X59.0055 Y13.6104
G01 X59.0005 Y13.6122
G01 X58.9937 Y13.6141
G01 X58.9868 Y13.6153
G01 X58.9798 Y13.6158
G01 X57.2039 Y13.6158
G01 X57.2039 Y13.9379
G01 X57.2463 Y13.9802
G01 X58.4793 Y13.9823
G01 X58.5006 Y13.9835
G01 X58.5181 Y13.9862
G01 X58.5336 Y13.9900
G01 X58.5403 Y13.9921
G01 X58.5554 Y13.9976
G01 X58.5698 Y14.0043
G01 X58.5760 Y14.0077
G01 X58.5897 Y14.0160
G01 X58.6053 Y14.0276
G01 X58.6198 Y14.0407
G01 X58.6306 Y14.0525
G01 X58.6350 Y14.0579
G01 X58.6445 Y14.0708
G01 X58.6545 Y14.0876
G01 X58.6614 Y14.1020
G01 X58.6641 Y14.1085
G01 X58.6699 Y14.1252
G01 X58.6741 Y14.1425
G01 X58.6765 Y14.1583
G01 X58.6772 Y14.1653
G01 X58.6779 Y14.1812
G01 X58.6779 Y19.0110
G01 X58.6770 Y19.0305
G01 X58.6747 Y19.0463
G01 X58.6733 Y19.0532
G01 X58.6688 Y19.0704
G01 X58.6628 Y19.0871
G01 X58.6552 Y19.1032
G01 X58.6463 Y19.1185
G01 X58.6424 Y19.1244
G01 X58.6328 Y19.1372
G01 X58.6197 Y19.1517
G01 X58.6052 Y19.1648
G01 X58.5924 Y19.1744
G01 X58.5865 Y19.1783
G01 X58.5696 Y19.1880
G01 X58.5551 Y19.1948
G01 X58.5367 Y19.2013
G01 X58.5178 Y19.2061
G01 X58.5020 Y19.2085
G01 X58.4950 Y19.2092
G01 X58.4790 Y19.2099
G01 X32.4839 Y19.2099
G01 X32.4644 Y19.2090
G01 X32.4451 Y19.2061
G01 X32.4261 Y19.2013
G01 X32.4111 Y19.1960
G01 X32.4045 Y19.1933
G01 X32.3871 Y19.1847
G01 X32.3734 Y19.1764
G01 X32.3605 Y19.1669
G01 X32.3445 Y19.1529
G01 X32.3313 Y19.1385
G01 X32.3185 Y19.1215
G01 X32.3102 Y19.1078
G01 X32.3069 Y19.1016
G01 X32.2988 Y19.0838
G01 X32.2935 Y19.0687
G01 X32.2888 Y19.0498
G01 X32.2859 Y19.0305
G01 X32.2850 Y19.0128
G01 X32.2859 Y18.9915
G01 X32.2882 Y18.9757
G01 X32.2896 Y18.9688
G01 X32.2941 Y18.9516
G01 X32.3001 Y18.9349
G01 X32.3085 Y18.9172
G01 X32.3185 Y18.9005
G01 X32.3280 Y18.8876
G01 X32.3324 Y18.8821
G01 X32.3432 Y18.8703
G01 X32.3577 Y18.8572
G01 X32.3734 Y18.8456
G01 X32.3901 Y18.8356
G01 X32.4078 Y18.8272
G01 X32.5715 Y18.7594
G01 X32.7740 Y18.6241
G01 X32.9461 Y18.4520
G01 X33.0814 Y18.2495
G01 X33.1746 Y18.0246
G01 X33.2221 Y17.7857
G01 X33.2221 Y17.5423
G01 X33.1746 Y17.3034
G01 X33.0814 Y17.0785
G01 X32.9461 Y16.8760
G01 X32.8765 Y16.8064
G01 X32.8646 Y16.7932
G01 X32.8530 Y16.7775
G01 X32.8430 Y16.7608
G01 X32.8361 Y16.7463
G01 X32.8334 Y16.7398
G01 X32.8280 Y16.7247
G01 X32.8241 Y16.7092
G01 X32.8206 Y16.6882
G01 X32.8195 Y16.6670
G01 X32.8204 Y16.6475
G01 X32.8233 Y16.6282
G01 X32.8276 Y16.6110
G01 X32.8346 Y16.5909
G01 X32.8422 Y16.5748
G01 X32.8530 Y16.5565
G01 X32.8625 Y16.5436
G01 X32.8753 Y16.5289
G01 X32.8803 Y16.5239
G01 X32.8936 Y16.5121
G01 X32.9109 Y16.4997
G01 X32.9246 Y16.4916
G01 X32.9439 Y16.4826
G01 X32.9623 Y16.4762
G01 X32.9831 Y16.4713
G01 X32.9989 Y16.4690
G01 X33.0184 Y16.4681
G01 X48.9280 Y16.4681
G01 X48.9475 Y16.4690
G01 X48.9668 Y16.4719
G01 X48.9858 Y16.4767
G01 X49.0025 Y16.4826
G01 X49.0218 Y16.4916
G01 X49.0371 Y16.5006
G01 X49.0449 Y16.5059
G01 X49.2244 Y16.5802
G01 X49.4149 Y16.6181
G01 X49.6091 Y16.6181
G01 X49.7996 Y16.5802
G01 X49.9791 Y16.5059
G01 X50.1406 Y16.3979
G01 X50.2779 Y16.2606
G01 X50.3859 Y16.0991
G01 X50.4602 Y15.9196
G01 X50.4981 Y15.7291
G01 X50.4981 Y15.5349
G01 X50.4602 Y15.3444
G01 X50.3859 Y15.1649
G01 X50.2779 Y15.0034
G01 X50.1406 Y14.8661
G01 X49.9791 Y14.7581
G01 X49.7996 Y14.6838
G01 X49.6091 Y14.6459
G01 X49.4149 Y14.6459
G01 X49.2244 Y14.6838
G01 X49.0449 Y14.7581
G01 X49.0371 Y14.7634
G01 X49.0218 Y14.7724
G01 X49.0025 Y14.7814
G01 X48.9858 Y14.7873
G01 X48.9668 Y14.7921
G01 X48.9475 Y14.7950
G01 X48.9280 Y14.7959
G01 X38.5487 Y14.7959
G01 X38.5327 Y14.7952
G01 X38.5257 Y14.7945
G01 X38.5099 Y14.7921
G01 X38.4910 Y14.7873
G01 X38.4726 Y14.7808
G01 X38.4581 Y14.7740
G01 X38.4519 Y14.7707
G01 X38.4382 Y14.7624
G01 X38.4225 Y14.7508
G01 X38.4106 Y14.7401
G01 X38.4056 Y14.7351
G01 X38.3949 Y14.7232
G01 X38.3833 Y14.7075
G01 X38.3750 Y14.6938
G01 X38.3664 Y14.6763
G01 X38.3637 Y14.6698
G01 X38.3584 Y14.6547
G01 X38.3544 Y14.6392
G01 X38.3530 Y14.6323
G01 X38.3508 Y14.6165
G01 X38.3499 Y14.6005
G01 X38.3499 Y14.5935
G01 X38.3508 Y14.5775
G01 X38.3536 Y14.5582
G01 X38.3584 Y14.5393
G01 X38.3637 Y14.5242
G01 X38.3664 Y14.5177
G01 X38.3733 Y14.5032
G01 X38.3833 Y14.4865
G01 X38.3928 Y14.4736
G01 X38.3973 Y14.4681
G01 X38.4081 Y14.4563
G01 X46.0033 Y6.8611
G01 X46.0164 Y6.8492
G01 X46.0421 Y6.8281
G01 X46.1465 Y6.7008
G01 X46.2242 Y6.5555
G01 X46.2720 Y6.3979
G01 X46.2881 Y6.2340
G01 X46.2849 Y6.2009
G01 X46.2841 Y6.1832
G01 X46.2841 Y5.2940
G01 X46.2850 Y5.2745
G01 X46.2879 Y5.2552
G01 X46.2917 Y5.2396
G01 X46.2938 Y5.2329
G01 X46.2992 Y5.2178
G01 X46.3084 Y5.1986
G01 X46.3166 Y5.1849
G01 X46.3219 Y5.1771
G01 X46.3962 Y4.9976
G01 X46.4341 Y4.8071
G01 X46.4341 Y4.6129
G01 X46.3962 Y4.4224
G01 X46.3219 Y4.2429
G01 X46.2139 Y4.0814
G01 X46.0766 Y3.9441
G01 X45.9151 Y3.8361
G01 X45.7356 Y3.7618
G01 X45.5451 Y3.7239
G01 X45.3509 Y3.7239
G01 X45.1604 Y3.7618
G01 X44.9809 Y3.8361
G01 X44.8194 Y3.9441
G01 X44.6821 Y4.0814
G01 X44.5964 Y4.2096
G01 X44.5846 Y4.2251
G01 X44.5701 Y4.2407
G01 X44.5582 Y4.2514
G01 X44.5425 Y4.2630
G01 X44.5258 Y4.2730
G01 X44.5081 Y4.2814
G01 X44.4897 Y4.2880
G01 X44.4708 Y4.2927
G01 X44.4515 Y4.2956
G01 X44.4338 Y4.2965
G01 X44.4125 Y4.2956
G01 X44.3967 Y4.2933
G01 X44.3898 Y4.2919
G01 X44.3709 Y4.2868
G01 X44.3559 Y4.2814
G01 X44.3382 Y4.2730
G01 X44.3215 Y4.2630
G01 X44.3058 Y4.2514
G01 X44.2939 Y4.2407
G01 X44.2889 Y4.2357
G01 X44.2782 Y4.2238
G01 X44.2686 Y4.2110
G01 X44.1819 Y4.0814
G01 X44.0446 Y3.9441
G01 X43.8831 Y3.8361
G01 X43.7036 Y3.7618
G01 X43.5131 Y3.7239
G01 X43.3189 Y3.7239
G01 X43.1284 Y3.7618
G01 X42.9489 Y3.8361
G01 X42.7874 Y3.9441
G01 X42.6501 Y4.0814
G01 X42.5634 Y4.2110
G01 X42.5538 Y4.2238
G01 X42.5431 Y4.2357
G01 X42.5275 Y4.2502
G01 X42.5134 Y4.2610
G01 X42.5075 Y4.2649
G01 X42.4938 Y4.2730
G01 X42.4745 Y4.2820
G01 X42.4577 Y4.2880
G01 X42.4388 Y4.2927
G01 X42.4195 Y4.2956
G01 X42.4035 Y4.2964
G01 X42.3823 Y4.2957
G01 X42.3647 Y4.2933
G01 X42.3457 Y4.2889
G01 X42.3389 Y4.2868
G01 X42.3239 Y4.2814
G01 X42.3047 Y4.2722
G01 X42.2880 Y4.2620
G01 X42.2711 Y4.2491
G01 X42.2593 Y4.2383
G01 X42.2485 Y4.2265
G01 X42.2366 Y4.2110
G01 X42.1499 Y4.0814
G01 X42.0126 Y3.9441
G01 X41.8511 Y3.8361
G01 X41.6716 Y3.7618
G01 X41.4811 Y3.7239
G01 X41.2869 Y3.7239
G01 X41.0964 Y3.7618
G01 X40.9169 Y3.8361
G01 X40.7554 Y3.9441
G01 X40.6181 Y4.0814
G01 X40.5101 Y4.2429
G01 X40.4358 Y4.4224
G01 X40.3979 Y4.6129
G01 X40.3979 Y4.8071
G01 X40.4358 Y4.9976
G01 X40.5101 Y5.1771
G01 X40.5154 Y5.1849
G01 X40.5236 Y5.1986
G01 X40.5328 Y5.2178
G01 X40.5393 Y5.2362
G01 X40.5444 Y5.2569
G01 X40.5471 Y5.2762
G01 X40.5479 Y5.2991
G01 X40.5468 Y5.3185
G01 X40.5433 Y5.3395
G01 X40.5393 Y5.3550
G01 X40.5340 Y5.3701
G01 X40.5260 Y5.3879
G01 X40.5227 Y5.3941
G01 X40.5144 Y5.4078
G01 X40.5028 Y5.4235
G01 X40.4897 Y5.4379
G01 X36.2699 Y9.6577
G01 X36.2555 Y9.6708
G01 X36.2398 Y9.6824
G01 X36.2231 Y9.6924
G01 X36.2038 Y9.7014
G01 X36.1870 Y9.7073
G01 X36.1681 Y9.7121
G01 X36.1488 Y9.7150
G01 X36.1293 Y9.7159
G01 X30.5261 Y9.7159
G01 X30.5066 Y9.7150
G01 X30.4873 Y9.7121
G01 X30.4683 Y9.7073
G01 X30.4500 Y9.7008
G01 X30.4323 Y9.6924
G01 X30.4156 Y9.6824
G01 X30.3999 Y9.6708
G01 X30.3880 Y9.6601
G00 Z2.0000
G00 X31.7363 Y3.2592
G01 F30.00
G01 Z-0.0600
G01 F60.00
G01 X31.7296 Y3.2572
G01 X31.6524 Y3.2295
G01 X31.5750 Y3.1929
G01 X31.5016 Y3.1489
G01 X31.4329 Y3.0979
G01 X31.3695 Y3.0405
G01 X31.3121 Y2.9771
G01 X31.2611 Y2.9084
G01 X31.2171 Y2.8350
G01 X31.1805 Y2.7576
G01 X31.1517 Y2.6771
G01 X31.1309 Y2.5941
G01 X31.1183 Y2.5095
G01 X31.1142 Y2.4240
G01 X31.1183 Y2.3385
G01 X31.1309 Y2.2539
G01 X31.1517 Y2.1709
G01 X31.1805 Y2.0904
G01 X31.2171 Y2.0130
G01 X31.2611 Y1.9396
G01 X31.3121 Y1.8709
G01 X31.3695 Y1.8075
G01 X31.4329 Y1.7501
G01 X31.5016 Y1.6991
G01 X31.5750 Y1.6551
G01 X31.6524 Y1.6185
G01 X31.7329 Y1.5897
G01 X31.8159 Y1.5689
G01 X31.9005 Y1.5563
G01 X31.9860 Y1.5522
G01 X32.0715 Y1.5563
G01 X32.1561 Y1.5689
G01 X32.2391 Y1.5897
G01 X32.3196 Y1.6185
G01 X32.3970 Y1.6551
G01 X32.4704 Y1.6991
G01 X32.5391 Y1.7501
G01 X32.6025 Y1.8075
G01 X32.6599 Y1.8709
G01 X32.7109 Y1.9396
G01 X32.7549 Y2.0130
G01 X32.7915 Y2.0904
G01 X32.8203 Y2.1709
G01 X32.8411 Y2.2539
G01 X32.8537 Y2.3385
G01 X32.8578 Y2.4240
G01 X32.8537 Y2.5095
G01 X32.8411 Y2.5941
G01 X32.8203 Y2.6771
G01 X32.7915 Y2.7576
G01 X32.7549 Y2.8350
G01 X32.7109 Y2.9084
G01 X32.6599 Y2.9771
G01 X32.6025 Y3.0405
G01 X32.5391 Y3.0979
G01 X32.4704 Y3.1489
G01 X32.3970 Y3.1929
G01 X32.3196 Y3.2295
G01 X32.2391 Y3.2583
G01 X32.1561 Y3.2791
G01 X32.0715 Y3.2917
G01 X31.9860 Y3.2958
G01 X31.9005 Y3.2917
G01 X31.8159 Y3.2791
G01 X31.7363 Y3.2592
G00 Z2.0000
G00 X31.7363 Y18.4992
G01 F30.00
G01 Z-0.0600
G01 F60.00
G01 X31.7296 Y18.4972
G01 X31.6524 Y18.4695
G01 X31.5750 Y18.4329
G01 X31.5016 Y18.3889
G01 X31.4329 Y18.3379
G01 X31.3695 Y18.2805
G01 X31.3121 Y18.2171
G01 X31.2611 Y18.1484
G01 X31.2171 Y18.0750
G01 X31.1805 Y17.9976
G01 X31.1517 Y17.9171
G01 X31.1309 Y17.8341
G01 X31.1183 Y17.7495
G01 X31.1142 Y17.6640
G01 X31.1183 Y17.5785
G01 X31.1309 Y17.4939
G01 X31.1517 Y17.4109
G01 X31.1805 Y17.3304
G01 X31.2171 Y17.2530
G01 X31.2611 Y17.1796
G01 X31.3121 Y17.1109
G01 X31.3695 Y17.0475
G01 X31.4329 Y16.9901
G01 X31.5016 Y16.9391
G01 X31.5750 Y16.8951
G01 X31.6524 Y16.8585
G01 X31.7329 Y16.8297
G01 X31.8159 Y16.8089
G01 X31.9005 Y16.7963
G01 X31.9860 Y16.7922
G01 X32.0715 Y16.7963
G01 X32.1561 Y16.8089
G01 X32.2391 Y16.8297
G01 X32.3196 Y16.8585
G01 X32.3970 Y16.8951
G01 X32.4704 Y16.9391
G01 X32.5391 Y16.9901
G01 X32.6025 Y17.0475
G01 X32.6599 Y17.1109
G01 X32.7109 Y17.1796
G01 X32.7549 Y17.2530
G01 X32.7915 Y17.3304
G01 X32.8203 Y17.4109
G01 X32.8411 Y17.4939
G01 X32.8537 Y17.5785
G01 X32.8578 Y17.6640
G01 X32.8537 Y17.7495
G01 X32.8411 Y17.8341
G01 X32.8203 Y17.9171
G01 X32.7915 Y17.9976
G01 X32.7549 Y18.0750
G01 X32.7109 Y18.1484
G01 X32.6599 Y18.2171
G01 X32.6025 Y18.2805
G01 X32.5391 Y18.3379
G01 X32.4704 Y18.3889
G01 X32.3970 Y18.4329
G01 X32.3196 Y18.4695
G01 X32.2391 Y18.4983
G01 X32.1561 Y18.5191
G01 X32.0715 Y18.5317
G01 X31.9860 Y18.5358
G01 X31.9005 Y18.5317
G01 X31.8159 Y18.5191
G01 X31.7363 Y18.4992
G00 Z2.0000
G00 X29.1963 Y18.4992
G01 F30.00
G01 Z-0.0600
G01 F60.00
G01 X29.1896 Y18.4972
G01 X29.1124 Y18.4695
G01 X29.0350 Y18.4329
G01 X28.9616 Y18.3889
G01 X28.8929 Y18.3379
G01 X28.8295 Y18.2805
G01 X28.7721 Y18.2171
G01 X28.7211 Y18.1484
G01 X28.6771 Y18.0750
G01 X28.6405 Y17.9976
G01 X28.6117 Y17.9171
G01 X28.5909 Y17.8341
G01 X28.5783 Y17.7495
G01 X28.5742 Y17.6640
G01 X28.5783 Y17.5785
G01 X28.5909 Y17.4939
G01 X28.6117 Y17.4109
G01 X28.6405 Y17.3304
G01 X28.6771 Y17.2530
G01 X28.7211 Y17.1796
G01 X28.7721 Y17.1109
G01 X28.8295 Y17.0475
G01 X28.8929 Y16.9901
G01 X28.9616 Y16.9391
G01 X29.0350 Y16.8951
G01 X29.1124 Y16.8585
G01 X29.1929 Y16.8297
G01 X29.2759 Y16.8089
G01 X29.3605 Y16.7963
G01 X29.4460 Y16.7922
G01 X29.5315 Y16.7963
G01 X29.6161 Y16.8089
G01 X29.6991 Y16.8297
G01 X29.7796 Y16.8585
G01 X29.8570 Y16.8951
G01 X29.9304 Y16.9391
G01 X29.9991 Y16.9901
G01 X30.0625 Y17.0475
G01 X30.1199 Y17.1109
G01 X30.1709 Y17.1796
G01 X30.2149 Y17.2530
G01 X30.2515 Y17.3304
G01 X30.2803 Y17.4109
G01 X30.3011 Y17.4939
G01 X30.3137 Y17.5785
G01 X30.3178 Y17.6640
G01 X30.3137 Y17.7495
G01 X30.3011 Y17.8341
G01 X30.2803 Y17.9171
G01 X30.2515 Y17.9976
G01 X30.2149 Y18.0750
G01 X30.1709 Y18.1484
G01 X30.1199 Y18.2171
G01 X30.0625 Y18.2805
G01 X29.9991 Y18.3379
G01 X29.9304 Y18.3889
G01 X29.8570 Y18.4329
G01 X29.7796 Y18.4695
G01 X29.6991 Y18.4983
G01 X29.6161 Y18.5191
G01 X29.5315 Y18.5317
G01 X29.4460 Y18.5358
G01 X29.3605 Y18.5317
G01 X29.2759 Y18.5191
G01 X29.1963 Y18.4992
G00 Z2.0000
G00 X26.6563 Y18.4992
G01 F30.00
G01 Z-0.0600
G01 F60.00
G01 X26.6496 Y18.4972
G01 X26.5724 Y18.4695
G01 X26.4950 Y18.4329
G01 X26.4216 Y18.3889
G01 X26.3529 Y18.3379
G01 X26.2895 Y18.2805
G01 X26.2321 Y18.2171
G01 X26.1811 Y18.1484
G01 X26.1371 Y18.0750
G01 X26.1005 Y17.9976
G01 X26.0717 Y17.9171
G01 X26.0509 Y17.8341
G01 X26.0383 Y17.7495
G01 X26.0342 Y17.6640
G01 X26.0383 Y17.5785
G01 X26.0509 Y17.4939
G01 X26.0717 Y17.4109
G01 X26.1005 Y17.3304
G01 X26.1371 Y17.2530
G01 X26.1811 Y17.1796
G01 X26.2321 Y17.1109
G01 X26.2895 Y17.0475
G01 X26.3529 Y16.9901
G01 X26.4216 Y16.9391
G01 X26.4950 Y16.8951
G01 X26.5724 Y16.8585
G01 X26.6529 Y16.8297
G01 X26.7359 Y16.8089
G01 X26.8205 Y16.7963
G01 X26.9060 Y16.7922
G01 X26.9915 Y16.7963
G01 X27.0761 Y16.8089
G01 X27.1591 Y16.8297
G01 X27.2396 Y16.8585
G01 X27.3170 Y16.8951
G01 X27.3904 Y16.9391
G01 X27.4591 Y16.9901
G01 X27.5225 Y17.0475
G01 X27.5799 Y17.1109
G01 X27.6309 Y17.1796
G01 X27.6749 Y17.2530
G01 X27.7115 Y17.3304
G01 X27.7403 Y17.4109
G01 X27.7611 Y17.4939
G01 X27.7737 Y17.5785
G01 X27.7778 Y17.6640
G01 X27.7737 Y17.7495
G01 X27.7611 Y17.8341
G01 X27.7403 Y17.9171
G01 X27.7115 Y17.9976
G01 X27.6749 Y18.0750
G01 X27.6309 Y18.1484
G01 X27.5799 Y18.2171
G01 X27.5225 Y18.2805
G01 X27.4591 Y18.3379
G01 X27.3904 Y18.3889
G01 X27.3170 Y18.4329
G01 X27.2396 Y18.4695
G01 X27.1591 Y18.4983
G01 X27.0761 Y18.5191
G01 X26.9915 Y18.5317
G01 X26.9060 Y18.5358
G01 X26.8205 Y18.5317
G01 X26.7359 Y18.5191
G01 X26.6563 Y18.4992
G00 Z2.0000
G00 X24.1146 Y18.4988
G01 F30.00
G01 Z-0.0600
G01 F60.00
G01 X24.0324 Y18.4695
G01 X23.9550 Y18.4329
G01 X23.8816 Y18.3889
G01 X23.8129 Y18.3379
G01 X23.7495 Y18.2805
G01 X23.6921 Y18.2171
G01 X23.6411 Y18.1484
G01 X23.5971 Y18.0750
G01 X23.5605 Y17.9976
G01 X23.5317 Y17.9171
G01 X23.5109 Y17.8341
G01 X23.4983 Y17.7495
G01 X23.4942 Y17.6640
G01 X23.4983 Y17.5785
G01 X23.5109 Y17.4939
G01 X23.5317 Y17.4109
G01 X23.5605 Y17.3304
G01 X23.5971 Y17.2530
G01 X23.6411 Y17.1796
G01 X23.6921 Y17.1109
G01 X23.7495 Y17.0475
G01 X23.8129 Y16.9901
G01 X23.8816 Y16.9391
G01 X23.9550 Y16.8951
G01 X24.0324 Y16.8585
G01 X24.1129 Y16.8297
G01 X24.1959 Y16.8089
G01 X24.2805 Y16.7963
G01 X24.3660 Y16.7922
G01 X24.4515 Y16.7963
G01 X24.5361 Y16.8089
G01 X24.6191 Y16.8297
G01 X24.6996 Y16.8585
G01 X24.7770 Y16.8951
G01 X24.8504 Y16.9391
G01 X24.9191 Y16.9901
G01 X24.9825 Y17.0475
G01 X25.0399 Y17.1109
G01 X25.0909 Y17.1796
G01 X25.1349 Y17.2530
G01 X25.1715 Y17.3304
G01 X25.2003 Y17.4109
G01 X25.2211 Y17.4939
G01 X25.2337 Y17.5785
G01 X25.2378 Y17.6640
G01 X25.2337 Y17.7495
G01 X25.2211 Y17.8341
G01 X25.2003 Y17.9171
G01 X25.1715 Y17.9976
G01 X25.1349 Y18.0750
G01 X25.0909 Y18.1484
G01 X25.0399 Y18.2171
G01 X24.9825 Y18.2805
G01 X24.9191 Y18.3379
G01 X24.8504 Y18.3889
G01 X24.7770 Y18.4329
G01 X24.6996 Y18.4695
G01 X24.6191 Y18.4983
G01 X24.5361 Y18.5191
G01 X24.4515 Y18.5317
G01 X24.3660 Y18.5358
G01 X24.2805 Y18.5317
G01 X24.1959 Y18.5191
G01 X24.1146 Y18.4988
G00 Z2.0000
G00 X21.5763 Y18.4992
G01 F30.00
G01 Z-0.0600
G01 F60.00
G01 X21.5696 Y18.4972
G01 X21.4924 Y18.4695
G01 X21.4182 Y18.4345
G01 X21.4119 Y18.4312
G01 X21.3446 Y18.3908
G01 X21.3387 Y18.3869
G01 X21.2729 Y18.3379
G01 X21.2121 Y18.2829
G01 X21.2071 Y18.2779
G01 X21.1521 Y18.2171
G01 X21.1011 Y18.1484
G01 X21.0571 Y18.0750
G01 X21.0219 Y18.0009
G01 X21.0192 Y17.9944
G01 X20.9917 Y17.9171
G01 X20.9717 Y17.8375
G01 X20.9703 Y17.8306
G01 X20.9588 Y17.7530
G01 X20.9581 Y17.7459
G01 X20.9542 Y17.6640
G01 X20.9583 Y17.5785
G01 X20.9703 Y17.4974
G01 X20.9717 Y17.4905
G01 X20.9917 Y17.4109
G01 X21.0192 Y17.3336
G01 X21.0219 Y17.3271
G01 X21.0571 Y17.2530
G01 X21.1011 Y17.1796
G01 X21.1499 Y17.1137
G01 X21.1544 Y17.1082
G01 X21.2095 Y17.0475
G01 X21.2729 Y16.9901
G01 X21.3387 Y16.9411
G01 X21.3446 Y16.9372
G01 X21.4150 Y16.8951
G01 X21.4924 Y16.8585
G01 X21.5729 Y16.8297
G01 X21.6525 Y16.8097
G01 X21.6594 Y16.8083
G01 X21.7405 Y16.7963
G01 X21.8260 Y16.7922
G01 X21.9079 Y16.7961
G01 X21.9150 Y16.7968
G01 X21.9926 Y16.8083
G01 X22.0101 Y16.8123
G01 X23.5268 Y15.2958
G01 X23.5585 Y15.2671
G01 X23.5957 Y15.2395
G01 X23.6355 Y15.2157
G01 X23.6741 Y15.1973
G01 X23.6806 Y15.1946
G01 X23.7176 Y15.1814
G01 X23.7244 Y15.1793
G01 X23.7659 Y15.1690
G01 X23.8117 Y15.1622
G01 X23.8580 Y15.1600
G01 X49.1078 Y15.1600
G01 X49.1203 Y15.1491
G01 X49.1636 Y15.1170
G01 X49.1695 Y15.1131
G01 X49.2189 Y15.0836
G01 X49.2708 Y15.0589
G01 X49.2773 Y15.0562
G01 X49.3315 Y15.0369
G01 X49.3907 Y15.0221
G01 X49.4510 Y15.0131
G01 X49.5138 Y15.0102
G01 X49.5730 Y15.0131
G01 X49.6333 Y15.0221
G01 X49.6925 Y15.0369
G01 X49.7500 Y15.0575
G01 X49.8051 Y15.0836
G01 X49.8575 Y15.1150
G01 X49.9065 Y15.1513
G01 X49.9492 Y15.1899
G01 X49.9541 Y15.1948
G01 X49.9927 Y15.2375
G01 X50.0270 Y15.2836
G01 X50.0309 Y15.2895
G01 X50.0587 Y15.3358
G01 X50.0620 Y15.3420
G01 X50.0865 Y15.3940
G01 X50.1071 Y15.4515
G01 X50.1219 Y15.5107
G01 X50.1309 Y15.5710
G01 X50.1338 Y15.6320
G01 X50.1309 Y15.6930
G01 X50.1219 Y15.7533
G01 X50.1071 Y15.8125
G01 X50.0865 Y15.8700
G01 X50.0604 Y15.9251
G01 X50.0290 Y15.9775
G01 X49.9949 Y16.0237
G01 X49.9904 Y16.0292
G01 X49.9541 Y16.0692
G01 X49.9492 Y16.0741
G01 X49.9065 Y16.1127
G01 X49.8604 Y16.1470
G01 X49.8545 Y16.1509
G01 X49.8051 Y16.1804
G01 X49.7532 Y16.2051
G01 X49.7467 Y16.2078
G01 X49.6925 Y16.2271
G01 X49.6333 Y16.2419
G01 X49.5730 Y16.2509
G01 X49.5138 Y16.2538
G01 X49.4510 Y16.2509
G01 X49.3907 Y16.2419
G01 X49.3315 Y16.2271
G01 X49.2773 Y16.2078
G01 X49.2708 Y16.2051
G01 X49.2189 Y16.1804
G01 X49.1695 Y16.1509
G01 X49.1636 Y16.1470
G01 X49.1203 Y16.1149
G01 X49.1078 Y16.1041
G01 X24.0535 Y16.1040
G01 X22.6777 Y17.4799
G01 X22.6814 Y17.4956
G01 X22.6937 Y17.5785
G01 X22.6978 Y17.6605
G01 X22.6978 Y17.6675
G01 X22.6937 Y17.7495
G01 X22.6817 Y17.8306
G01 X22.6803 Y17.8375
G01 X22.6603 Y17.9171
G01 X22.6328 Y17.9944
G01 X22.6301 Y18.0009
G01 X22.5949 Y18.0750
G01 X22.5528 Y18.1454
G01 X22.5489 Y18.1513
G01 X22.4999 Y18.2171
G01 X22.4412 Y18.2817
G01 X22.3818 Y18.3356
G01 X22.3763 Y18.3401
G01 X22.3104 Y18.3889
G01 X22.2401 Y18.4312
G01 X22.2338 Y18.4345
G01 X22.1596 Y18.4695
G01 X22.0824 Y18.4972
G01 X22.0757 Y18.4992
G01 X21.9961 Y18.5191
G01 X21.9150 Y18.5312
G01 X21.9079 Y18.5319
G01 X21.8260 Y18.5358
G01 X21.7441 Y18.5319
G01 X21.7370 Y18.5312
G01 X21.6559 Y18.5191
G01 X21.5763 Y18.4992
G00 Z2.0000
G00 X19.0363 Y18.4992
G01 F30.00
G01 Z-0.0600
G01 F60.00
G01 X19.0296 Y18.4972
G01 X18.9524 Y18.4695
G01 X18.8782 Y18.4345
G01 X18.8719 Y18.4312
G01 X18.8016 Y18.3889
G01 X18.7357 Y18.3401
G01 X18.7302 Y18.3356
G01 X18.6695 Y18.2805
G01 X18.6121 Y18.2171
G01 X18.5631 Y18.1513
G01 X18.5592 Y18.1454
G01 X18.5171 Y18.0750
G01 X18.4819 Y18.0009
G01 X18.4792 Y17.9944
G01 X18.4517 Y17.9171
G01 X18.4309 Y17.8341
G01 X18.4188 Y17.7530
G01 X18.4181 Y17.7459
G01 X18.4142 Y17.6640
G01 X18.4181 Y17.5821
G01 X18.4188 Y17.5750
G01 X18.4309 Y17.4939
G01 X18.4517 Y17.4109
G01 X18.4792 Y17.3336
G01 X18.4819 Y17.3271
G01 X18.5155 Y17.2562
G01 X18.5188 Y17.2499
G01 X18.5611 Y17.1796
G01 X18.6099 Y17.1137
G01 X18.6144 Y17.1082
G01 X18.6671 Y17.0501
G01 X18.6721 Y17.0451
G01 X18.7329 Y16.9901
G01 X18.8016 Y16.9391
G01 X18.8719 Y16.8968
G01 X18.8782 Y16.8935
G01 X18.9524 Y16.8585
G01 X19.0296 Y16.8308
G01 X19.0363 Y16.8288
G01 X19.1125 Y16.8097
G01 X19.1194 Y16.8083
G01 X19.2005 Y16.7963
G01 X19.2825 Y16.7922
G01 X19.2895 Y16.7922
G01 X19.3715 Y16.7963
G01 X19.4544 Y16.8086
G01 X19.4701 Y16.8123
G01 X22.5095 Y13.7730
G01 X22.5399 Y13.7454
G01 X22.5453 Y13.7409
G01 X22.5797 Y13.7155
G01 X22.6164 Y13.6934
G01 X22.6226 Y13.6901
G01 X22.6614 Y13.6719
G01 X22.7067 Y13.6558
G01 X22.7499 Y13.6450
G01 X22.7922 Y13.6387
G01 X22.7992 Y13.6380
G01 X22.8420 Y13.6360
G01 X37.3785 Y13.6360
G01 X44.9759 Y6.0385
G01 X44.9760 Y5.1142
G01 X44.9651 Y5.1017
G01 X44.9330 Y5.0584
G01 X44.9291 Y5.0525
G01 X44.8996 Y5.0031
G01 X44.8749 Y4.9512
G01 X44.8722 Y4.9447
G01 X44.8529 Y4.8905
G01 X44.8381 Y4.8313
G01 X44.8291 Y4.7710
G01 X44.8262 Y4.7082
G01 X44.8291 Y4.6490
G01 X44.8381 Y4.5887
G01 X44.8529 Y4.5295
G01 X44.8735 Y4.4720
G01 X44.8996 Y4.4169
G01 X44.9310 Y4.3645
G01 X44.9673 Y4.3155
G01 X45.0071 Y4.2715
G01 X45.0535 Y4.2293
G01 X45.0996 Y4.1950
G01 X45.1055 Y4.1911
G01 X45.1518 Y4.1633
G01 X45.1580 Y4.1600
G01 X45.2100 Y4.1355
G01 X45.2641 Y4.1160
G01 X45.2709 Y4.1140
G01 X45.3267 Y4.1001
G01 X45.3870 Y4.0911
G01 X45.4480 Y4.0882
G01 X45.5054 Y4.0909
G01 X45.5125 Y4.0916
G01 X45.5658 Y4.0995
G01 X45.5728 Y4.1009
G01 X45.6285 Y4.1149
G01 X45.6827 Y4.1342
G01 X45.6892 Y4.1369
G01 X45.7411 Y4.1616
G01 X45.7935 Y4.1930
G01 X45.8425 Y4.2293
G01 X45.8852 Y4.2679
G01 X45.8901 Y4.2728
G01 X45.9287 Y4.3155
G01 X45.9630 Y4.3616
G01 X45.9669 Y4.3675
G01 X45.9964 Y4.4169
G01 X46.0211 Y4.4688
G01 X46.0238 Y4.4753
G01 X46.0431 Y4.5295
G01 X46.0579 Y4.5887
G01 X46.0669 Y4.6490
G01 X46.0698 Y4.7065
G01 X46.0698 Y4.7135
G01 X46.0669 Y4.7710
G01 X46.0579 Y4.8313
G01 X46.0440 Y4.8871
G01 X46.0420 Y4.8939
G01 X46.0225 Y4.9480
G01 X45.9964 Y5.0031
G01 X45.9660 Y5.0540
G01 X45.9298 Y5.1031
G01 X45.9201 Y5.1142
G01 X45.9200 Y6.2340
G01 X45.9179 Y6.2785
G01 X45.9116 Y6.3226
G01 X45.9102 Y6.3295
G01 X45.8997 Y6.3710
G01 X45.8841 Y6.4146
G01 X45.8659 Y6.4534
G01 X45.8626 Y6.4596
G01 X45.8405 Y6.4963
G01 X45.8129 Y6.5335
G01 X45.7818 Y6.5678
G01 X37.9078 Y14.4418
G01 X37.8761 Y14.4706
G01 X37.8707 Y14.4751
G01 X37.8363 Y14.5005
G01 X37.7965 Y14.5243
G01 X37.7579 Y14.5427
G01 X37.7514 Y14.5454
G01 X37.7110 Y14.5597
G01 X37.6695 Y14.5702
G01 X37.6626 Y14.5716
G01 X37.6203 Y14.5778
G01 X37.5740 Y14.5800
G01 X23.0375 Y14.5800
G01 X20.1377 Y17.4799
G01 X20.1414 Y17.4956
G01 X20.1537 Y17.5785
G01 X20.1578 Y17.6605
G01 X20.1578 Y17.6675
G01 X20.1537 Y17.7495
G01 X20.1417 Y17.8306
G01 X20.1403 Y17.8375
G01 X20.1203 Y17.9171
G01 X20.0915 Y17.9976
G01 X20.0565 Y18.0718
G01 X20.0532 Y18.0781
G01 X20.0109 Y18.1484
G01 X19.9621 Y18.2143
G01 X19.9576 Y18.2198
G01 X19.9025 Y18.2805
G01 X19.8418 Y18.3356
G01 X19.8363 Y18.3401
G01 X19.7704 Y18.3889
G01 X19.7001 Y18.4312
G01 X19.6938 Y18.4345
G01 X19.6196 Y18.4695
G01 X19.5424 Y18.4972
G01 X19.5357 Y18.4992
G01 X19.4561 Y18.5191
G01 X19.3750 Y18.5312
G01 X19.3679 Y18.5319
G01 X19.2860 Y18.5358
G01 X19.2041 Y18.5319
G01 X19.1970 Y18.5312
G01 X19.1159 Y18.5191
G01 X19.0363 Y18.4992
G00 Z2.0000
G00 X16.9126 Y16.8083
G01 F30.00
G01 Z-0.0600
G01 F60.00
G01 X16.9301 Y16.8123
G01 X21.7475 Y11.9950
G01 X21.7805 Y11.9651
G01 X21.8149 Y11.9395
G01 X21.8207 Y11.9356
G01 X21.8575 Y11.9137
G01 X21.8961 Y11.8953
G01 X21.9026 Y11.8926
G01 X21.9430 Y11.8783
G01 X21.9845 Y11.8678
G01 X21.9914 Y11.8664
G01 X22.0337 Y11.8602
G01 X22.0800 Y11.8580
G01 X36.8705 Y11.8580
G01 X42.9439 Y5.7845
G01 X42.9440 Y5.1142
G01 X42.9331 Y5.1017
G01 X42.9010 Y5.0584
G01 X42.8971 Y5.0525
G01 X42.8676 Y5.0031
G01 X42.8429 Y4.9512
G01 X42.8402 Y4.9447
G01 X42.8209 Y4.8905
G01 X42.8061 Y4.8313
G01 X42.7971 Y4.7710
G01 X42.7942 Y4.7082
G01 X42.7971 Y4.6490
G01 X42.8061 Y4.5887
G01 X42.8209 Y4.5295
G01 X42.8415 Y4.4720
G01 X42.8676 Y4.4169
G01 X42.8990 Y4.3645
G01 X42.9353 Y4.3155
G01 X42.9751 Y4.2715
G01 X43.0215 Y4.2293
G01 X43.0676 Y4.1950
G01 X43.0735 Y4.1911
G01 X43.1229 Y4.1616
G01 X43.1748 Y4.1369
G01 X43.1813 Y4.1342
G01 X43.2355 Y4.1149
G01 X43.2947 Y4.1001
G01 X43.3515 Y4.0916
G01 X43.3586 Y4.0909
G01 X43.4160 Y4.0882
G01 X43.4734 Y4.0909
G01 X43.4805 Y4.0916
G01 X43.5373 Y4.1001
G01 X43.5965 Y4.1149
G01 X43.6507 Y4.1342
G01 X43.6572 Y4.1369
G01 X43.7091 Y4.1616
G01 X43.7585 Y4.1911
G01 X43.7644 Y4.1950
G01 X43.8105 Y4.2293
G01 X43.8557 Y4.2703
G01 X43.8944 Y4.3128
G01 X43.8989 Y4.3183
G01 X43.9330 Y4.3645
G01 X43.9627 Y4.4138
G01 X43.9660 Y4.4200
G01 X43.9898 Y4.4704
G01 X44.0100 Y4.5261
G01 X44.0120 Y4.5329
G01 X44.0259 Y4.5887
G01 X44.0344 Y4.6455
G01 X44.0351 Y4.6526
G01 X44.0378 Y4.7100
G01 X44.0347 Y4.7727
G01 X44.0259 Y4.8313
G01 X44.0120 Y4.8871
G01 X44.0100 Y4.8939
G01 X43.9898 Y4.9496
G01 X43.9644 Y5.0031
G01 X43.9340 Y5.0540
G01 X43.8978 Y5.1031
G01 X43.8881 Y5.1142
G01 X43.8880 Y5.9800
G01 X43.8858 Y6.0263
G01 X43.8790 Y6.0721
G01 X43.8687 Y6.1136
G01 X43.8666 Y6.1204
G01 X43.8521 Y6.1606
G01 X43.8339 Y6.1994
G01 X43.8306 Y6.2056
G01 X43.8085 Y6.2423
G01 X43.7809 Y6.2795
G01 X43.7498 Y6.3138
G01 X37.3998 Y12.6638
G01 X37.3655 Y12.6949
G01 X37.3283 Y12.7225
G01 X37.2885 Y12.7463
G01 X37.2483 Y12.7654
G01 X37.2030 Y12.7817
G01 X37.1581 Y12.7930
G01 X37.1123 Y12.7998
G01 X37.0660 Y12.8020
G01 X22.2755 Y12.8020
G01 X17.5977 Y17.4799
G01 X17.6014 Y17.4956
G01 X17.6137 Y17.5785
G01 X17.6178 Y17.6605
G01 X17.6178 Y17.6675
G01 X17.6137 Y17.7495
G01 X17.6017 Y17.8306
G01 X17.6003 Y17.8375
G01 X17.5803 Y17.9171
G01 X17.5515 Y17.9976
G01 X17.5165 Y18.0718
G01 X17.5132 Y18.0781
G01 X17.4709 Y18.1484
G01 X17.4221 Y18.2143
G01 X17.4176 Y18.2198
G01 X17.3625 Y18.2805
G01 X17.3018 Y18.3356
G01 X17.2963 Y18.3401
G01 X17.2304 Y18.3889
G01 X17.1601 Y18.4312
G01 X17.1538 Y18.4345
G01 X17.0796 Y18.4695
G01 X16.9991 Y18.4983
G01 X16.9195 Y18.5183
G01 X16.9126 Y18.5197
G01 X16.8315 Y18.5317
G01 X16.7495 Y18.5358
G01 X16.7425 Y18.5358
G01 X16.6605 Y18.5317
G01 X16.5759 Y18.5191
G01 X16.4929 Y18.4983
G01 X16.4124 Y18.4695
G01 X16.3350 Y18.4329
G01 X16.2616 Y18.3889
G01 X16.1929 Y18.3379
G01 X16.1295 Y18.2805
G01 X16.0721 Y18.2171
G01 X16.0211 Y18.1484
G01 X15.9771 Y18.0750
G01 X15.9405 Y17.9976
G01 X15.9117 Y17.9171
G01 X15.8909 Y17.8341
G01 X15.8783 Y17.7495
G01 X15.8742 Y17.6640
G01 X15.8783 Y17.5785
G01 X15.8909 Y17.4939
G01 X15.9117 Y17.4109
G01 X15.9405 Y17.3304
G01 X15.9771 Y17.2530
G01 X16.0211 Y17.1796
G01 X16.0721 Y17.1109
G01 X16.1295 Y17.0475
G01 X16.1929 Y16.9901
G01 X16.2616 Y16.9391
G01 X16.3350 Y16.8951
G01 X16.4124 Y16.8585
G01 X16.4929 Y16.8297
G01 X16.5759 Y16.8089
G01 X16.6605 Y16.7963
G01 X16.7460 Y16.7922
G01 X16.8315 Y16.7963
G01 X16.9126 Y16.8083
G00 Z2.0000
G00 X14.3744 Y16.8086
G01 F30.00
G01 Z-0.0600
G01 F60.00
G01 X14.3901 Y16.8123
G01 X20.9842 Y10.2182
G01 X21.0185 Y10.1871
G01 X21.0557 Y10.1595
G01 X21.0955 Y10.1357
G01 X21.1357 Y10.1166
G01 X21.1810 Y10.1003
G01 X21.2259 Y10.0890
G01 X21.2717 Y10.0822
G01 X21.3180 Y10.0800
G01 X36.3625 Y10.0800
G01 X40.9119 Y5.5305
G01 X40.9120 Y5.1142
G01 X40.9011 Y5.1017
G01 X40.8690 Y5.0584
G01 X40.8651 Y5.0525
G01 X40.8356 Y5.0031
G01 X40.8109 Y4.9512
G01 X40.8082 Y4.9447
G01 X40.7889 Y4.8905
G01 X40.7741 Y4.8313
G01 X40.7651 Y4.7710
G01 X40.7622 Y4.7082
G01 X40.7651 Y4.6490
G01 X40.7741 Y4.5887
G01 X40.7889 Y4.5295
G01 X40.8095 Y4.4720
G01 X40.8356 Y4.4169
G01 X40.8670 Y4.3645
G01 X40.9033 Y4.3155
G01 X40.9443 Y4.2703
G01 X40.9895 Y4.2293
G01 X41.0356 Y4.1950
G01 X41.0415 Y4.1911
G01 X41.0909 Y4.1616
G01 X41.1428 Y4.1369
G01 X41.1493 Y4.1342
G01 X41.2035 Y4.1149
G01 X41.2627 Y4.1001
G01 X41.3195 Y4.0916
G01 X41.3266 Y4.0909
G01 X41.3840 Y4.0882
G01 X41.4414 Y4.0909
G01 X41.4485 Y4.0916
G01 X41.5053 Y4.1001
G01 X41.5645 Y4.1149
G01 X41.6187 Y4.1342
G01 X41.6252 Y4.1369
G01 X41.6771 Y4.1616
G01 X41.7265 Y4.1911
G01 X41.7324 Y4.1950
G01 X41.7785 Y4.2293
G01 X41.8237 Y4.2703
G01 X41.8624 Y4.3128
G01 X41.8669 Y4.3183
G01 X41.9010 Y4.3645
G01 X41.9307 Y4.4138
G01 X41.9340 Y4.4200
G01 X41.9578 Y4.4704
G01 X41.9780 Y4.5261
G01 X41.9800 Y4.5329
G01 X41.9939 Y4.5887
G01 X42.0024 Y4.6455
G01 X42.0031 Y4.6526
G01 X42.0058 Y4.7100
G01 X42.0027 Y4.7727
G01 X41.9939 Y4.8313
G01 X41.9800 Y4.8871
G01 X41.9780 Y4.8939
G01 X41.9578 Y4.9496
G01 X41.9324 Y5.0031
G01 X41.9020 Y5.0540
G01 X41.8658 Y5.1031
G01 X41.8561 Y5.1142
G01 X41.8560 Y5.7260
G01 X41.8536 Y5.7740
G01 X41.8470 Y5.8181
G01 X41.8367 Y5.8596
G01 X41.8346 Y5.8664
G01 X41.8201 Y5.9066
G01 X41.8019 Y5.9454
G01 X41.7986 Y5.9516
G01 X41.7765 Y5.9883
G01 X41.7489 Y6.0255
G01 X41.7178 Y6.0598
G01 X36.8918 Y10.8858
G01 X36.8575 Y10.9169
G01 X36.8203 Y10.9445
G01 X36.7805 Y10.9683
G01 X36.7403 Y10.9874
G01 X36.6950 Y11.0037
G01 X36.6501 Y11.0150
G01 X36.6043 Y11.0218
G01 X36.5580 Y11.0240
G01 X21.5135 Y11.0240
G01 X15.0577 Y17.4799
G01 X15.0614 Y17.4956
G01 X15.0737 Y17.5785
G01 X15.0778 Y17.6605
G01 X15.0778 Y17.6675
G01 X15.0737 Y17.7495
G01 X15.0617 Y17.8306
G01 X15.0603 Y17.8375
G01 X15.0403 Y17.9171
G01 X15.0115 Y17.9976
G01 X14.9765 Y18.0718
G01 X14.9732 Y18.0781
G01 X14.9309 Y18.1484
G01 X14.8821 Y18.2143
G01 X14.8776 Y18.2198
G01 X14.8225 Y18.2805
G01 X14.7618 Y18.3356
G01 X14.7563 Y18.3401
G01 X14.6904 Y18.3889
G01 X14.6201 Y18.4312
G01 X14.6138 Y18.4345
G01 X14.5396 Y18.4695
G01 X14.4591 Y18.4983
G01 X14.3795 Y18.5183
G01 X14.3726 Y18.5197
G01 X14.2915 Y18.5317
G01 X14.2095 Y18.5358
G01 X14.2025 Y18.5358
G01 X14.1205 Y18.5317
G01 X14.0359 Y18.5191
G01 X13.9529 Y18.4983
G01 X13.8724 Y18.4695
G01 X13.7950 Y18.4329
G01 X13.7216 Y18.3889
G01 X13.6529 Y18.3379
G01 X13.5895 Y18.2805
G01 X13.5321 Y18.2171
G01 X13.4811 Y18.1484
G01 X13.4371 Y18.0750
G01 X13.4005 Y17.9976
G01 X13.3717 Y17.9171
G01 X13.3509 Y17.8341
G01 X13.3383 Y17.7495
G01 X13.3342 Y17.6640
G01 X13.3383 Y17.5785
G01 X13.3509 Y17.4939
G01 X13.3717 Y17.4109
G01 X13.4005 Y17.3304
G01 X13.4371 Y17.2530
G01 X13.4811 Y17.1796
G01 X13.5321 Y17.1109
G01 X13.5895 Y17.0475
G01 X13.6529 Y16.9901
G01 X13.7216 Y16.9391
G01 X13.7950 Y16.8951
G01 X13.8724 Y16.8585
G01 X13.9529 Y16.8297
G01 X14.0359 Y16.8089
G01 X14.1205 Y16.7963
G01 X14.2060 Y16.7922
G01 X14.2915 Y16.7963
G01 X14.3744 Y16.8086
G00 Z2.0000
G00 X11.6053 Y16.4234
G01 F30.00
G01 Z-0.0600
G01 F60.00
G01 X11.8485 Y16.4354
G01 X12.0846 Y16.4946
G01 X12.2418 Y16.5690
G01 X12.2550 Y16.6141
G01 X12.0071 Y16.8620
G01 X11.9964 Y16.8572
G01 X11.9191 Y16.8297
G01 X11.8361 Y16.8089
G01 X11.7515 Y16.7963
G01 X11.6660 Y16.7922
G01 X11.5805 Y16.7963
G01 X11.4959 Y16.8089
G01 X11.4129 Y16.8297
G01 X11.3356 Y16.8572
G01 X11.3249 Y16.8620
G01 X11.0770 Y16.6141
G01 X11.0919 Y16.5634
G01 X11.1305 Y16.5427
G01 X11.3644 Y16.4591
G01 X11.6053 Y16.4234
G00 Z2.0000
G00 X9.9315 Y17.9976
G01 F30.00
G01 Z-0.0600
G01 F60.00
G01 X9.9603 Y17.9171
G01 X9.9811 Y17.8341
G01 X9.9937 Y17.7495
G01 X9.9978 Y17.6640
G01 X9.9937 Y17.5785
G01 X9.9811 Y17.4939
G01 X9.9603 Y17.4109
G01 X9.9328 Y17.3336
G01 X9.9280 Y17.3229
G01 X10.1759 Y17.0750
G01 X10.2271 Y17.0900
G01 X10.2339 Y17.1010
G01 X10.2437 Y17.1141
G01 X10.2596 Y17.1315
G01 X10.2732 Y17.1435
G01 X10.2864 Y17.1532
G01 X10.2924 Y17.1571
G01 X10.3082 Y17.1661
G01 X10.3231 Y17.1729
G01 X10.3282 Y17.1748
G01 X10.3437 Y17.1800
G01 X10.3596 Y17.1837
G01 X10.3649 Y17.1848
G01 X10.3811 Y17.1868
G01 X10.4011 Y17.1875
G01 X10.4228 Y17.1860
G01 X10.4442 Y17.1821
G01 X10.4600 Y17.1777
G01 X10.4651 Y17.1759
G01 X10.4802 Y17.1698
G01 X10.4948 Y17.1623
G01 X10.5010 Y17.1587
G01 X10.5147 Y17.1497
G01 X10.5275 Y17.1396
G01 X10.5329 Y17.1348
G01 X10.5445 Y17.1232
G01 X10.5562 Y17.1093
G01 X10.5665 Y17.0943
G01 X10.5700 Y17.0885
G01 X10.6161 Y17.0750
G01 X10.8640 Y17.3229
G01 X10.8592 Y17.3336
G01 X10.8317 Y17.4109
G01 X10.8109 Y17.4939
G01 X10.7983 Y17.5785
G01 X10.7942 Y17.6640
G01 X10.7983 Y17.7495
G01 X10.8109 Y17.8341
G01 X10.8317 Y17.9171
G01 X10.8592 Y17.9944
G01 X10.8640 Y18.0051
G01 X10.6161 Y18.2530
G01 X10.5649 Y18.2380
G01 X10.5581 Y18.2270
G01 X10.5483 Y18.2139
G01 X10.5324 Y18.1965
G01 X10.5188 Y18.1845
G01 X10.5056 Y18.1748
G01 X10.4996 Y18.1709
G01 X10.4838 Y18.1619
G01 X10.4689 Y18.1551
G01 X10.4638 Y18.1532
G01 X10.4483 Y18.1480
G01 X10.4324 Y18.1443
G01 X10.4271 Y18.1432
G01 X10.4109 Y18.1412
G01 X10.3909 Y18.1405
G01 X10.3692 Y18.1420
G01 X10.3478 Y18.1459
G01 X10.3320 Y18.1503
G01 X10.3269 Y18.1521
G01 X10.3118 Y18.1582
G01 X10.2972 Y18.1657
G01 X10.2910 Y18.1693
G01 X10.2773 Y18.1783
G01 X10.2645 Y18.1884
G01 X10.2591 Y18.1932
G01 X10.2475 Y18.2048
G01 X10.2358 Y18.2187
G01 X10.2255 Y18.2337
G01 X10.2220 Y18.2395
G01 X10.1759 Y18.2530
G01 X9.9280 Y18.0051
G01 X9.9315 Y17.9976
G00 Z2.0000
G00 X9.0653 Y16.4234
G01 F30.00
G01 Z-0.0600
G01 F60.00
G01 X9.3085 Y16.4354
G01 X9.5446 Y16.4946
G01 X9.7018 Y16.5690
G01 X9.7150 Y16.6141
G01 X9.4671 Y16.8620
G01 X9.4564 Y16.8572
G01 X9.3791 Y16.8297
G01 X9.2961 Y16.8089
G01 X9.2115 Y16.7963
G01 X9.1260 Y16.7922
G01 X9.0405 Y16.7963
G01 X8.9559 Y16.8089
G01 X8.8729 Y16.8297
G01 X8.7956 Y16.8572
G01 X8.7849 Y16.8620
G01 X8.5370 Y16.6141
G01 X8.5519 Y16.5634
G01 X8.5905 Y16.5427
G01 X8.8244 Y16.4591
G01 X9.0653 Y16.4234
G00 Z2.0000
G00 X7.4532 Y17.5750
G01 F30.00
G01 Z-0.0600
G01 F60.00
G01 X7.4539 Y17.5821
G01 X7.4578 Y17.6640
G01 X7.4537 Y17.7495
G01 X7.4411 Y17.8341
G01 X7.4203 Y17.9171
G01 X7.3915 Y17.9976
G01 X7.3549 Y18.0750
G01 X7.3109 Y18.1484
G01 X7.2599 Y18.2171
G01 X7.2025 Y18.2805
G01 X7.1391 Y18.3379
G01 X7.0704 Y18.3889
G01 X6.9970 Y18.4329
G01 X6.9196 Y18.4695
G01 X6.8391 Y18.4983
G01 X6.7561 Y18.5191
G01 X6.6715 Y18.5317
G01 X6.5860 Y18.5358
G01 X6.5005 Y18.5317
G01 X6.4159 Y18.5191
G01 X6.3329 Y18.4983
G01 X6.2524 Y18.4695
G01 X6.1750 Y18.4329
G01 X6.1016 Y18.3889
G01 X6.0329 Y18.3379
G01 X5.9695 Y18.2805
G01 X5.9121 Y18.2171
G01 X5.8611 Y18.1484
G01 X5.8171 Y18.0750
G01 X5.7805 Y17.9976
G01 X5.7517 Y17.9171
G01 X5.7309 Y17.8341
G01 X5.7183 Y17.7495
G01 X5.7142 Y17.6640
G01 X5.7183 Y17.5785
G01 X5.7309 Y17.4939
G01 X5.7517 Y17.4109
G01 X5.7805 Y17.3304
G01 X5.8171 Y17.2530
G01 X5.8611 Y17.1796
G01 X5.9121 Y17.1109
G01 X5.9695 Y17.0475
G01 X6.0329 Y16.9901
G01 X6.1016 Y16.9391
G01 X6.1750 Y16.8951
G01 X6.2524 Y16.8585
G01 X6.3329 Y16.8297
G01 X6.4159 Y16.8089
G01 X6.5005 Y16.7963
G01 X6.5860 Y16.7922
G01 X6.6715 Y16.7963
G01 X6.7561 Y16.8089
G01 X6.8391 Y16.8297
G01 X6.9196 Y16.8585
G01 X6.9970 Y16.8951
G01 X7.0704 Y16.9391
G01 X7.1391 Y16.9901
G01 X7.2025 Y17.0475
G01 X7.2599 Y17.1109
G01 X7.3109 Y17.1796
G01 X7.3549 Y17.2530
G01 X7.3915 Y17.3304
G01 X7.4203 Y17.4109
G01 X7.4411 Y17.4939
G01 X7.4532 Y17.5750
G00 Z2.0000
G00 X4.8530 Y18.5355
G01 F30.00
G01 Z-0.0600
G01 F60.00
G01 X4.8460 Y18.5358
G01 X3.2442 Y18.5358
G01 X3.2372 Y18.5353
G01 X3.2303 Y18.5341
G01 X3.2235 Y18.5322
G01 X3.2169 Y18.5297
G01 X3.2106 Y18.5265
G01 X3.2046 Y18.5227
G01 X3.1991 Y18.5184
G01 X3.1940 Y18.5135
G01 X3.1894 Y18.5082
G01 X3.1853 Y18.5024
G01 X3.1818 Y18.4963
G01 X3.1790 Y18.4899
G01 X3.1768 Y18.4832
G01 X3.1752 Y18.4763
G01 X3.1743 Y18.4693
G01 X3.1742 Y18.4640
G01 X3.1742 Y16.8640
G01 X3.1745 Y16.8570
G01 X3.1759 Y16.8483
G01 X3.1778 Y16.8415
G01 X3.1803 Y16.8349
G01 X3.1835 Y16.8286
G01 X3.1873 Y16.8226
G01 X3.1916 Y16.8171
G01 X3.1965 Y16.8120
G01 X3.2018 Y16.8074
G01 X3.2076 Y16.8033
G01 X3.2137 Y16.7998
G01 X3.2201 Y16.7970
G01 X3.2268 Y16.7948
G01 X3.2337 Y16.7932
G01 X3.2407 Y16.7923
G01 X3.2460 Y16.7922
G01 X4.8460 Y16.7922
G01 X4.8530 Y16.7925
G01 X4.8600 Y16.7935
G01 X4.8685 Y16.7958
G01 X4.8751 Y16.7983
G01 X4.8814 Y16.8015
G01 X4.8874 Y16.8053
G01 X4.8929 Y16.8096
G01 X4.8980 Y16.8145
G01 X4.9026 Y16.8198
G01 X4.9067 Y16.8256
G01 X4.9102 Y16.8317
G01 X4.9130 Y16.8381
G01 X4.9148 Y16.8431
G01 X4.9165 Y16.8500
G01 X4.9175 Y16.8570
G01 X4.9178 Y16.8640
G01 X4.9178 Y18.4658
G01 X4.9173 Y18.4728
G01 X4.9161 Y18.4797
G01 X4.9148 Y18.4849
G01 X4.9124 Y18.4915
G01 X4.9102 Y18.4963
G01 X4.9067 Y18.5024
G01 X4.9026 Y18.5082
G01 X4.8992 Y18.5123
G01 X4.8955 Y18.5160
G01 X4.8902 Y18.5206
G01 X4.8844 Y18.5247
G01 X4.8783 Y18.5282
G01 X4.8719 Y18.5310
G01 X4.8652 Y18.5332
G01 X4.8600 Y18.5345
G01 X4.8530 Y18.5355
G00 Z2.0000
G00 X0.7229 Y19.0287
G01 F30.00
G01 Z-0.0600
G01 F60.00
G01 X0.7221 Y19.0110
G01 X0.7221 Y1.0770
G01 X0.7230 Y1.0575
G01 X0.7253 Y1.0417
G01 X0.7297 Y1.0227
G01 X0.7318 Y1.0159
G01 X0.7372 Y1.0009
G01 X0.7456 Y0.9832
G01 X0.7556 Y0.9665
G01 X0.7661 Y0.9522
G01 X0.7803 Y0.9363
G01 X0.7948 Y0.9232
G01 X0.8105 Y0.9116
G01 X0.8242 Y0.9033
G01 X0.8304 Y0.9000
G01 X0.8449 Y0.8932
G01 X0.8599 Y0.8878
G01 X0.8788 Y0.8827
G01 X0.8857 Y0.8813
G01 X0.9015 Y0.8790
G01 X0.9210 Y0.8781
G01 X3.5499 Y0.8781
G01 X3.5676 Y0.8790
G01 X3.5852 Y0.8816
G01 X3.6025 Y0.8857
G01 X3.6092 Y0.8878
G01 X3.6242 Y0.8932
G01 X3.6419 Y0.9016
G01 X3.6586 Y0.9116
G01 X3.6729 Y0.9221
G01 X3.6888 Y0.9363
G01 X3.7019 Y0.9508
G01 X3.7135 Y0.9665
G01 X3.7235 Y0.9832
G01 X3.7319 Y1.0009
G01 X3.7385 Y1.0193
G01 X3.7432 Y1.0382
G01 X3.7461 Y1.0575
G01 X3.7470 Y1.0770
G01 X3.7461 Y1.0965
G01 X3.7432 Y1.1158
G01 X3.7385 Y1.1347
G01 X3.7319 Y1.1531
G01 X3.7235 Y1.1708
G01 X3.7135 Y1.1875
G01 X3.7030 Y1.2018
G01 X3.6888 Y1.2177
G01 X3.6743 Y1.2308
G01 X3.6586 Y1.2424
G01 X3.6419 Y1.2524
G01 X3.6242 Y1.2608
G01 X3.4605 Y1.3286
G01 X3.2580 Y1.4639
G01 X3.0859 Y1.6360
G01 X2.9506 Y1.8385
G01 X2.8574 Y2.0634
G01 X2.8099 Y2.3023
G01 X2.8099 Y2.5457
G01 X2.8574 Y2.7846
G01 X2.9506 Y3.0095
G01 X3.0859 Y3.2120
G01 X3.2580 Y3.3841
G01 X3.4605 Y3.5194
G01 X3.6854 Y3.6126
G01 X3.9243 Y3.6601
G01 X4.1677 Y3.6601
G01 X4.4066 Y3.6126
G01 X4.6315 Y3.5194
G01 X4.8340 Y3.3841
G01 X5.0061 Y3.2120
G01 X5.1515 Y2.9944
G01 X5.1621 Y2.9801
G01 X5.1763 Y2.9642
G01 X5.1907 Y2.9511
G01 X5.2064 Y2.9395
G01 X5.2216 Y2.9303
G01 X5.2408 Y2.9211
G01 X5.2592 Y2.9145
G01 X5.2781 Y2.9098
G01 X5.2957 Y2.9071
G01 X5.3169 Y2.9060
G01 X5.3347 Y2.9068
G01 X5.3557 Y2.9098
G01 X5.3713 Y2.9136
G01 X5.3914 Y2.9204
G01 X5.4091 Y2.9286
G01 X5.4274 Y2.9395
G01 X5.4403 Y2.9489
G01 X5.4563 Y2.9630
G01 X5.4684 Y2.9760
G01 X5.4803 Y2.9915
G01 X5.4845 Y2.9979
G01 X5.5361 Y3.0130
G01 X5.7840 Y2.7651
G01 X5.7792 Y2.7544
G01 X5.7517 Y2.6771
G01 X5.7309 Y2.5941
G01 X5.7183 Y2.5095
G01 X5.7142 Y2.4240
G01 X5.7183 Y2.3385
G01 X5.7309 Y2.2539
G01 X5.7517 Y2.1709
G01 X5.7792 Y2.0936
G01 X5.7840 Y2.0829
G01 X5.5361 Y1.8350
G01 X5.4898 Y1.8486
G01 X5.4780 Y1.8662
G01 X5.4653 Y1.8815
G01 X5.4511 Y1.8955
G01 X5.4356 Y1.9080
G01 X5.4188 Y1.9189
G01 X5.4011 Y1.9281
G01 X5.3826 Y1.9354
G01 X5.3651 Y1.9404
G01 X5.3438 Y1.9443
G01 X5.3239 Y1.9458
G01 X5.3039 Y1.9453
G01 X5.2841 Y1.9429
G01 X5.2647 Y1.9384
G01 X5.2458 Y1.9320
G01 X5.2277 Y1.9238
G01 X5.2119 Y1.9147
G01 X5.1942 Y1.9021
G01 X5.1806 Y1.8901
G01 X5.1658 Y1.8741
G01 X5.1560 Y1.8611
G01 X5.1463 Y1.8459
G01 X5.0061 Y1.6360
G01 X4.8340 Y1.4639
G01 X4.6315 Y1.3286
G01 X4.4645 Y1.2593
G01 X4.4501 Y1.2524
G01 X4.4349 Y1.2434
G01 X4.4163 Y1.2296
G01 X4.4008 Y1.2151
G01 X4.3901 Y1.2032
G01 X4.3805 Y1.1904
G01 X4.3766 Y1.1845
G01 X4.3685 Y1.1708
G01 X4.3601 Y1.1531
G01 X4.3535 Y1.1347
G01 X4.3496 Y1.1192
G01 X4.3482 Y1.1123
G01 X4.3459 Y1.0965
G01 X4.3451 Y1.0805
G01 X4.3458 Y1.0593
G01 X4.3488 Y1.0382
G01 X4.3541 Y1.0176
G01 X4.3615 Y0.9977
G01 X4.3685 Y0.9832
G01 X4.3766 Y0.9695
G01 X4.3805 Y0.9636
G01 X4.3901 Y0.9508
G01 X4.4032 Y0.9363
G01 X4.4177 Y0.9232
G01 X4.4305 Y0.9136
G01 X4.4364 Y0.9097
G01 X4.4501 Y0.9016
G01 X4.4645 Y0.8947
G01 X4.4711 Y0.8920
G01 X4.4861 Y0.8867
G01 X4.5016 Y0.8827
G01 X4.5086 Y0.8813
G01 X4.5244 Y0.8790
G01 X4.5421 Y0.8781
G01 X6.0911 Y0.8781
G01 X6.1068 Y0.8788
G01 X6.1137 Y0.8794
G01 X6.1292 Y0.8818
G01 X6.1478 Y0.8864
G01 X6.1659 Y0.8927
G01 X6.1833 Y0.9008
G01 X6.1999 Y0.9105
G01 X6.2154 Y0.9218
G01 X6.2298 Y0.9345
G01 X6.2429 Y0.9485
G01 X6.2546 Y0.9637
G01 X6.2647 Y0.9800
G01 X6.2733 Y0.9972
G01 X6.2801 Y1.0151
G01 X6.2852 Y1.0336
G01 X6.2885 Y1.0525
G01 X6.2899 Y1.0716
G01 X6.2895 Y1.0908
G01 X6.2872 Y1.1099
G01 X6.2840 Y1.1252
G01 X6.2822 Y1.1319
G01 X6.2773 Y1.1469
G01 X6.2704 Y1.1629
G01 X6.2595 Y1.1828
G01 X6.2496 Y1.1971
G01 X6.2396 Y1.2092
G01 X6.2349 Y1.2143
G01 X6.2223 Y1.2264
G01 X6.2087 Y1.2374
G01 X6.1957 Y1.2461
G01 X6.1897 Y1.2497
G01 X6.1758 Y1.2570
G01 X6.1580 Y1.2643
G01 X6.0505 Y1.3027
G01 X6.0119 Y1.3234
G01 X5.9970 Y1.3741
G01 X6.2449 Y1.6220
G01 X6.2556 Y1.6172
G01 X6.3329 Y1.5897
G01 X6.4159 Y1.5689
G01 X6.5005 Y1.5563
G01 X6.5860 Y1.5522
G01 X6.6715 Y1.5563
G01 X6.7561 Y1.5689
G01 X6.8391 Y1.5897
G01 X6.9164 Y1.6172
G01 X6.9271 Y1.6220
G01 X7.1750 Y1.3741
G01 X7.1618 Y1.3290
G01 X7.0077 Y1.2560
G01 X6.9917 Y1.2474
G01 X6.9782 Y1.2384
G01 X6.9738 Y1.2352
G01 X6.9613 Y1.2248
G01 X6.9460 Y1.2095
G01 X6.9357 Y1.1969
G01 X6.9315 Y1.1911
G01 X6.9226 Y1.1774
G01 X6.9150 Y1.1630
G01 X6.9120 Y1.1564
G01 X6.9061 Y1.1413
G01 X6.9006 Y1.1221
G01 X6.8971 Y1.1026
G01 X6.8955 Y1.0828
G01 X6.8959 Y1.0629
G01 X6.8983 Y1.0432
G01 X6.9027 Y1.0238
G01 X6.9090 Y1.0049
G01 X6.9155 Y0.9900
G01 X6.9179 Y0.9852
G01 X6.9260 Y0.9710
G01 X6.9364 Y0.9562
G01 X6.9408 Y0.9506
G01 X6.9542 Y0.9359
G01 X6.9662 Y0.9249
G01 X6.9820 Y0.9128
G01 X6.9990 Y0.9024
G01 X7.0169 Y0.8938
G01 X7.0356 Y0.8870
G01 X7.0548 Y0.8821
G01 X7.0745 Y0.8791
G01 X7.0943 Y0.8781
G01 X8.6281 Y0.8781
G01 X8.6476 Y0.8790
G01 X8.6669 Y0.8819
G01 X8.6859 Y0.8867
G01 X8.7009 Y0.8920
G01 X8.7075 Y0.8947
G01 X8.7219 Y0.9016
G01 X8.7356 Y0.9097
G01 X8.7415 Y0.9136
G01 X8.7543 Y0.9232
G01 X8.7662 Y0.9339
G01 X8.7712 Y0.9389
G01 X8.7819 Y0.9508
G01 X8.7915 Y0.9636
G01 X8.7954 Y0.9695
G01 X8.8035 Y0.9832
G01 X8.8125 Y1.0025
G01 X8.8194 Y1.0227
G01 X8.8232 Y1.0382
G01 X8.8256 Y1.0540
G01 X8.8263 Y1.0610
G01 X8.8270 Y1.0770
G01 X8.8259 Y1.0982
G01 X8.8232 Y1.1158
G01 X8.8194 Y1.1313
G01 X8.8125 Y1.1515
G01 X8.8035 Y1.1708
G01 X8.7925 Y1.1890
G01 X8.7796 Y1.2059
G01 X8.7688 Y1.2177
G01 X8.7570 Y1.2285
G01 X8.7515 Y1.2329
G01 X8.7371 Y1.2434
G01 X8.7219 Y1.2524
G01 X8.7075 Y1.2593
G01 X8.5405 Y1.3286
G01 X8.3380 Y1.4639
G01 X8.1659 Y1.6360
G01 X8.0184 Y1.8565
G01 X8.0088 Y1.8693
G01 X7.9945 Y1.8850
G01 X7.9813 Y1.8969
G01 X7.9641 Y1.9095
G01 X7.9489 Y1.9186
G01 X7.9312 Y1.9269
G01 X7.9128 Y1.9335
G01 X7.8939 Y1.9382
G01 X7.8746 Y1.9411
G01 X7.8551 Y1.9420
G01 X7.8356 Y1.9411
G01 X7.8146 Y1.9379
G01 X7.7973 Y1.9335
G01 X7.7790 Y1.9269
G01 X7.7613 Y1.9186
G01 X7.7431 Y1.9075
G01 X7.7289 Y1.8969
G01 X7.7132 Y1.8825
G01 X7.7002 Y1.8679
G01 X7.6907 Y1.8551
G01 X7.6875 Y1.8501
G01 X7.6359 Y1.8350
G01 X7.3880 Y2.0829
G01 X7.3928 Y2.0936
G01 X7.4203 Y2.1709
G01 X7.4411 Y2.2539
G01 X7.4537 Y2.3385
G01 X7.4578 Y2.4240
G01 X7.4537 Y2.5095
G01 X7.4411 Y2.5941
G01 X7.4203 Y2.6771
G01 X7.3928 Y2.7544
G01 X7.3880 Y2.7651
G01 X7.6359 Y3.0130
G01 X7.6822 Y2.9994
G01 X7.6940 Y2.9818
G01 X7.7067 Y2.9665
G01 X7.7209 Y2.9525
G01 X7.7336 Y2.9422
G01 X7.7501 Y2.9310
G01 X7.7563 Y2.9274
G01 X7.7725 Y2.9192
G01 X7.7877 Y2.9132
G01 X7.7929 Y2.9115
G01 X7.8086 Y2.9072
G01 X7.8300 Y2.9035
G01 X7.8481 Y2.9022
G01 X7.8699 Y2.9028
G01 X7.8879 Y2.9051
G01 X7.9073 Y2.9096
G01 X7.9262 Y2.9160
G01 X7.9459 Y2.9251
G01 X7.9616 Y2.9342
G01 X7.9791 Y2.9471
G01 X7.9939 Y2.9605
G01 X8.0050 Y2.9725
G01 X8.0084 Y2.9767
G01 X8.0181 Y2.9898
G01 X8.0257 Y3.0021
G01 X8.1659 Y3.2120
G01 X8.3380 Y3.3841
G01 X8.5405 Y3.5194
G01 X8.7654 Y3.6126
G01 X9.0043 Y3.6601
G01 X9.2477 Y3.6601
G01 X9.4866 Y3.6126
G01 X9.7115 Y3.5194
G01 X9.9140 Y3.3841
G01 X10.0861 Y3.2120
G01 X10.2326 Y2.9928
G01 X10.2422 Y2.9801
G01 X10.2553 Y2.9656
G01 X10.2698 Y2.9525
G01 X10.2840 Y2.9418
G01 X10.2992 Y2.9326
G01 X10.3054 Y2.9292
G01 X10.3199 Y2.9225
G01 X10.3383 Y2.9159
G01 X10.3572 Y2.9111
G01 X10.3730 Y2.9087
G01 X10.3800 Y2.9080
G01 X10.3995 Y2.9074
G01 X10.4155 Y2.9083
G01 X10.4348 Y2.9111
G01 X10.4537 Y2.9159
G01 X10.4688 Y2.9212
G01 X10.4753 Y2.9239
G01 X10.4913 Y2.9317
G01 X10.5065 Y2.9409
G01 X10.5208 Y2.9514
G01 X10.5341 Y2.9632
G01 X10.5391 Y2.9681
G01 X10.5498 Y2.9801
G01 X10.5604 Y2.9943
G01 X10.7059 Y3.2120
G01 X10.7729 Y3.2790
G01 X10.7848 Y3.2922
G01 X10.7954 Y3.3064
G01 X10.8072 Y3.3262
G01 X10.8148 Y3.3423
G01 X10.8202 Y3.3573
G01 X10.8223 Y3.3641
G01 X10.8261 Y3.3796
G01 X10.8291 Y3.4007
G01 X10.8299 Y3.4184
G01 X10.8299 Y4.3800
G01 X10.8290 Y4.3995
G01 X10.8261 Y4.4188
G01 X10.8223 Y4.4344
G01 X10.8202 Y4.4411
G01 X10.8148 Y4.4562
G01 X10.8056 Y4.4754
G01 X10.7974 Y4.4891
G01 X10.7921 Y4.4969
G01 X10.7178 Y4.6764
G01 X10.6799 Y4.8669
G01 X10.6799 Y5.0611
G01 X10.7178 Y5.2516
G01 X10.7921 Y5.4311
G01 X10.9001 Y5.5926
G01 X11.0374 Y5.7299
G01 X11.1989 Y5.8379
G01 X11.3784 Y5.9122
G01 X11.5689 Y5.9501
G01 X11.7631 Y5.9501
G01 X11.9536 Y5.9122
G01 X12.1331 Y5.8379
G01 X12.2946 Y5.7299
G01 X12.4319 Y5.5926
G01 X12.5399 Y5.4311
G01 X12.6142 Y5.2516
G01 X12.6521 Y5.0611
G01 X12.6521 Y4.8669
G01 X12.6142 Y4.6764
G01 X12.5399 Y4.4969
G01 X12.5346 Y4.4891
G01 X12.5264 Y4.4754
G01 X12.5172 Y4.4562
G01 X12.5107 Y4.4378
G01 X12.5067 Y4.4223
G01 X12.5053 Y4.4154
G01 X12.5030 Y4.3995
G01 X12.5021 Y4.3800
G01 X12.5021 Y3.4184
G01 X12.5030 Y3.3989
G01 X12.5059 Y3.3796
G01 X12.5107 Y3.3607
G01 X12.5172 Y3.3423
G01 X12.5256 Y3.3246
G01 X12.5366 Y3.3064
G01 X12.5472 Y3.2922
G01 X12.5591 Y3.2790
G01 X12.6261 Y3.2120
G01 X12.7716 Y2.9943
G01 X12.7822 Y2.9801
G01 X12.7929 Y2.9681
G01 X12.7979 Y2.9632
G01 X12.8112 Y2.9514
G01 X12.8255 Y2.9409
G01 X12.8422 Y2.9308
G01 X12.8599 Y2.9225
G01 X12.8749 Y2.9170
G01 X12.8938 Y2.9119
G01 X12.9007 Y2.9105
G01 X12.9165 Y2.9083
G01 X12.9360 Y2.9073
G01 X12.9555 Y2.9083
G01 X12.9713 Y2.9105
G01 X12.9782 Y2.9119
G01 X12.9971 Y2.9170
G01 X13.0121 Y2.9225
G01 X13.0298 Y2.9308
G01 X13.0465 Y2.9409
G01 X13.0608 Y2.9514
G01 X13.0741 Y2.9632
G01 X13.0791 Y2.9681
G01 X13.0898 Y2.9801
G01 X13.1004 Y2.9943
G01 X13.2459 Y3.2120
G01 X13.3129 Y3.2790
G01 X13.3248 Y3.2922
G01 X13.3354 Y3.3064
G01 X13.3464 Y3.3246
G01 X13.3533 Y3.3391
G01 X13.3560 Y3.3456
G01 X13.3613 Y3.3607
G01 X13.3653 Y3.3762
G01 X13.3688 Y3.3971
G01 X13.3699 Y3.4184
G01 X13.3699 Y5.9292
G01 X13.3691 Y5.9469
G01 X13.3659 Y5.9800
G01 X13.3820 Y6.1439
G01 X13.4298 Y6.3015
G01 X13.5075 Y6.4468
G01 X13.6119 Y6.5741
G01 X13.6376 Y6.5952
G01 X13.6507 Y6.6071
G01 X17.7751 Y10.7315
G01 X17.7870 Y10.7447
G01 X17.7986 Y10.7604
G01 X17.8087 Y10.7772
G01 X17.8163 Y10.7932
G01 X17.8236 Y10.8132
G01 X17.8280 Y10.8304
G01 X17.8298 Y10.8396
G01 X17.9041 Y11.0191
G01 X18.0121 Y11.1806
G01 X18.1494 Y11.3179
G01 X18.3109 Y11.4259
G01 X18.4904 Y11.5002
G01 X18.6841 Y11.5387
G01 X18.6923 Y11.5395
G01 X18.7098 Y11.5423
G01 X18.7270 Y11.5467
G01 X18.7421 Y11.5520
G01 X18.7486 Y11.5547
G01 X18.7646 Y11.5624
G01 X18.7827 Y11.5736
G01 X18.7955 Y11.5832
G01 X18.8074 Y11.5939
G01 X18.8124 Y11.5989
G01 X18.8231 Y11.6108
G01 X18.8356 Y11.6280
G01 X18.8447 Y11.6432
G01 X18.8516 Y11.6577
G01 X18.8591 Y11.6776
G01 X18.8644 Y11.6982
G01 X18.8668 Y11.7140
G01 X18.8675 Y11.7210
G01 X18.8682 Y11.7388
G01 X18.8668 Y11.7600
G01 X18.8644 Y11.7758
G01 X18.8606 Y11.7913
G01 X18.8543 Y11.8098
G01 X18.8516 Y11.8163
G01 X18.8447 Y11.8308
G01 X18.8347 Y11.8475
G01 X18.8231 Y11.8632
G01 X18.8099 Y11.8777
G01 X14.3179 Y16.3697
G01 X14.3048 Y16.3816
G01 X14.2878 Y16.3944
G01 X14.2741 Y16.4027
G01 X14.2679 Y16.4060
G01 X14.2534 Y16.4128
G01 X14.2384 Y16.4182
G01 X14.2316 Y16.4203
G01 X14.2161 Y16.4241
G01 X14.1968 Y16.4270
G01 X14.1791 Y16.4279
G01 X14.0843 Y16.4279
G01 X13.8454 Y16.4754
G01 X13.6205 Y16.5686
G01 X13.4180 Y16.7039
G01 X13.2459 Y16.8760
G01 X13.0984 Y17.0965
G01 X13.0888 Y17.1093
G01 X13.0757 Y17.1238
G01 X13.0613 Y17.1369
G01 X13.0456 Y17.1485
G01 X13.0289 Y17.1586
G01 X13.0112 Y17.1669
G01 X12.9928 Y17.1735
G01 X12.9739 Y17.1782
G01 X12.9546 Y17.1811
G01 X12.9351 Y17.1820
G01 X12.9156 Y17.1811
G01 X12.8946 Y17.1779
G01 X12.8773 Y17.1735
G01 X12.8590 Y17.1669
G01 X12.8413 Y17.1586
G01 X12.8231 Y17.1475
G01 X12.8089 Y17.1369
G01 X12.7932 Y17.1225
G01 X12.7802 Y17.1079
G01 X12.7707 Y17.0951
G01 X12.7675 Y17.0901
G01 X12.7159 Y17.0750
G01 X12.4680 Y17.3229
G01 X12.4728 Y17.3336
G01 X12.5003 Y17.4109
G01 X12.5211 Y17.4939
G01 X12.5337 Y17.5785
G01 X12.5378 Y17.6640
G01 X12.5337 Y17.7495
G01 X12.5211 Y17.8341
G01 X12.5003 Y17.9171
G01 X12.4728 Y17.9944
G01 X12.4680 Y18.0051
G01 X12.7159 Y18.2530
G01 X12.7622 Y18.2394
G01 X12.7740 Y18.2218
G01 X12.7867 Y18.2065
G01 X12.8009 Y18.1925
G01 X12.8164 Y18.1800
G01 X12.8332 Y18.1691
G01 X12.8509 Y18.1599
G01 X12.8694 Y18.1526
G01 X12.8904 Y18.1468
G01 X12.9100 Y18.1435
G01 X12.9263 Y18.1422
G01 X12.9317 Y18.1422
G01 X12.9481 Y18.1427
G01 X12.9643 Y18.1446
G01 X12.9838 Y18.1487
G01 X12.9907 Y18.1507
G01 X13.0062 Y18.1560
G01 X13.0243 Y18.1642
G01 X13.0416 Y18.1742
G01 X13.0578 Y18.1859
G01 X13.0700 Y18.1967
G01 X13.0752 Y18.2018
G01 X13.0862 Y18.2139
G01 X13.0971 Y18.2283
G01 X13.1057 Y18.2421
G01 X13.2459 Y18.4520
G01 X13.4180 Y18.6241
G01 X13.6205 Y18.7594
G01 X13.7842 Y18.8272
G01 X13.8003 Y18.8348
G01 X13.8186 Y18.8456
G01 X13.8343 Y18.8572
G01 X13.8488 Y18.8703
G01 X13.8607 Y18.8835
G01 X13.8735 Y18.9005
G01 X13.8818 Y18.9142
G01 X13.8905 Y18.9317
G01 X13.8932 Y18.9382
G01 X13.8985 Y18.9533
G01 X13.9032 Y18.9722
G01 X13.9061 Y18.9915
G01 X13.9070 Y19.0110
G01 X13.9061 Y19.0305
G01 X13.9038 Y19.0463
G01 X13.8994 Y19.0653
G01 X13.8974 Y19.0721
G01 X13.8919 Y19.0871
G01 X13.8835 Y19.1048
G01 X13.8735 Y19.1215
G01 X13.8630 Y19.1358
G01 X13.8488 Y19.1517
G01 X13.8343 Y19.1648
G01 X13.8186 Y19.1764
G01 X13.8003 Y19.1872
G01 X13.7826 Y19.1954
G01 X13.7625 Y19.2023
G01 X13.7469 Y19.2061
G01 X13.7311 Y19.2085
G01 X13.7116 Y19.2098
G01 X12.1609 Y19.2099
G01 X12.1452 Y19.2092
G01 X12.1383 Y19.2086
G01 X12.1228 Y19.2062
G01 X12.1058 Y19.2021
G01 X12.0861 Y19.1953
G01 X12.0687 Y19.1872
G01 X12.0521 Y19.1775
G01 X12.0366 Y19.1662
G01 X12.0222 Y19.1535
G01 X12.0091 Y19.1395
G01 X11.9974 Y19.1243
G01 X11.9873 Y19.1080
G01 X11.9787 Y19.0908
G01 X11.9719 Y19.0729
G01 X11.9668 Y19.0544
G01 X11.9635 Y19.0355
G01 X11.9621 Y19.0164
G01 X11.9625 Y18.9972
G01 X11.9648 Y18.9781
G01 X11.9693 Y18.9577
G01 X11.9747 Y18.9411
G01 X11.9809 Y18.9267
G01 X11.9839 Y18.9204
G01 X11.9916 Y18.9067
G01 X12.0024 Y18.8909
G01 X12.0124 Y18.8788
G01 X12.0171 Y18.8737
G01 X12.0297 Y18.8616
G01 X12.0433 Y18.8506
G01 X12.0563 Y18.8419
G01 X12.0623 Y18.8383
G01 X12.0762 Y18.8310
G01 X12.0940 Y18.8237
G01 X12.2015 Y18.7853
G01 X12.2401 Y18.7646
G01 X12.2550 Y18.7139
G01 X12.0071 Y18.4660
G01 X11.9964 Y18.4708
G01 X11.9191 Y18.4983
G01 X11.8361 Y18.5191
G01 X11.7515 Y18.5317
G01 X11.6660 Y18.5358
G01 X11.5805 Y18.5317
G01 X11.4959 Y18.5191
G01 X11.4129 Y18.4983
G01 X11.3356 Y18.4708
G01 X11.3249 Y18.4660
G01 X11.0770 Y18.7139
G01 X11.0902 Y18.7590
G01 X11.2443 Y18.8320
G01 X11.2603 Y18.8406
G01 X11.2738 Y18.8496
G01 X11.2782 Y18.8528
G01 X11.2907 Y18.8632
G01 X11.3060 Y18.8785
G01 X11.3163 Y18.8911
G01 X11.3205 Y18.8969
G01 X11.3294 Y18.9106
G01 X11.3370 Y18.9250
G01 X11.3400 Y18.9316
G01 X11.3459 Y18.9467
G01 X11.3514 Y18.9659
G01 X11.3549 Y18.9854
G01 X11.3565 Y19.0052
G01 X11.3562 Y19.0215
G01 X11.3559 Y19.0269
G01 X11.3540 Y19.0431
G01 X11.3502 Y19.0608
G01 X11.3443 Y19.0797
G01 X11.3417 Y19.0864
G01 X11.3349 Y19.1013
G01 X11.3250 Y19.1185
G01 X11.3135 Y19.1347
G01 X11.3003 Y19.1496
G01 X11.2858 Y19.1631
G01 X11.2700 Y19.1752
G01 X11.2530 Y19.1856
G01 X11.2351 Y19.1942
G01 X11.2164 Y19.2010
G01 X11.1972 Y19.2059
G01 X11.1775 Y19.2089
G01 X11.1577 Y19.2099
G01 X9.6209 Y19.2099
G01 X9.6001 Y19.2088
G01 X9.5811 Y19.2059
G01 X9.5609 Y19.2006
G01 X9.5429 Y19.1939
G01 X9.5287 Y19.1872
G01 X9.5151 Y19.1793
G01 X9.5093 Y19.1755
G01 X9.4966 Y19.1662
G01 X9.4822 Y19.1535
G01 X9.4691 Y19.1395
G01 X9.4574 Y19.1243
G01 X9.4473 Y19.1080
G01 X9.4387 Y19.0908
G01 X9.4319 Y19.0729
G01 X9.4277 Y19.0578
G01 X9.4261 Y19.0510
G01 X9.4232 Y19.0321
G01 X9.4221 Y19.0164
G01 X9.4224 Y19.0006
G01 X9.4245 Y18.9798
G01 X9.4284 Y18.9611
G01 X9.4336 Y18.9444
G01 X9.4360 Y18.9379
G01 X9.4423 Y18.9235
G01 X9.4516 Y18.9067
G01 X9.4624 Y18.8909
G01 X9.4724 Y18.8788
G01 X9.4771 Y18.8737
G01 X9.4897 Y18.8616
G01 X9.5033 Y18.8506
G01 X9.5163 Y18.8419
G01 X9.5223 Y18.8383
G01 X9.5362 Y18.8310
G01 X9.5540 Y18.8237
G01 X9.6615 Y18.7853
G01 X9.7001 Y18.7646
G01 X9.7150 Y18.7139
G01 X9.4671 Y18.4660
G01 X9.4564 Y18.4708
G01 X9.3791 Y18.4983
G01 X9.2961 Y18.5191
G01 X9.2115 Y18.5317
G01 X9.1260 Y18.5358
G01 X9.0405 Y18.5317
G01 X8.9559 Y18.5191
G01 X8.8729 Y18.4983
G01 X8.7956 Y18.4708
G01 X8.7849 Y18.4660
G01 X8.5370 Y18.7139
G01 X8.5502 Y18.7590
G01 X8.7043 Y18.8320
G01 X8.7203 Y18.8406
G01 X8.7338 Y18.8496
G01 X8.7382 Y18.8528
G01 X8.7507 Y18.8632
G01 X8.7660 Y18.8785
G01 X8.7763 Y18.8911
G01 X8.7805 Y18.8969
G01 X8.7894 Y18.9106
G01 X8.7970 Y18.9250
G01 X8.8000 Y18.9316
G01 X8.8059 Y18.9467
G01 X8.8114 Y18.9659
G01 X8.8149 Y18.9854
G01 X8.8165 Y19.0052
G01 X8.8162 Y19.0215
G01 X8.8159 Y19.0269
G01 X8.8140 Y19.0431
G01 X8.8102 Y19.0608
G01 X8.8043 Y19.0797
G01 X8.8017 Y19.0864
G01 X8.7949 Y19.1013
G01 X8.7850 Y19.1185
G01 X8.7735 Y19.1347
G01 X8.7603 Y19.1496
G01 X8.7458 Y19.1631
G01 X8.7300 Y19.1752
G01 X8.7130 Y19.1856
G01 X8.6951 Y19.1942
G01 X8.6764 Y19.2010
G01 X8.6572 Y19.2059
G01 X8.6375 Y19.2089
G01 X8.6177 Y19.2099
G01 X7.0839 Y19.2099
G01 X7.0644 Y19.2090
G01 X7.0451 Y19.2061
G01 X7.0261 Y19.2013
G01 X7.0094 Y19.1954
G01 X6.9901 Y19.1864
G01 X6.9764 Y19.1783
G01 X6.9705 Y19.1744
G01 X6.9577 Y19.1648
G01 X6.9458 Y19.1541
G01 X6.9408 Y19.1491
G01 X6.9301 Y19.1372
G01 X6.9205 Y19.1244
G01 X6.9166 Y19.1185
G01 X6.9085 Y19.1048
G01 X6.9015 Y19.0903
G01 X6.8988 Y19.0838
G01 X6.8935 Y19.0687
G01 X6.8885 Y19.0481
G01 X6.8859 Y19.0305
G01 X6.8851 Y19.0145
G01 X6.8858 Y18.9933
G01 X6.8888 Y18.9722
G01 X6.8926 Y18.9567
G01 X6.8946 Y18.9499
G01 X6.9001 Y18.9349
G01 X6.9069 Y18.9204
G01 X6.9102 Y18.9142
G01 X6.9185 Y18.9005
G01 X6.9280 Y18.8876
G01 X6.9324 Y18.8821
G01 X6.9432 Y18.8703
G01 X6.9550 Y18.8595
G01 X6.9605 Y18.8551
G01 X6.9749 Y18.8446
G01 X6.9901 Y18.8356
G01 X7.0045 Y18.8287
G01 X7.1715 Y18.7594
G01 X7.3740 Y18.6241
G01 X7.5461 Y18.4520
G01 X7.6936 Y18.2315
G01 X7.7032 Y18.2187
G01 X7.7175 Y18.2030
G01 X7.7307 Y18.1911
G01 X7.7479 Y18.1785
G01 X7.7631 Y18.1694
G01 X7.7808 Y18.1611
G01 X7.7992 Y18.1545
G01 X7.8181 Y18.1498
G01 X7.8374 Y18.1469
G01 X7.8569 Y18.1460
G01 X7.8764 Y18.1469
G01 X7.8974 Y18.1501
G01 X7.9147 Y18.1545
G01 X7.9330 Y18.1611
G01 X7.9507 Y18.1694
G01 X7.9689 Y18.1805
G01 X7.9831 Y18.1911
G01 X7.9988 Y18.2055
G01 X8.0118 Y18.2201
G01 X8.0213 Y18.2329
G01 X8.0245 Y18.2379
G01 X8.0761 Y18.2530
G01 X8.3240 Y18.0051
G01 X8.3192 Y17.9944
G01 X8.2917 Y17.9171
G01 X8.2709 Y17.8341
G01 X8.2583 Y17.7495
G01 X8.2542 Y17.6640
G01 X8.2583 Y17.5785
G01 X8.2709 Y17.4939
G01 X8.2917 Y17.4109
G01 X8.3192 Y17.3336
G01 X8.3240 Y17.3229
G01 X8.0761 Y17.0750
G01 X8.0298 Y17.0886
G01 X8.0180 Y17.1062
G01 X8.0053 Y17.1215
G01 X7.9911 Y17.1355
G01 X7.9784 Y17.1458
G01 X7.9619 Y17.1570
G01 X7.9557 Y17.1606
G01 X7.9395 Y17.1688
G01 X7.9243 Y17.1748
G01 X7.9191 Y17.1765
G01 X7.9034 Y17.1808
G01 X7.8820 Y17.1845
G01 X7.8639 Y17.1858
G01 X7.8421 Y17.1852
G01 X7.8241 Y17.1829
G01 X7.8047 Y17.1784
G01 X7.7858 Y17.1720
G01 X7.7661 Y17.1629
G01 X7.7504 Y17.1538
G01 X7.7329 Y17.1409
G01 X7.7181 Y17.1275
G01 X7.7070 Y17.1155
G01 X7.7036 Y17.1113
G01 X7.6939 Y17.0982
G01 X7.6863 Y17.0859
G01 X7.5461 Y16.8760
G01 X7.3740 Y16.7039
G01 X7.1715 Y16.5686
G01 X6.9466 Y16.4754
G01 X6.7077 Y16.4279
G01 X6.4643 Y16.4279
G01 X6.2254 Y16.4754
G01 X6.0005 Y16.5686
G01 X5.7980 Y16.7039
G01 X5.6133 Y16.8886
G01 X5.5988 Y16.9017
G01 X5.5846 Y16.9124
G01 X5.5695 Y16.9216
G01 X5.5633 Y16.9250
G01 X5.5488 Y16.9317
G01 X5.5304 Y16.9383
G01 X5.5114 Y16.9431
G01 X5.4956 Y16.9455
G01 X5.4886 Y16.9462
G01 X5.4726 Y16.9469
G01 X5.4531 Y16.9459
G01 X5.4373 Y16.9437
G01 X5.4304 Y16.9423
G01 X5.4115 Y16.9372
G01 X5.3965 Y16.9317
G01 X5.3820 Y16.9250
G01 X5.3758 Y16.9216
G01 X5.3621 Y16.9133
G01 X5.3464 Y16.9017
G01 X5.3320 Y16.8886
G01 X5.3189 Y16.8741
G01 X5.3072 Y16.8585
G01 X5.2990 Y16.8448
G01 X5.2956 Y16.8386
G01 X5.2882 Y16.8224
G01 X5.2823 Y16.8057
G01 X5.2779 Y16.7885
G01 X5.2767 Y16.7815
G01 X5.2508 Y16.6963
G01 X5.2103 Y16.6206
G01 X5.1559 Y16.5541
G01 X5.0894 Y16.4997
G01 X5.0137 Y16.4592
G01 X4.9315 Y16.4342
G01 X4.8362 Y16.4248
G01 X3.2558 Y16.4248
G01 X3.1605 Y16.4342
G01 X3.0783 Y16.4592
G01 X3.0026 Y16.4997
G01 X2.9361 Y16.5541
G01 X2.8817 Y16.6206
G01 X2.8412 Y16.6963
G01 X2.8162 Y16.7785
G01 X2.8068 Y16.8738
G01 X2.8068 Y18.4542
G01 X2.8162 Y18.5495
G01 X2.8412 Y18.6317
G01 X2.8817 Y18.7074
G01 X2.9361 Y18.7739
G01 X3.0026 Y18.8283
G01 X3.0176 Y18.8364
G01 X3.0343 Y18.8466
G01 X3.0485 Y18.8572
G01 X3.0630 Y18.8703
G01 X3.0761 Y18.8848
G01 X3.0877 Y18.9005
G01 X3.0977 Y18.9172
G01 X3.1061 Y18.9349
G01 X3.1115 Y18.9499
G01 X3.1136 Y18.9567
G01 X3.1174 Y18.9722
G01 X3.1203 Y18.9915
G01 X3.1211 Y19.0075
G01 X3.1211 Y19.0145
G01 X3.1203 Y19.0305
G01 X3.1174 Y19.0498
G01 X3.1136 Y19.0653
G01 X3.1115 Y19.0721
G01 X3.1061 Y19.0871
G01 X3.0977 Y19.1048
G01 X3.0896 Y19.1185
G01 X3.0857 Y19.1244
G01 X3.0761 Y19.1372
G01 X3.0654 Y19.1491
G01 X3.0498 Y19.1636
G01 X3.0343 Y19.1754
G01 X3.0161 Y19.1864
G01 X3.0000 Y19.1941
G01 X2.9800 Y19.2013
G01 X2.9611 Y19.2061
G01 X2.9418 Y19.2090
G01 X2.9241 Y19.2099
G01 X0.9210 Y19.2099
G01 X0.9050 Y19.2092
G01 X0.8839 Y19.2064
G01 X0.8667 Y19.2023
G01 X0.8599 Y19.2002
G01 X0.8417 Y19.1933
G01 X0.8272 Y19.1864
G01 X0.8105 Y19.1764
G01 X0.7948 Y19.1648
G01 X0.7803 Y19.1517
G01 X0.7672 Y19.1372
G01 X0.7556 Y19.1215
G01 X0.7456 Y19.1048
G01 X0.7387 Y19.0903
G01 X0.7318 Y19.0721
G01 X0.7297 Y19.0653
G01 X0.7259 Y19.0498
G01 X0.7229 Y19.0287
G00 Z2.0000
G00 X2.8120 Y12.5875
G01 F30.00
G01 Z-0.0600
G01 F60.00
G01 X2.8120 Y11.9818
G01 X2.4340 Y11.9818
G01 X2.4252 Y11.9813
G01 X2.4200 Y11.9805
G01 X2.4131 Y11.9788
G01 X2.4033 Y11.9750
G01 X2.3941 Y11.9697
G01 X2.3884 Y11.9655
G01 X2.3845 Y11.9620
G01 X2.3796 Y11.9569
G01 X2.3763 Y11.9528
G01 X2.3706 Y11.9439
G01 X2.3664 Y11.9342
G01 X2.3643 Y11.9275
G01 X2.3632 Y11.9223
G01 X2.3623 Y11.9153
G01 X2.3622 Y11.9100
G01 X2.3622 Y10.2100
G01 X2.3627 Y10.2012
G01 X2.3643 Y10.1925
G01 X2.3670 Y10.1841
G01 X2.3715 Y10.1746
G01 X2.3774 Y10.1658
G01 X2.3832 Y10.1592
G01 X2.3898 Y10.1534
G01 X2.3971 Y10.1484
G01 X2.4049 Y10.1443
G01 X2.4131 Y10.1412
G01 X2.4217 Y10.1392
G01 X2.4322 Y10.1382
G01 X4.1340 Y10.1382
G01 X4.1428 Y10.1387
G01 X4.1515 Y10.1403
G01 X4.1615 Y10.1436
G01 X4.1694 Y10.1475
G01 X4.1768 Y10.1523
G01 X4.1848 Y10.1592
G01 X4.1906 Y10.1658
G01 X4.1956 Y10.1731
G01 X4.1997 Y10.1809
G01 X4.2028 Y10.1891
G01 X4.2048 Y10.1977
G01 X4.2058 Y10.2082
G01 X4.2058 Y11.9100
G01 X4.2057 Y11.9153
G01 X4.2048 Y11.9223
G01 X4.2022 Y11.9325
G01 X4.1997 Y11.9391
G01 X4.1974 Y11.9439
G01 X4.1947 Y11.9484
G01 X4.1906 Y11.9542
G01 X4.1835 Y11.9620
G01 X4.1782 Y11.9666
G01 X4.1739 Y11.9697
G01 X4.1647 Y11.9750
G01 X4.1549 Y11.9788
G01 X4.1497 Y11.9801
G01 X4.1428 Y11.9813
G01 X4.1340 Y11.9818
G01 X3.7561 Y11.9818
G01 X3.7561 Y12.3885
G01 X4.3480 Y12.9804
G01 X4.3627 Y12.9813
G01 X4.4196 Y12.9898
G01 X4.4805 Y13.0049
G01 X4.5380 Y13.0255
G01 X4.5900 Y13.0500
G01 X4.5962 Y13.0533
G01 X4.6425 Y13.0811
G01 X4.6484 Y13.0850
G01 X4.6945 Y13.1193
G01 X4.7372 Y13.1579
G01 X4.7421 Y13.1628
G01 X4.7807 Y13.2055
G01 X4.8170 Y13.2545
G01 X4.8467 Y13.3038
G01 X4.8500 Y13.3100
G01 X4.8745 Y13.3620
G01 X4.8951 Y13.4195
G01 X4.9099 Y13.4787
G01 X4.9184 Y13.5355
G01 X4.9191 Y13.5426
G01 X4.9218 Y13.6000
G01 X4.9189 Y13.6610
G01 X4.9105 Y13.7178
G01 X4.9091 Y13.7248
G01 X4.8951 Y13.7805
G01 X4.8758 Y13.8347
G01 X4.8731 Y13.8412
G01 X4.8484 Y13.8931
G01 X4.8170 Y13.9455
G01 X4.7807 Y13.9945
G01 X4.7397 Y14.0397
G01 X4.6945 Y14.0807
G01 X4.6455 Y14.1170
G01 X4.5931 Y14.1484
G01 X4.5380 Y14.1745
G01 X4.4805 Y14.1951
G01 X4.4213 Y14.2099
G01 X4.3610 Y14.2189
G01 X4.3000 Y14.2218
G01 X4.2390 Y14.2189
G01 X4.1787 Y14.2099
G01 X4.1195 Y14.1951
G01 X4.0620 Y14.1745
G01 X4.0069 Y14.1484
G01 X3.9545 Y14.1170
G01 X3.9055 Y14.0807
G01 X3.8628 Y14.0421
G01 X3.8579 Y14.0372
G01 X3.8193 Y13.9945
G01 X3.7850 Y13.9484
G01 X3.7811 Y13.9425
G01 X3.7533 Y13.8962
G01 X3.7500 Y13.8900
G01 X3.7255 Y13.8380
G01 X3.7049 Y13.7805
G01 X3.6898 Y13.7196
G01 X3.6813 Y13.6627
G01 X3.6804 Y13.6480
G01 X2.9502 Y12.9178
G01 X2.9214 Y12.8861
G01 X2.9169 Y12.8807
G01 X2.8915 Y12.8463
G01 X2.8677 Y12.8065
G01 X2.8479 Y12.7646
G01 X2.8334 Y12.7244
G01 X2.8313 Y12.7176
G01 X2.8218 Y12.6795
G01 X2.8204 Y12.6726
G01 X2.8142 Y12.6303
G01 X2.8120 Y12.5875
G00 Z2.0000
G00 X2.4317 Y8.8711
G01 F30.00
G01 Z-0.0600
G01 F60.00
G01 X2.4694 Y8.9514
G01 X2.4727 Y8.9576
G01 X2.5175 Y9.0322
G01 X2.5714 Y9.1048
G01 X2.6297 Y9.1693
G01 X2.6347 Y9.1743
G01 X2.6992 Y9.2326
G01 X2.7718 Y9.2865
G01 X2.8464 Y9.3313
G01 X2.8526 Y9.3346
G01 X2.9312 Y9.3717
G01 X3.0164 Y9.4022
G01 X3.1007 Y9.4234
G01 X3.1076 Y9.4247
G01 X3.1936 Y9.4374
G01 X3.2822 Y9.4418
G01 X3.3708 Y9.4377
G01 X3.3779 Y9.4370
G01 X3.4638 Y9.4241
G01 X3.5516 Y9.4022
G01 X3.6368 Y9.3717
G01 X3.7154 Y9.3346
G01 X3.7216 Y9.3313
G01 X3.7976 Y9.2855
G01 X3.8688 Y9.2326
G01 X3.9333 Y9.1743
G01 X3.9383 Y9.1693
G01 X3.9977 Y9.1034
G01 X4.0505 Y9.0322
G01 X4.0961 Y8.9561
G01 X4.1350 Y8.8744
G01 X4.1454 Y8.8459
G01 X4.4842 Y8.8459
G01 X4.5114 Y8.8974
G01 X4.4948 Y8.9521
G01 X4.3845 Y9.1837
G01 X4.2339 Y9.3856
G01 X4.1631 Y9.4495
G01 X4.1508 Y9.4617
G01 X4.1376 Y9.4778
G01 X4.1279 Y9.4922
G01 X4.1203 Y9.5059
G01 X4.1172 Y9.5121
G01 X4.1112 Y9.5265
G01 X4.1053 Y9.5447
G01 X4.1020 Y9.5600
G01 X4.1008 Y9.5668
G01 X4.0990 Y9.5841
G01 X4.0988 Y9.6032
G01 X4.1006 Y9.6239
G01 X4.1034 Y9.6394
G01 X4.1075 Y9.6545
G01 X4.1139 Y9.6724
G01 X4.1167 Y9.6788
G01 X4.1237 Y9.6927
G01 X4.1338 Y9.7090
G01 X4.1454 Y9.7242
G01 X4.1584 Y9.7382
G01 X4.1726 Y9.7509
G01 X4.1852 Y9.7602
G01 X4.1910 Y9.7639
G01 X4.2060 Y9.7726
G01 X4.2218 Y9.7800
G01 X4.2381 Y9.7859
G01 X4.3017 Y9.8052
G01 X4.3774 Y9.8457
G01 X4.4439 Y9.9001
G01 X4.4983 Y9.9666
G01 X4.5388 Y10.0423
G01 X4.5638 Y10.1245
G01 X4.5732 Y10.2198
G01 X4.5732 Y11.9002
G01 X4.5638 Y11.9955
G01 X4.5388 Y12.0777
G01 X4.4983 Y12.1534
G01 X4.4439 Y12.2199
G01 X4.4245 Y12.2357
G01 X4.4140 Y12.2453
G01 X4.3994 Y12.2608
G01 X4.3867 Y12.2779
G01 X4.3766 Y12.2946
G01 X4.3683 Y12.3122
G01 X4.3628 Y12.3273
G01 X4.3608 Y12.3340
G01 X4.3564 Y12.3530
G01 X4.3541 Y12.3689
G01 X4.3532 Y12.3884
G01 X4.3541 Y12.4079
G01 X4.3567 Y12.4254
G01 X4.3617 Y12.4461
G01 X4.3690 Y12.4661
G01 X4.3784 Y12.4852
G01 X4.3867 Y12.4989
G01 X4.3961 Y12.5118
G01 X4.4006 Y12.5172
G01 X4.4114 Y12.5290
G01 X4.4783 Y12.5959
G01 X4.4941 Y12.6101
G01 X4.5084 Y12.6206
G01 X4.5221 Y12.6289
G01 X4.5283 Y12.6322
G01 X4.5428 Y12.6390
G01 X4.5629 Y12.6461
G01 X4.5784 Y12.6500
G01 X4.5876 Y12.6518
G01 X4.7671 Y12.7261
G01 X4.9286 Y12.8341
G01 X5.0659 Y12.9714
G01 X5.1739 Y13.1329
G01 X5.2482 Y13.3124
G01 X5.2861 Y13.5029
G01 X5.2861 Y13.6971
G01 X5.2482 Y13.8876
G01 X5.1739 Y14.0671
G01 X5.0659 Y14.2286
G01 X4.9286 Y14.3659
G01 X4.7671 Y14.4739
G01 X4.5876 Y14.5482
G01 X4.3971 Y14.5861
G01 X4.2029 Y14.5861
G01 X4.0124 Y14.5482
G01 X3.8329 Y14.4739
G01 X3.6714 Y14.3659
G01 X3.5341 Y14.2286
G01 X3.4261 Y14.0671
G01 X3.3518 Y13.8876
G01 X3.3500 Y13.8784
G01 X3.3461 Y13.8629
G01 X3.3390 Y13.8428
G01 X3.3322 Y13.8283
G01 X3.3289 Y13.8221
G01 X3.3206 Y13.8084
G01 X3.3090 Y13.7927
G01 X3.2959 Y13.7783
G01 X2.7287 Y13.2111
G01 X2.7156 Y13.1992
G01 X2.6899 Y13.1781
G01 X2.5855 Y13.0508
G01 X2.5078 Y12.9055
G01 X2.4600 Y12.7479
G01 X2.4439 Y12.5840
G01 X2.4471 Y12.5509
G01 X2.4479 Y12.5349
G01 X2.4479 Y12.5157
G01 X2.4465 Y12.4945
G01 X2.4441 Y12.4786
G01 X2.4403 Y12.4631
G01 X2.4334 Y12.4430
G01 X2.4244 Y12.4237
G01 X2.4134 Y12.4055
G01 X2.4028 Y12.3913
G01 X2.3897 Y12.3768
G01 X2.3752 Y12.3637
G01 X2.3580 Y12.3511
G01 X2.3428 Y12.3420
G01 X2.3235 Y12.3330
G01 X2.3084 Y12.3276
G01 X2.2663 Y12.3148
G01 X2.1906 Y12.2743
G01 X2.1241 Y12.2199
G01 X2.0697 Y12.1534
G01 X2.0292 Y12.0777
G01 X2.0042 Y11.9955
G01 X1.9948 Y11.9002
G01 X1.9948 Y10.2198
G01 X2.0042 Y10.1245
G01 X2.0292 Y10.0423
G01 X2.0697 Y9.9666
G01 X2.1241 Y9.9001
G01 X2.1906 Y9.8457
G01 X2.2663 Y9.8052
G01 X2.3299 Y9.7859
G01 X2.3494 Y9.7786
G01 X2.3635 Y9.7719
G01 X2.3785 Y9.7631
G01 X2.3926 Y9.7530
G01 X2.3980 Y9.7486
G01 X2.4096 Y9.7382
G01 X2.4203 Y9.7267
G01 X2.4322 Y9.7118
G01 X2.4434 Y9.6942
G01 X2.4521 Y9.6772
G01 X2.4596 Y9.6578
G01 X2.4646 Y9.6394
G01 X2.4679 Y9.6205
G01 X2.4693 Y9.5998
G01 X2.4689 Y9.5824
G01 X2.4669 Y9.5651
G01 X2.4635 Y9.5481
G01 X2.4617 Y9.5414
G01 X2.4568 Y9.5265
G01 X2.4493 Y9.5090
G01 X2.4401 Y9.4922
G01 X2.4314 Y9.4792
G01 X2.4184 Y9.4630
G01 X2.4049 Y9.4495
G01 X2.3341 Y9.3856
G01 X2.1835 Y9.1837
G01 X2.0732 Y8.9521
G01 X2.0566 Y8.8974
G01 X2.0838 Y8.8459
G01 X2.4226 Y8.8459
G01 X2.4317 Y8.8711
G00 Z2.0000
G00 X2.7377 Y7.3568
G01 F30.00
G01 Z-0.0600
G01 F60.00
G01 X2.9117 Y7.2951
G01 X2.9581 Y7.3194
G01 X2.9581 Y7.6586
G01 X2.9296 Y7.6690
G01 X2.8510 Y7.7062
G01 X2.7733 Y7.7525
G01 X2.6992 Y7.8074
G01 X2.6322 Y7.8682
G01 X2.5714 Y7.9352
G01 X2.5165 Y8.0093
G01 X2.4702 Y8.0870
G01 X2.4330 Y8.1656
G01 X2.4226 Y8.1941
G01 X2.0838 Y8.1941
G01 X2.0566 Y8.1426
G01 X2.0732 Y8.0879
G01 X2.1835 Y7.8563
G01 X2.3341 Y7.6544
G01 X2.5213 Y7.4857
G01 X2.7377 Y7.3568
G00 Z2.0000
G00 X4.2339 Y7.6544
G01 F30.00
G01 Z-0.0600
G01 F60.00
G01 X4.3845 Y7.8563
G01 X4.4948 Y8.0879
G01 X4.5114 Y8.1426
G01 X4.4842 Y8.1941
G01 X4.1454 Y8.1941
G01 X4.1350 Y8.1656
G01 X4.0978 Y8.0870
G01 X4.0515 Y8.0093
G01 X3.9966 Y7.9352
G01 X3.9358 Y7.8682
G01 X3.8688 Y7.8074
G01 X3.7947 Y7.7525
G01 X3.7170 Y7.7062
G01 X3.6384 Y7.6690
G01 X3.6099 Y7.6586
G01 X3.6099 Y7.3194
G01 X3.6563 Y7.2951
G01 X3.8303 Y7.3568
G01 X4.0467 Y7.4857
G01 X4.2339 Y7.6544
G00 Z2.0000
G00 X54.3482 Y6.4585
G01 F30.00
G01 Z-0.0600
G01 F60.00
G01 X54.3732 Y6.3763
G01 X54.4137 Y6.3006
G01 X54.4681 Y6.2341
G01 X54.5346 Y6.1797
G01 X54.6103 Y6.1392
G01 X54.6925 Y6.1142
G01 X54.7876 Y6.1049
G01 X56.5097 Y6.1078
G01 X56.5521 Y6.1501
G01 X56.5521 Y6.4722
G01 X54.7780 Y6.4722
G01 X54.7710 Y6.4725
G01 X54.7640 Y6.4735
G01 X54.7571 Y6.4752
G01 X54.7505 Y6.4776
G01 X54.7426 Y6.4815
G01 X54.7338 Y6.4874
G01 X54.7272 Y6.4932
G01 X54.7203 Y6.5012
G01 X54.7146 Y6.5101
G01 X54.7110 Y6.5181
G01 X54.7083 Y6.5265
G01 X54.7065 Y6.5370
G01 X54.7062 Y6.5440
G01 X54.7062 Y6.8931
G01 X54.3841 Y6.8931
G01 X54.3413 Y6.8502
G01 X54.3389 Y6.5530
G01 X54.3482 Y6.4585
G00 Z2.0000
G00 X54.7065 Y7.9010
G01 F30.00
G01 Z-0.0600
G01 F60.00
G01 X54.7075 Y7.9080
G01 X54.7092 Y7.9149
G01 X54.7116 Y7.9215
G01 X54.7138 Y7.9263
G01 X54.7173 Y7.9324
G01 X54.7203 Y7.9368
G01 X54.7236 Y7.9409
G01 X54.7285 Y7.9460
G01 X54.7338 Y7.9506
G01 X54.7381 Y7.9537
G01 X54.7441 Y7.9574
G01 X54.7505 Y7.9604
G01 X54.7571 Y7.9628
G01 X54.7623 Y7.9641
G01 X54.7692 Y7.9653
G01 X54.7762 Y7.9658
G01 X56.5521 Y7.9659
G01 X56.5521 Y8.2879
G01 X56.5097 Y8.3302
G01 X54.7876 Y8.3331
G01 X54.6925 Y8.3238
G01 X54.6103 Y8.2988
G01 X54.5346 Y8.2583
G01 X54.4681 Y8.2039
G01 X54.4137 Y8.1374
G01 X54.3732 Y8.0617
G01 X54.3482 Y7.9795
G01 X54.3389 Y7.8850
G01 X54.3413 Y7.5878
G01 X54.3841 Y7.5449
G01 X54.7062 Y7.5449
G01 X54.7062 Y7.8940
G01 X54.7065 Y7.9010
G00 Z2.0000
G00 X54.3482 Y12.1085
G01 F30.00
G01 Z-0.0600
G01 F60.00
G01 X54.3732 Y12.0263
G01 X54.4137 Y11.9506
G01 X54.4681 Y11.8841
G01 X54.5346 Y11.8297
G01 X54.6103 Y11.7892
G01 X54.6925 Y11.7642
G01 X54.7876 Y11.7549
G01 X56.5097 Y11.7578
G01 X56.5521 Y11.8001
G01 X56.5521 Y12.1222
G01 X54.7780 Y12.1222
G01 X54.7710 Y12.1225
G01 X54.7640 Y12.1235
G01 X54.7571 Y12.1252
G01 X54.7505 Y12.1276
G01 X54.7426 Y12.1315
G01 X54.7338 Y12.1374
G01 X54.7272 Y12.1432
G01 X54.7203 Y12.1512
G01 X54.7146 Y12.1601
G01 X54.7110 Y12.1681
G01 X54.7083 Y12.1765
G01 X54.7065 Y12.1870
G01 X54.7062 Y12.1940
G01 X54.7062 Y12.5431
G01 X54.3841 Y12.5431
G01 X54.3413 Y12.5002
G01 X54.3389 Y12.2030
G01 X54.3482 Y12.1085
G00 Z2.0000
G00 X54.7065 Y13.5510
G01 F30.00
G01 Z-0.0600
G01 F60.00
G01 X54.7075 Y13.5580
G01 X54.7092 Y13.5649
G01 X54.7116 Y13.5715
G01 X54.7138 Y13.5763
G01 X54.7164 Y13.5809
G01 X54.7203 Y13.5868
G01 X54.7248 Y13.5923
G01 X54.7285 Y13.5960
G01 X54.7338 Y13.6006
G01 X54.7381 Y13.6037
G01 X54.7441 Y13.6074
G01 X54.7505 Y13.6104
G01 X54.7555 Y13.6122
G01 X54.7623 Y13.6141
G01 X54.7692 Y13.6153
G01 X54.7762 Y13.6158
G01 X56.5521 Y13.6159
G01 X56.5521 Y13.9379
G01 X56.5097 Y13.9802
G01 X54.7876 Y13.9831
G01 X54.6925 Y13.9738
G01 X54.6103 Y13.9488
G01 X54.5346 Y13.9083
G01 X54.4681 Y13.8539
G01 X54.4137 Y13.7874
G01 X54.3732 Y13.7117
G01 X54.3482 Y13.6295
G01 X54.3389 Y13.5350
G01 X54.3413 Y13.2378
G01 X54.3841 Y13.1949
G01 X54.7062 Y13.1949
G01 X54.7062 Y13.5440
G01 X54.7065 Y13.5510
G00 Z2.0000
M05
G00 Z2.0000
G00 Z15.00


