(G-CODE GENERATED BY FLATCAM v8.994 - www.flatcam.org - Version Date: 2020/11/7)

(Name: lora_digirepeater_micro-PTH.drl_edit_cnc)
(Type: G-code from Geometry)
(Units: MM)

(Created on Friday, 10 March 2023 at 08:08)

(This preprocessor is the default preprocessor used by FlatCAM.)
(It is made to work with MACH3 compatible motion controllers.)


(TOOLS DIAMETER: )
(Tool: 1 -> Dia: 0.4)
(Tool: 2 -> Dia: 0.7)

(FEEDRATE Z: )
(Tool: 1 -> Feedrate: 100.0)
(Tool: 2 -> Feedrate: 100.0)

(FEEDRATE RAPIDS: )
(Tool: 1 -> Feedrate Rapids: 1500)
(Tool: 2 -> Feedrate Rapids: 1500)

(Z_CUT: )
(Tool: 1 -> Z_Cut: -1.7)
(Tool: 2 -> Z_Cut: -1.7)

(Tools Offset: )
(Tool: 1 -> Offset Z: 0.0)
(Tool: 2 -> Offset Z: 0.0)

(Z_MOVE: )
(Tool: 1 -> Z_Move: 2)
(Tool: 2 -> Z_Move: 2)

(Z Toolchange: 15 mm)
(X,Y Toolchange: 0.0000, 0.0000 mm)
(Z Start: None mm)
(Z End: 0.5 mm)
(X,Y End: None mm)
(Steps per circle: 64)
(Preprocessor Excellon: default)

(X range:    2.9340 ...   57.8400  mm)
(Y range:    1.8820 ...   18.0300  mm)

(Spindle Speed: 10000 RPM)
G21
G90
G94

G01 F100.00

M5
G00 Z15.0000
T1
G00 X0.0000 Y0.0000                
M6
(MSG, Change to Tool Dia = 0.4000 ||| Total drills for tool T1 = 28)
M0
G00 Z15.0000

G01 F100.00
M03 S10000
G00 X3.2840 Y14.2740
G01 Z-1.7000
G01 Z0
G00 Z2.0000
G00 X6.5860 Y15.5440
G01 Z-1.7000
G01 Z0
G00 Z2.0000
G00 X11.6660 Y15.0360
G01 Z-1.7000
G01 Z0
G00 Z2.0000
G00 X21.8260 Y10.9720
G01 Z-1.7000
G01 Z0
G00 Z2.0000
G00 X24.3660 Y10.9720
G01 Z-1.7000
G01 Z0
G00 Z2.0000
G00 X26.9060 Y10.9720
G01 Z-1.7000
G01 Z0
G00 Z2.0000
G00 X29.4460 Y10.9720
G01 Z-1.7000
G01 Z0
G00 Z2.0000
G00 X34.5260 Y12.2420
G01 Z-1.7000
G01 Z0
G00 Z2.0000
G00 X41.3840 Y15.2900
G01 Z-1.7000
G01 Z0
G00 Z2.0000
G00 X43.4160 Y15.2900
G01 Z-1.7000
G01 Z0
G00 Z2.0000
G00 X45.4480 Y15.2900
G01 Z-1.7000
G01 Z0
G00 Z2.0000
G00 X49.2580 Y15.2900
G01 Z-1.7000
G01 Z0
G00 Z2.0000
G00 X54.5920 Y17.8300
G01 Z-1.7000
G01 Z0
G00 Z2.0000
G00 X57.6400 Y17.8300
G01 Z-1.7000
G01 Z0
G00 Z2.0000
G00 X57.6400 Y15.2900
G01 Z-1.7000
G01 Z0
G00 Z2.0000
G00 X57.6400 Y4.6220
G01 Z-1.7000
G01 Z0
G00 Z2.0000
G00 X57.6400 Y2.0820
G01 Z-1.7000
G01 Z0
G00 Z2.0000
G00 X54.3380 Y2.0820
G01 Z-1.7000
G01 Z0
G00 Z2.0000
G00 X51.5440 Y4.3680
G01 Z-1.7000
G01 Z0
G00 Z2.0000
G00 X49.5120 Y4.3680
G01 Z-1.7000
G01 Z0
G00 Z2.0000
G00 X49.2580 Y9.9560
G01 Z-1.7000
G01 Z0
G00 Z2.0000
G00 X44.1780 Y9.9560
G01 Z-1.7000
G01 Z0
G00 Z2.0000
G00 X34.5260 Y2.3360
G01 Z-1.7000
G01 Z0
G00 Z2.0000
G00 X18.7780 Y9.4480
G01 Z-1.7000
G01 Z0
G00 Z2.0000
G00 X12.9360 Y9.1940
G01 Z-1.7000
G01 Z0
G00 Z2.0000
G00 X11.6660 Y4.3680
G01 Z-1.7000
G01 Z0
G00 Z2.0000
G00 X9.1260 Y4.3680
G01 Z-1.7000
G01 Z0
G00 Z2.0000
G00 X4.3000 Y6.4000
G01 Z-1.7000
G01 Z0
G00 Z2.0000
G01 F100.00

M5
G00 Z15.0000
T2
G00 X0.0000 Y0.0000                
M6
(MSG, Change to Tool Dia = 0.7000 ||| Total drills for tool T2 = 26)
M0
G00 Z15.0000

G01 F100.00
M03 S10000
G00 X3.2840 Y11.4800
G01 Z-1.7000
G01 Z0
G00 Z2.0000
G00 X3.2840 Y8.9400
G01 Z-1.7000
G01 Z0
G00 Z2.0000
G00 X4.0460 Y2.3360
G01 Z-1.7000
G01 Z0
G00 Z2.0000
G00 X6.5860 Y2.3360
G01 Z-1.7000
G01 Z0
G00 Z2.0000
G00 X9.1260 Y2.3360
G01 Z-1.7000
G01 Z0
G00 Z2.0000
G00 X11.6660 Y2.3360
G01 Z-1.7000
G01 Z0
G00 Z2.0000
G00 X14.2060 Y2.3360
G01 Z-1.7000
G01 Z0
G00 Z2.0000
G00 X16.7460 Y2.3360
G01 Z-1.7000
G01 Z0
G00 Z2.0000
G00 X19.2860 Y2.3360
G01 Z-1.7000
G01 Z0
G00 Z2.0000
G00 X21.8260 Y2.3360
G01 Z-1.7000
G01 Z0
G00 Z2.0000
G00 X24.3660 Y2.3360
G01 Z-1.7000
G01 Z0
G00 Z2.0000
G00 X26.9060 Y2.3360
G01 Z-1.7000
G01 Z0
G00 Z2.0000
G00 X29.4460 Y2.3360
G01 Z-1.7000
G01 Z0
G00 Z2.0000
G00 X31.9860 Y2.3360
G01 Z-1.7000
G01 Z0
G00 Z2.0000
G00 X31.9860 Y17.5760
G01 Z-1.7000
G01 Z0
G00 Z2.0000
G00 X29.4460 Y17.5760
G01 Z-1.7000
G01 Z0
G00 Z2.0000
G00 X26.9060 Y17.5760
G01 Z-1.7000
G01 Z0
G00 Z2.0000
G00 X24.3660 Y17.5760
G01 Z-1.7000
G01 Z0
G00 Z2.0000
G00 X21.8260 Y17.5760
G01 Z-1.7000
G01 Z0
G00 Z2.0000
G00 X19.2860 Y17.5760
G01 Z-1.7000
G01 Z0
G00 Z2.0000
G00 X16.7460 Y17.5760
G01 Z-1.7000
G01 Z0
G00 Z2.0000
G00 X14.2060 Y17.5760
G01 Z-1.7000
G01 Z0
G00 Z2.0000
G00 X11.6660 Y17.5760
G01 Z-1.7000
G01 Z0
G00 Z2.0000
G00 X9.1260 Y17.5760
G01 Z-1.7000
G01 Z0
G00 Z2.0000
G00 X6.5860 Y17.5760
G01 Z-1.7000
G01 Z0
G00 Z2.0000
G00 X4.0460 Y17.5760
G01 Z-1.7000
G01 Z0
G00 Z2.0000
M05
G00 Z0.50


