(G-CODE GENERATED BY FLATCAM v8.994 - www.flatcam.org - Version Date: 2020/11/7)

(Name: lora_digirepeater_micro-F_Cu.gbr_iso_combined_cnc)
(Type: G-code from Geometry)
(Units: MM)

(Created on Thursday, 09 March 2023 at 18:20)

(This preprocessor is the default preprocessor used by FlatCAM.)
(It is made to work with MACH3 compatible motion controllers.)

(TOOL DIAMETER: 0.1437 mm)
(Feedrate_XY: 60.0 mm/min)
(Feedrate_Z: 30.0 mm/min)
(Feedrate rapids 1500.0 mm/min)

(Z_Cut: -0.06 mm)
(Z_Move: 2.0 mm)
(Z Start: None mm)
(Z End: 15.0 mm)
(X,Y End: None mm)
(Steps per circle: 64)
(Preprocessor Geometry: default)

(X range:    0.7221 ...   59.0498  mm)
(Y range:    0.7901 ...   19.1219  mm)

(Spindle Speed: 10000.0 RPM)
G21
G90
G94

G01 F60.00

M5
G00 Z15.0000
G00 X0.0000 Y0.0000
T2
M6    
(MSG, Change to Tool Dia = 0.1437)
M0
G00 Z15.0000

M03 S10000.0
G01 F60.00
G00 X3.2372 Y1.4647
G01 F30.00
G01 Z-0.0600
G01 F60.00
G01 X3.2460 Y1.4642
G01 X4.8478 Y1.4642
G01 X4.8548 Y1.4647
G01 X4.8617 Y1.4659
G01 X4.8685 Y1.4678
G01 X4.8751 Y1.4703
G01 X4.8814 Y1.4735
G01 X4.8874 Y1.4773
G01 X4.8929 Y1.4816
G01 X4.8980 Y1.4865
G01 X4.9015 Y1.4904
G01 X4.9057 Y1.4961
G01 X4.9094 Y1.5021
G01 X4.9124 Y1.5085
G01 X4.9148 Y1.5151
G01 X4.9165 Y1.5220
G01 X4.9175 Y1.5290
G01 X4.9178 Y1.5360
G01 X4.9178 Y3.1360
G01 X4.9175 Y3.1430
G01 X4.9165 Y3.1500
G01 X4.9148 Y3.1569
G01 X4.9124 Y3.1635
G01 X4.9094 Y3.1699
G01 X4.9057 Y3.1759
G01 X4.9004 Y3.1829
G01 X4.8955 Y3.1880
G01 X4.8902 Y3.1926
G01 X4.8859 Y3.1957
G01 X4.8799 Y3.1994
G01 X4.8735 Y3.2024
G01 X4.8669 Y3.2048
G01 X4.8600 Y3.2065
G01 X4.8530 Y3.2075
G01 X4.8460 Y3.2078
G01 X3.2460 Y3.2078
G01 X3.2390 Y3.2075
G01 X3.2320 Y3.2065
G01 X3.2251 Y3.2048
G01 X3.2185 Y3.2024
G01 X3.2121 Y3.1994
G01 X3.2046 Y3.1947
G01 X3.1991 Y3.1904
G01 X3.1940 Y3.1855
G01 X3.1905 Y3.1816
G01 X3.1863 Y3.1759
G01 X3.1826 Y3.1699
G01 X3.1796 Y3.1635
G01 X3.1772 Y3.1569
G01 X3.1755 Y3.1500
G01 X3.1745 Y3.1430
G01 X3.1742 Y3.1360
G01 X3.1742 Y1.5342
G01 X3.1747 Y1.5272
G01 X3.1755 Y1.5220
G01 X3.1772 Y1.5151
G01 X3.1790 Y1.5101
G01 X3.1818 Y1.5037
G01 X3.1853 Y1.4976
G01 X3.1894 Y1.4918
G01 X3.1928 Y1.4877
G01 X3.1965 Y1.4840
G01 X3.2018 Y1.4794
G01 X3.2076 Y1.4753
G01 X3.2137 Y1.4718
G01 X3.2201 Y1.4690
G01 X3.2251 Y1.4672
G01 X3.2320 Y1.4655
G01 X3.2372 Y1.4647
G00 Z2.0000
G00 X5.7142 Y2.3325
G01 F30.00
G01 Z-0.0600
G01 F60.00
G01 X5.7183 Y2.2505
G01 X5.7309 Y2.1659
G01 X5.7517 Y2.0829
G01 X5.7805 Y2.0024
G01 X5.8171 Y1.9250
G01 X5.8611 Y1.8516
G01 X5.9121 Y1.7829
G01 X5.9695 Y1.7195
G01 X6.0329 Y1.6621
G01 X6.1016 Y1.6111
G01 X6.1750 Y1.5671
G01 X6.2524 Y1.5305
G01 X6.3329 Y1.5017
G01 X6.4159 Y1.4809
G01 X6.5005 Y1.4683
G01 X6.5860 Y1.4642
G01 X6.6715 Y1.4683
G01 X6.7561 Y1.4809
G01 X6.8391 Y1.5017
G01 X6.9196 Y1.5305
G01 X6.9970 Y1.5671
G01 X7.0704 Y1.6111
G01 X7.1391 Y1.6621
G01 X7.2025 Y1.7195
G01 X7.2599 Y1.7829
G01 X7.3109 Y1.8516
G01 X7.3549 Y1.9250
G01 X7.3915 Y2.0024
G01 X7.4203 Y2.0829
G01 X7.4411 Y2.1659
G01 X7.4537 Y2.2505
G01 X7.4578 Y2.3360
G01 X7.4537 Y2.4215
G01 X7.4411 Y2.5061
G01 X7.4203 Y2.5891
G01 X7.3915 Y2.6696
G01 X7.3549 Y2.7470
G01 X7.3109 Y2.8204
G01 X7.2599 Y2.8891
G01 X7.2025 Y2.9525
G01 X7.1391 Y3.0099
G01 X7.0704 Y3.0609
G01 X6.9970 Y3.1049
G01 X6.9196 Y3.1415
G01 X6.8391 Y3.1703
G01 X6.7561 Y3.1911
G01 X6.6715 Y3.2037
G01 X6.5860 Y3.2078
G01 X6.5005 Y3.2037
G01 X6.4159 Y3.1911
G01 X6.3329 Y3.1703
G01 X6.2524 Y3.1415
G01 X6.1750 Y3.1049
G01 X6.1016 Y3.0609
G01 X6.0329 Y3.0099
G01 X5.9695 Y2.9525
G01 X5.9121 Y2.8891
G01 X5.8611 Y2.8204
G01 X5.8171 Y2.7470
G01 X5.7805 Y2.6696
G01 X5.7517 Y2.5891
G01 X5.7309 Y2.5061
G01 X5.7183 Y2.4215
G01 X5.7142 Y2.3395
G01 X5.7142 Y2.3325
G00 Z2.0000
G00 X8.7956 Y3.1428
G01 F30.00
G01 Z-0.0600
G01 F60.00
G01 X8.8729 Y3.1703
G01 X8.9559 Y3.1911
G01 X9.0405 Y3.2037
G01 X9.1260 Y3.2078
G01 X9.2115 Y3.2037
G01 X9.2961 Y3.1911
G01 X9.3791 Y3.1703
G01 X9.4564 Y3.1428
G01 X9.4671 Y3.1380
G01 X9.7150 Y3.3859
G01 X9.7018 Y3.4310
G01 X9.5446 Y3.5054
G01 X9.3085 Y3.5646
G01 X9.0653 Y3.5766
G01 X8.8244 Y3.5409
G01 X8.5905 Y3.4573
G01 X8.5519 Y3.4366
G01 X8.5370 Y3.3859
G01 X8.7849 Y3.1380
G01 X8.7956 Y3.1428
G00 Z2.0000
G00 X9.9280 Y1.9949
G01 F30.00
G01 Z-0.0600
G01 F60.00
G01 X10.1759 Y1.7470
G01 X10.2220 Y1.7605
G01 X10.2255 Y1.7663
G01 X10.2358 Y1.7813
G01 X10.2475 Y1.7952
G01 X10.2591 Y1.8068
G01 X10.2645 Y1.8116
G01 X10.2773 Y1.8217
G01 X10.2910 Y1.8307
G01 X10.2972 Y1.8343
G01 X10.3118 Y1.8418
G01 X10.3269 Y1.8479
G01 X10.3320 Y1.8497
G01 X10.3478 Y1.8541
G01 X10.3692 Y1.8580
G01 X10.3909 Y1.8595
G01 X10.4109 Y1.8588
G01 X10.4271 Y1.8568
G01 X10.4324 Y1.8557
G01 X10.4483 Y1.8520
G01 X10.4638 Y1.8468
G01 X10.4689 Y1.8449
G01 X10.4838 Y1.8381
G01 X10.4996 Y1.8291
G01 X10.5056 Y1.8252
G01 X10.5188 Y1.8155
G01 X10.5324 Y1.8035
G01 X10.5483 Y1.7861
G01 X10.5581 Y1.7730
G01 X10.5649 Y1.7620
G01 X10.6161 Y1.7470
G01 X10.8640 Y1.9949
G01 X10.8592 Y2.0056
G01 X10.8317 Y2.0829
G01 X10.8109 Y2.1659
G01 X10.7983 Y2.2505
G01 X10.7942 Y2.3360
G01 X10.7983 Y2.4215
G01 X10.8109 Y2.5061
G01 X10.8317 Y2.5891
G01 X10.8592 Y2.6664
G01 X10.8640 Y2.6771
G01 X10.6161 Y2.9250
G01 X10.5700 Y2.9115
G01 X10.5665 Y2.9057
G01 X10.5562 Y2.8907
G01 X10.5445 Y2.8768
G01 X10.5329 Y2.8652
G01 X10.5275 Y2.8604
G01 X10.5147 Y2.8503
G01 X10.5010 Y2.8413
G01 X10.4948 Y2.8377
G01 X10.4802 Y2.8302
G01 X10.4651 Y2.8241
G01 X10.4600 Y2.8223
G01 X10.4442 Y2.8179
G01 X10.4228 Y2.8140
G01 X10.4011 Y2.8125
G01 X10.3811 Y2.8132
G01 X10.3649 Y2.8152
G01 X10.3596 Y2.8163
G01 X10.3437 Y2.8200
G01 X10.3282 Y2.8252
G01 X10.3231 Y2.8271
G01 X10.3082 Y2.8339
G01 X10.2924 Y2.8429
G01 X10.2864 Y2.8468
G01 X10.2732 Y2.8565
G01 X10.2596 Y2.8685
G01 X10.2437 Y2.8859
G01 X10.2339 Y2.8990
G01 X10.2271 Y2.9100
G01 X10.1759 Y2.9250
G01 X9.9280 Y2.6771
G01 X9.9328 Y2.6664
G01 X9.9603 Y2.5891
G01 X9.9811 Y2.5061
G01 X9.9937 Y2.4215
G01 X9.9978 Y2.3360
G01 X9.9937 Y2.2505
G01 X9.9811 Y2.1659
G01 X9.9603 Y2.0829
G01 X9.9328 Y2.0056
G01 X9.9280 Y1.9949
G00 Z2.0000
G00 X11.3356 Y3.1428
G01 F30.00
G01 Z-0.0600
G01 F60.00
G01 X11.4129 Y3.1703
G01 X11.4959 Y3.1911
G01 X11.5805 Y3.2037
G01 X11.6660 Y3.2078
G01 X11.7515 Y3.2037
G01 X11.8361 Y3.1911
G01 X11.9191 Y3.1703
G01 X11.9964 Y3.1428
G01 X12.0071 Y3.1380
G01 X12.2550 Y3.3859
G01 X12.2418 Y3.4310
G01 X12.0846 Y3.5054
G01 X11.8485 Y3.5646
G01 X11.6053 Y3.5766
G01 X11.3644 Y3.5409
G01 X11.1305 Y3.4573
G01 X11.0919 Y3.4366
G01 X11.0770 Y3.3859
G01 X11.3249 Y3.1380
G01 X11.3356 Y3.1428
G00 Z2.0000
G00 X13.3342 Y2.3325
G01 F30.00
G01 Z-0.0600
G01 F60.00
G01 X13.3383 Y2.2505
G01 X13.3509 Y2.1659
G01 X13.3717 Y2.0829
G01 X13.4005 Y2.0024
G01 X13.4371 Y1.9250
G01 X13.4811 Y1.8516
G01 X13.5321 Y1.7829
G01 X13.5895 Y1.7195
G01 X13.6529 Y1.6621
G01 X13.7216 Y1.6111
G01 X13.7950 Y1.5671
G01 X13.8724 Y1.5305
G01 X13.9529 Y1.5017
G01 X14.0359 Y1.4809
G01 X14.1205 Y1.4683
G01 X14.2060 Y1.4642
G01 X14.2915 Y1.4683
G01 X14.3761 Y1.4809
G01 X14.4591 Y1.5017
G01 X14.5396 Y1.5305
G01 X14.6170 Y1.5671
G01 X14.6904 Y1.6111
G01 X14.7591 Y1.6621
G01 X14.8225 Y1.7195
G01 X14.8799 Y1.7829
G01 X14.9309 Y1.8516
G01 X14.9749 Y1.9250
G01 X15.0115 Y2.0024
G01 X15.0403 Y2.0829
G01 X15.0611 Y2.1659
G01 X15.0737 Y2.2505
G01 X15.0778 Y2.3360
G01 X15.0737 Y2.4215
G01 X15.0611 Y2.5061
G01 X15.0403 Y2.5891
G01 X15.0115 Y2.6696
G01 X14.9749 Y2.7470
G01 X14.9309 Y2.8204
G01 X14.8799 Y2.8891
G01 X14.8225 Y2.9525
G01 X14.7591 Y3.0099
G01 X14.6904 Y3.0609
G01 X14.6170 Y3.1049
G01 X14.5396 Y3.1415
G01 X14.4591 Y3.1703
G01 X14.3761 Y3.1911
G01 X14.2915 Y3.2037
G01 X14.2060 Y3.2078
G01 X14.1205 Y3.2037
G01 X14.0359 Y3.1911
G01 X13.9529 Y3.1703
G01 X13.8724 Y3.1415
G01 X13.7950 Y3.1049
G01 X13.7216 Y3.0609
G01 X13.6529 Y3.0099
G01 X13.5895 Y2.9525
G01 X13.5321 Y2.8891
G01 X13.4811 Y2.8204
G01 X13.4371 Y2.7470
G01 X13.4005 Y2.6696
G01 X13.3717 Y2.5891
G01 X13.3509 Y2.5061
G01 X13.3383 Y2.4215
G01 X13.3342 Y2.3395
G01 X13.3342 Y2.3325
G00 Z2.0000
G00 X15.8742 Y2.3325
G01 F30.00
G01 Z-0.0600
G01 F60.00
G01 X15.8783 Y2.2505
G01 X15.8909 Y2.1659
G01 X15.9117 Y2.0829
G01 X15.9405 Y2.0024
G01 X15.9771 Y1.9250
G01 X16.0211 Y1.8516
G01 X16.0721 Y1.7829
G01 X16.1295 Y1.7195
G01 X16.1929 Y1.6621
G01 X16.2616 Y1.6111
G01 X16.3350 Y1.5671
G01 X16.4124 Y1.5305
G01 X16.4929 Y1.5017
G01 X16.5759 Y1.4809
G01 X16.6605 Y1.4683
G01 X16.7460 Y1.4642
G01 X16.8315 Y1.4683
G01 X16.9161 Y1.4809
G01 X16.9991 Y1.5017
G01 X17.0796 Y1.5305
G01 X17.1570 Y1.5671
G01 X17.2304 Y1.6111
G01 X17.2991 Y1.6621
G01 X17.3625 Y1.7195
G01 X17.4199 Y1.7829
G01 X17.4709 Y1.8516
G01 X17.5149 Y1.9250
G01 X17.5515 Y2.0024
G01 X17.5803 Y2.0829
G01 X17.6011 Y2.1659
G01 X17.6137 Y2.2505
G01 X17.6178 Y2.3360
G01 X17.6137 Y2.4215
G01 X17.6011 Y2.5061
G01 X17.5803 Y2.5891
G01 X17.5515 Y2.6696
G01 X17.5149 Y2.7470
G01 X17.4709 Y2.8204
G01 X17.4199 Y2.8891
G01 X17.3625 Y2.9525
G01 X17.2991 Y3.0099
G01 X17.2304 Y3.0609
G01 X17.1570 Y3.1049
G01 X17.0796 Y3.1415
G01 X16.9991 Y3.1703
G01 X16.9161 Y3.1911
G01 X16.8315 Y3.2037
G01 X16.7460 Y3.2078
G01 X16.6605 Y3.2037
G01 X16.5759 Y3.1911
G01 X16.4929 Y3.1703
G01 X16.4124 Y3.1415
G01 X16.3350 Y3.1049
G01 X16.2616 Y3.0609
G01 X16.1929 Y3.0099
G01 X16.1295 Y2.9525
G01 X16.0721 Y2.8891
G01 X16.0211 Y2.8204
G01 X15.9771 Y2.7470
G01 X15.9405 Y2.6696
G01 X15.9117 Y2.5891
G01 X15.8909 Y2.5061
G01 X15.8783 Y2.4215
G01 X15.8742 Y2.3395
G01 X15.8742 Y2.3325
G00 Z2.0000
G00 X18.4142 Y2.3325
G01 F30.00
G01 Z-0.0600
G01 F60.00
G01 X18.4183 Y2.2505
G01 X18.4309 Y2.1659
G01 X18.4517 Y2.0829
G01 X18.4805 Y2.0024
G01 X18.5171 Y1.9250
G01 X18.5611 Y1.8516
G01 X18.6121 Y1.7829
G01 X18.6695 Y1.7195
G01 X18.7329 Y1.6621
G01 X18.8016 Y1.6111
G01 X18.8750 Y1.5671
G01 X18.9524 Y1.5305
G01 X19.0329 Y1.5017
G01 X19.1159 Y1.4809
G01 X19.2005 Y1.4683
G01 X19.2860 Y1.4642
G01 X19.3715 Y1.4683
G01 X19.4561 Y1.4809
G01 X19.5391 Y1.5017
G01 X19.6196 Y1.5305
G01 X19.6970 Y1.5671
G01 X19.7704 Y1.6111
G01 X19.8391 Y1.6621
G01 X19.9025 Y1.7195
G01 X19.9599 Y1.7829
G01 X20.0109 Y1.8516
G01 X20.0549 Y1.9250
G01 X20.0915 Y2.0024
G01 X20.1203 Y2.0829
G01 X20.1411 Y2.1659
G01 X20.1537 Y2.2505
G01 X20.1578 Y2.3360
G01 X20.1537 Y2.4215
G01 X20.1411 Y2.5061
G01 X20.1203 Y2.5891
G01 X20.0915 Y2.6696
G01 X20.0549 Y2.7470
G01 X20.0109 Y2.8204
G01 X19.9599 Y2.8891
G01 X19.9025 Y2.9525
G01 X19.8391 Y3.0099
G01 X19.7704 Y3.0609
G01 X19.6970 Y3.1049
G01 X19.6196 Y3.1415
G01 X19.5391 Y3.1703
G01 X19.4561 Y3.1911
G01 X19.3715 Y3.2037
G01 X19.2860 Y3.2078
G01 X19.2005 Y3.2037
G01 X19.1159 Y3.1911
G01 X19.0329 Y3.1703
G01 X18.9524 Y3.1415
G01 X18.8750 Y3.1049
G01 X18.8016 Y3.0609
G01 X18.7329 Y3.0099
G01 X18.6695 Y2.9525
G01 X18.6121 Y2.8891
G01 X18.5611 Y2.8204
G01 X18.5171 Y2.7470
G01 X18.4805 Y2.6696
G01 X18.4517 Y2.5891
G01 X18.4309 Y2.5061
G01 X18.4183 Y2.4215
G01 X18.4142 Y2.3395
G01 X18.4142 Y2.3325
G00 Z2.0000
G00 X20.9542 Y2.3325
G01 F30.00
G01 Z-0.0600
G01 F60.00
G01 X20.9583 Y2.2505
G01 X20.9709 Y2.1659
G01 X20.9917 Y2.0829
G01 X21.0205 Y2.0024
G01 X21.0571 Y1.9250
G01 X21.1011 Y1.8516
G01 X21.1521 Y1.7829
G01 X21.2095 Y1.7195
G01 X21.2729 Y1.6621
G01 X21.3416 Y1.6111
G01 X21.4150 Y1.5671
G01 X21.4924 Y1.5305
G01 X21.5729 Y1.5017
G01 X21.6559 Y1.4809
G01 X21.7405 Y1.4683
G01 X21.8260 Y1.4642
G01 X21.9115 Y1.4683
G01 X21.9961 Y1.4809
G01 X22.0791 Y1.5017
G01 X22.1596 Y1.5305
G01 X22.2370 Y1.5671
G01 X22.3104 Y1.6111
G01 X22.3791 Y1.6621
G01 X22.4425 Y1.7195
G01 X22.4999 Y1.7829
G01 X22.5509 Y1.8516
G01 X22.5949 Y1.9250
G01 X22.6315 Y2.0024
G01 X22.6603 Y2.0829
G01 X22.6811 Y2.1659
G01 X22.6937 Y2.2505
G01 X22.6978 Y2.3360
G01 X22.6937 Y2.4215
G01 X22.6811 Y2.5061
G01 X22.6603 Y2.5891
G01 X22.6315 Y2.6696
G01 X22.5949 Y2.7470
G01 X22.5509 Y2.8204
G01 X22.4999 Y2.8891
G01 X22.4425 Y2.9525
G01 X22.3791 Y3.0099
G01 X22.3104 Y3.0609
G01 X22.2370 Y3.1049
G01 X22.1596 Y3.1415
G01 X22.0791 Y3.1703
G01 X21.9961 Y3.1911
G01 X21.9115 Y3.2037
G01 X21.8260 Y3.2078
G01 X21.7405 Y3.2037
G01 X21.6559 Y3.1911
G01 X21.5729 Y3.1703
G01 X21.4924 Y3.1415
G01 X21.4150 Y3.1049
G01 X21.3416 Y3.0609
G01 X21.2729 Y3.0099
G01 X21.2095 Y2.9525
G01 X21.1521 Y2.8891
G01 X21.1011 Y2.8204
G01 X21.0571 Y2.7470
G01 X21.0205 Y2.6696
G01 X20.9917 Y2.5891
G01 X20.9709 Y2.5061
G01 X20.9583 Y2.4215
G01 X20.9542 Y2.3395
G01 X20.9542 Y2.3325
G00 Z2.0000
G00 X23.4942 Y2.3325
G01 F30.00
G01 Z-0.0600
G01 F60.00
G01 X23.4983 Y2.2505
G01 X23.5109 Y2.1659
G01 X23.5317 Y2.0829
G01 X23.5605 Y2.0024
G01 X23.5971 Y1.9250
G01 X23.6411 Y1.8516
G01 X23.6921 Y1.7829
G01 X23.7495 Y1.7195
G01 X23.8129 Y1.6621
G01 X23.8816 Y1.6111
G01 X23.9550 Y1.5671
G01 X24.0324 Y1.5305
G01 X24.1129 Y1.5017
G01 X24.1959 Y1.4809
G01 X24.2805 Y1.4683
G01 X24.3660 Y1.4642
G01 X24.4515 Y1.4683
G01 X24.5361 Y1.4809
G01 X24.6191 Y1.5017
G01 X24.6996 Y1.5305
G01 X24.7770 Y1.5671
G01 X24.8504 Y1.6111
G01 X24.9191 Y1.6621
G01 X24.9825 Y1.7195
G01 X25.0399 Y1.7829
G01 X25.0909 Y1.8516
G01 X25.1349 Y1.9250
G01 X25.1715 Y2.0024
G01 X25.2003 Y2.0829
G01 X25.2211 Y2.1659
G01 X25.2337 Y2.2505
G01 X25.2378 Y2.3360
G01 X25.2337 Y2.4215
G01 X25.2211 Y2.5061
G01 X25.2003 Y2.5891
G01 X25.1715 Y2.6696
G01 X25.1349 Y2.7470
G01 X25.0909 Y2.8204
G01 X25.0399 Y2.8891
G01 X24.9825 Y2.9525
G01 X24.9191 Y3.0099
G01 X24.8504 Y3.0609
G01 X24.7770 Y3.1049
G01 X24.6996 Y3.1415
G01 X24.6191 Y3.1703
G01 X24.5361 Y3.1911
G01 X24.4515 Y3.2037
G01 X24.3660 Y3.2078
G01 X24.2805 Y3.2037
G01 X24.1959 Y3.1911
G01 X24.1129 Y3.1703
G01 X24.0324 Y3.1415
G01 X23.9550 Y3.1049
G01 X23.8816 Y3.0609
G01 X23.8129 Y3.0099
G01 X23.7495 Y2.9525
G01 X23.6921 Y2.8891
G01 X23.6411 Y2.8204
G01 X23.5971 Y2.7470
G01 X23.5605 Y2.6696
G01 X23.5317 Y2.5891
G01 X23.5109 Y2.5061
G01 X23.4983 Y2.4215
G01 X23.4942 Y2.3395
G01 X23.4942 Y2.3325
G00 Z2.0000
G00 X26.0342 Y2.3325
G01 F30.00
G01 Z-0.0600
G01 F60.00
G01 X26.0383 Y2.2505
G01 X26.0509 Y2.1659
G01 X26.0717 Y2.0829
G01 X26.1005 Y2.0024
G01 X26.1371 Y1.9250
G01 X26.1811 Y1.8516
G01 X26.2321 Y1.7829
G01 X26.2895 Y1.7195
G01 X26.3529 Y1.6621
G01 X26.4216 Y1.6111
G01 X26.4950 Y1.5671
G01 X26.5724 Y1.5305
G01 X26.6529 Y1.5017
G01 X26.7359 Y1.4809
G01 X26.8205 Y1.4683
G01 X26.9060 Y1.4642
G01 X26.9915 Y1.4683
G01 X27.0761 Y1.4809
G01 X27.1591 Y1.5017
G01 X27.2396 Y1.5305
G01 X27.3170 Y1.5671
G01 X27.3904 Y1.6111
G01 X27.4591 Y1.6621
G01 X27.5225 Y1.7195
G01 X27.5799 Y1.7829
G01 X27.6309 Y1.8516
G01 X27.6749 Y1.9250
G01 X27.7115 Y2.0024
G01 X27.7403 Y2.0829
G01 X27.7611 Y2.1659
G01 X27.7737 Y2.2505
G01 X27.7778 Y2.3360
G01 X27.7737 Y2.4215
G01 X27.7611 Y2.5061
G01 X27.7403 Y2.5891
G01 X27.7115 Y2.6696
G01 X27.6749 Y2.7470
G01 X27.6309 Y2.8204
G01 X27.5799 Y2.8891
G01 X27.5225 Y2.9525
G01 X27.4591 Y3.0099
G01 X27.3904 Y3.0609
G01 X27.3170 Y3.1049
G01 X27.2396 Y3.1415
G01 X27.1591 Y3.1703
G01 X27.0761 Y3.1911
G01 X26.9915 Y3.2037
G01 X26.9060 Y3.2078
G01 X26.8205 Y3.2037
G01 X26.7359 Y3.1911
G01 X26.6529 Y3.1703
G01 X26.5724 Y3.1415
G01 X26.4950 Y3.1049
G01 X26.4216 Y3.0609
G01 X26.3529 Y3.0099
G01 X26.2895 Y2.9525
G01 X26.2321 Y2.8891
G01 X26.1811 Y2.8204
G01 X26.1371 Y2.7470
G01 X26.1005 Y2.6696
G01 X26.0717 Y2.5891
G01 X26.0509 Y2.5061
G01 X26.0383 Y2.4215
G01 X26.0342 Y2.3395
G01 X26.0342 Y2.3325
G00 Z2.0000
G00 X28.5742 Y2.3325
G01 F30.00
G01 Z-0.0600
G01 F60.00
G01 X28.5783 Y2.2505
G01 X28.5909 Y2.1659
G01 X28.6117 Y2.0829
G01 X28.6405 Y2.0024
G01 X28.6771 Y1.9250
G01 X28.7211 Y1.8516
G01 X28.7721 Y1.7829
G01 X28.8295 Y1.7195
G01 X28.8929 Y1.6621
G01 X28.9616 Y1.6111
G01 X29.0350 Y1.5671
G01 X29.1124 Y1.5305
G01 X29.1929 Y1.5017
G01 X29.2759 Y1.4809
G01 X29.3605 Y1.4683
G01 X29.4460 Y1.4642
G01 X29.5315 Y1.4683
G01 X29.6161 Y1.4809
G01 X29.6991 Y1.5017
G01 X29.7796 Y1.5305
G01 X29.8570 Y1.5671
G01 X29.9304 Y1.6111
G01 X29.9991 Y1.6621
G01 X30.0625 Y1.7195
G01 X30.1199 Y1.7829
G01 X30.1709 Y1.8516
G01 X30.2149 Y1.9250
G01 X30.2515 Y2.0024
G01 X30.2803 Y2.0829
G01 X30.3011 Y2.1659
G01 X30.3137 Y2.2505
G01 X30.3178 Y2.3360
G01 X30.3137 Y2.4215
G01 X30.3011 Y2.5061
G01 X30.2803 Y2.5891
G01 X30.2515 Y2.6696
G01 X30.2149 Y2.7470
G01 X30.1709 Y2.8204
G01 X30.1199 Y2.8891
G01 X30.0625 Y2.9525
G01 X29.9991 Y3.0099
G01 X29.9304 Y3.0609
G01 X29.8570 Y3.1049
G01 X29.7796 Y3.1415
G01 X29.6991 Y3.1703
G01 X29.6161 Y3.1911
G01 X29.5315 Y3.2037
G01 X29.4460 Y3.2078
G01 X29.3605 Y3.2037
G01 X29.2759 Y3.1911
G01 X29.1929 Y3.1703
G01 X29.1124 Y3.1415
G01 X29.0350 Y3.1049
G01 X28.9616 Y3.0609
G01 X28.8929 Y3.0099
G01 X28.8295 Y2.9525
G01 X28.7721 Y2.8891
G01 X28.7211 Y2.8204
G01 X28.6771 Y2.7470
G01 X28.6405 Y2.6696
G01 X28.6117 Y2.5891
G01 X28.5909 Y2.5061
G01 X28.5783 Y2.4215
G01 X28.5742 Y2.3395
G01 X28.5742 Y2.3325
G00 Z2.0000
G00 X31.1142 Y2.3325
G01 F30.00
G01 Z-0.0600
G01 F60.00
G01 X31.1183 Y2.2505
G01 X31.1309 Y2.1659
G01 X31.1517 Y2.0829
G01 X31.1805 Y2.0024
G01 X31.2171 Y1.9250
G01 X31.2611 Y1.8516
G01 X31.3121 Y1.7829
G01 X31.3695 Y1.7195
G01 X31.4329 Y1.6621
G01 X31.5016 Y1.6111
G01 X31.5750 Y1.5671
G01 X31.6524 Y1.5305
G01 X31.7329 Y1.5017
G01 X31.8159 Y1.4809
G01 X31.9005 Y1.4683
G01 X31.9860 Y1.4642
G01 X32.0715 Y1.4683
G01 X32.1561 Y1.4809
G01 X32.2391 Y1.5017
G01 X32.3196 Y1.5305
G01 X32.3970 Y1.5671
G01 X32.4704 Y1.6111
G01 X32.5391 Y1.6621
G01 X32.6025 Y1.7195
G01 X32.6599 Y1.7829
G01 X32.7109 Y1.8516
G01 X32.7549 Y1.9250
G01 X32.7915 Y2.0024
G01 X32.8203 Y2.0829
G01 X32.8411 Y2.1659
G01 X32.8537 Y2.2505
G01 X32.8578 Y2.3360
G01 X32.8537 Y2.4215
G01 X32.8411 Y2.5061
G01 X32.8203 Y2.5891
G01 X32.7915 Y2.6696
G01 X32.7549 Y2.7470
G01 X32.7109 Y2.8204
G01 X32.6599 Y2.8891
G01 X32.6025 Y2.9525
G01 X32.5391 Y3.0099
G01 X32.4704 Y3.0609
G01 X32.3970 Y3.1049
G01 X32.3196 Y3.1415
G01 X32.2391 Y3.1703
G01 X32.1561 Y3.1911
G01 X32.0715 Y3.2037
G01 X31.9860 Y3.2078
G01 X31.9005 Y3.2037
G01 X31.8159 Y3.1911
G01 X31.7329 Y3.1703
G01 X31.6524 Y3.1415
G01 X31.5750 Y3.1049
G01 X31.5016 Y3.0609
G01 X31.4329 Y3.0099
G01 X31.3695 Y2.9525
G01 X31.3121 Y2.8891
G01 X31.2611 Y2.8204
G01 X31.2171 Y2.7470
G01 X31.1805 Y2.6696
G01 X31.1517 Y2.5891
G01 X31.1309 Y2.5061
G01 X31.1183 Y2.4215
G01 X31.1142 Y2.3395
G01 X31.1142 Y2.3325
G00 Z2.0000
G00 X36.6107 Y2.9648
G01 F30.00
G01 Z-0.0600
G01 F60.00
G01 X36.6119 Y2.9717
G01 X36.6132 Y2.9769
G01 X36.6170 Y2.9867
G01 X36.6204 Y2.9929
G01 X36.6233 Y2.9974
G01 X36.6265 Y3.0016
G01 X36.6312 Y3.0068
G01 X36.6351 Y3.0104
G01 X36.6406 Y3.0147
G01 X36.6466 Y3.0185
G01 X36.6513 Y3.0210
G01 X36.6611 Y3.0248
G01 X36.6680 Y3.0265
G01 X36.6732 Y3.0273
G01 X36.6820 Y3.0278
G01 X37.1061 Y3.0278
G01 X37.1061 Y3.3499
G01 X37.0633 Y3.3926
G01 X36.6911 Y3.3951
G01 X36.5965 Y3.3858
G01 X36.5143 Y3.3608
G01 X36.4386 Y3.3203
G01 X36.3721 Y3.2659
G01 X36.3177 Y3.1994
G01 X36.2772 Y3.1237
G01 X36.2522 Y3.0415
G01 X36.2429 Y2.9467
G01 X36.2456 Y2.3245
G01 X36.2881 Y2.2819
G01 X36.6102 Y2.2819
G01 X36.6102 Y2.9560
G01 X36.6107 Y2.9648
G00 Z2.0000
G00 X38.6732 Y0.8847
G01 F30.00
G01 Z-0.0600
G01 F60.00
G01 X38.6820 Y0.8842
G01 X40.1838 Y0.8842
G01 X40.1925 Y0.8849
G01 X40.1995 Y0.8863
G01 X40.2062 Y0.8884
G01 X40.2143 Y0.8918
G01 X40.2219 Y0.8963
G01 X40.2289 Y0.9016
G01 X40.2340 Y0.9065
G01 X40.2397 Y0.9132
G01 X40.2436 Y0.9191
G01 X40.2462 Y0.9237
G01 X40.2502 Y0.9335
G01 X40.2517 Y0.9385
G01 X40.2531 Y0.9455
G01 X40.2538 Y0.9560
G01 X40.2538 Y2.9560
G01 X40.2533 Y2.9648
G01 X40.2521 Y2.9717
G01 X40.2496 Y2.9802
G01 X40.2462 Y2.9883
G01 X40.2417 Y2.9959
G01 X40.2364 Y3.0029
G01 X40.2315 Y3.0080
G01 X40.2248 Y3.0137
G01 X40.2189 Y3.0176
G01 X40.2143 Y3.0202
G01 X40.2045 Y3.0242
G01 X40.1977 Y3.0261
G01 X40.1925 Y3.0271
G01 X40.1820 Y3.0278
G01 X38.6820 Y3.0278
G01 X38.6750 Y3.0275
G01 X38.6663 Y3.0261
G01 X38.6578 Y3.0236
G01 X38.6497 Y3.0202
G01 X38.6421 Y3.0157
G01 X38.6364 Y3.0115
G01 X38.6300 Y3.0055
G01 X38.6243 Y2.9988
G01 X38.6213 Y2.9944
G01 X38.6178 Y2.9883
G01 X38.6138 Y2.9785
G01 X38.6119 Y2.9717
G01 X38.6109 Y2.9665
G01 X38.6102 Y2.9560
G01 X38.6102 Y0.9542
G01 X38.6105 Y0.9490
G01 X38.6115 Y0.9420
G01 X38.6132 Y0.9351
G01 X38.6156 Y0.9285
G01 X38.6186 Y0.9221
G01 X38.6213 Y0.9176
G01 X38.6254 Y0.9118
G01 X38.6288 Y0.9077
G01 X38.6337 Y0.9028
G01 X38.6392 Y0.8983
G01 X38.6451 Y0.8944
G01 X38.6497 Y0.8918
G01 X38.6561 Y0.8890
G01 X38.6611 Y0.8872
G01 X38.6680 Y0.8855
G01 X38.6732 Y0.8847
G00 Z2.0000
G00 X40.6732 Y0.8847
G01 F30.00
G01 Z-0.0600
G01 F60.00
G01 X40.6820 Y0.8842
G01 X42.1838 Y0.8842
G01 X42.1925 Y0.8849
G01 X42.1995 Y0.8863
G01 X42.2062 Y0.8884
G01 X42.2143 Y0.8918
G01 X42.2219 Y0.8963
G01 X42.2289 Y0.9016
G01 X42.2340 Y0.9065
G01 X42.2397 Y0.9132
G01 X42.2436 Y0.9191
G01 X42.2462 Y0.9237
G01 X42.2502 Y0.9335
G01 X42.2517 Y0.9385
G01 X42.2531 Y0.9455
G01 X42.2538 Y0.9560
G01 X42.2538 Y2.9560
G01 X42.2533 Y2.9648
G01 X42.2521 Y2.9717
G01 X42.2496 Y2.9802
G01 X42.2462 Y2.9883
G01 X42.2417 Y2.9959
G01 X42.2364 Y3.0029
G01 X42.2315 Y3.0080
G01 X42.2248 Y3.0137
G01 X42.2189 Y3.0176
G01 X42.2143 Y3.0202
G01 X42.2045 Y3.0242
G01 X42.1977 Y3.0261
G01 X42.1925 Y3.0271
G01 X42.1820 Y3.0278
G01 X40.6820 Y3.0278
G01 X40.6750 Y3.0275
G01 X40.6663 Y3.0261
G01 X40.6578 Y3.0236
G01 X40.6497 Y3.0202
G01 X40.6421 Y3.0157
G01 X40.6364 Y3.0115
G01 X40.6300 Y3.0055
G01 X40.6243 Y2.9988
G01 X40.6213 Y2.9944
G01 X40.6178 Y2.9883
G01 X40.6138 Y2.9785
G01 X40.6119 Y2.9717
G01 X40.6109 Y2.9665
G01 X40.6102 Y2.9560
G01 X40.6102 Y0.9542
G01 X40.6105 Y0.9490
G01 X40.6115 Y0.9420
G01 X40.6132 Y0.9351
G01 X40.6156 Y0.9285
G01 X40.6186 Y0.9221
G01 X40.6213 Y0.9176
G01 X40.6254 Y0.9118
G01 X40.6288 Y0.9077
G01 X40.6337 Y0.9028
G01 X40.6392 Y0.8983
G01 X40.6451 Y0.8944
G01 X40.6497 Y0.8918
G01 X40.6561 Y0.8890
G01 X40.6611 Y0.8872
G01 X40.6680 Y0.8855
G01 X40.6732 Y0.8847
G00 Z2.0000
G00 X48.6732 Y0.8847
G01 F30.00
G01 Z-0.0600
G01 F60.00
G01 X48.6820 Y0.8842
G01 X50.1838 Y0.8842
G01 X50.1943 Y0.8852
G01 X50.1995 Y0.8863
G01 X50.2062 Y0.8884
G01 X50.2111 Y0.8903
G01 X50.2174 Y0.8935
G01 X50.2219 Y0.8963
G01 X50.2276 Y0.9005
G01 X50.2328 Y0.9052
G01 X50.2364 Y0.9091
G01 X50.2407 Y0.9146
G01 X50.2436 Y0.9191
G01 X50.2462 Y0.9237
G01 X50.2490 Y0.9301
G01 X50.2521 Y0.9403
G01 X50.2535 Y0.9490
G01 X50.2538 Y0.9560
G01 X50.2538 Y2.9560
G01 X50.2533 Y2.9648
G01 X50.2512 Y2.9752
G01 X50.2477 Y2.9851
G01 X50.2427 Y2.9944
G01 X50.2397 Y2.9988
G01 X50.2352 Y3.0043
G01 X50.2276 Y3.0115
G01 X50.2234 Y3.0147
G01 X50.2174 Y3.0185
G01 X50.2079 Y3.0230
G01 X50.1977 Y3.0261
G01 X50.1890 Y3.0275
G01 X50.1820 Y3.0278
G01 X49.9840 Y3.0278
G01 X49.9841 Y3.9638
G01 X49.9938 Y3.9749
G01 X50.0281 Y4.0211
G01 X50.0604 Y4.0749
G01 X50.0865 Y4.1300
G01 X50.1076 Y4.1892
G01 X50.1219 Y4.2467
G01 X50.1304 Y4.3035
G01 X50.1311 Y4.3106
G01 X50.1338 Y4.3680
G01 X50.1311 Y4.4254
G01 X50.1304 Y4.4325
G01 X50.1225 Y4.4858
G01 X50.1211 Y4.4928
G01 X50.1080 Y4.5451
G01 X50.1060 Y4.5519
G01 X50.0865 Y4.6060
G01 X50.0604 Y4.6611
G01 X50.0309 Y4.7105
G01 X50.0270 Y4.7164
G01 X49.9927 Y4.7625
G01 X49.9517 Y4.8077
G01 X49.9092 Y4.8464
G01 X49.9037 Y4.8509
G01 X49.8575 Y4.8850
G01 X49.8051 Y4.9164
G01 X49.7532 Y4.9411
G01 X49.7467 Y4.9438
G01 X49.6925 Y4.9631
G01 X49.6350 Y4.9775
G01 X49.5730 Y4.9869
G01 X49.5120 Y4.9898
G01 X49.4510 Y4.9869
G01 X49.3907 Y4.9779
G01 X49.3315 Y4.9631
G01 X49.2740 Y4.9425
G01 X49.2189 Y4.9164
G01 X49.1665 Y4.8850
G01 X49.1175 Y4.8487
G01 X49.0723 Y4.8077
G01 X49.0313 Y4.7625
G01 X48.9950 Y4.7135
G01 X48.9636 Y4.6611
G01 X48.9375 Y4.6060
G01 X48.9169 Y4.5485
G01 X48.9025 Y4.4910
G01 X48.8931 Y4.4290
G01 X48.8902 Y4.3715
G01 X48.8902 Y4.3645
G01 X48.8929 Y4.3106
G01 X48.8936 Y4.3035
G01 X48.9021 Y4.2467
G01 X48.9160 Y4.1909
G01 X48.9180 Y4.1841
G01 X48.9375 Y4.1300
G01 X48.9636 Y4.0749
G01 X48.9959 Y4.0211
G01 X49.0302 Y3.9749
G01 X49.0400 Y3.9638
G01 X49.0399 Y3.0278
G01 X48.6820 Y3.0278
G01 X48.6715 Y3.0271
G01 X48.6611 Y3.0248
G01 X48.6513 Y3.0210
G01 X48.6451 Y3.0176
G01 X48.6406 Y3.0147
G01 X48.6325 Y3.0080
G01 X48.6254 Y3.0002
G01 X48.6213 Y2.9944
G01 X48.6186 Y2.9899
G01 X48.6144 Y2.9802
G01 X48.6128 Y2.9752
G01 X48.6112 Y2.9683
G01 X48.6103 Y2.9613
G01 X48.6102 Y2.9560
G01 X48.6102 Y0.9542
G01 X48.6105 Y0.9490
G01 X48.6115 Y0.9420
G01 X48.6132 Y0.9351
G01 X48.6156 Y0.9285
G01 X48.6178 Y0.9237
G01 X48.6213 Y0.9176
G01 X48.6243 Y0.9132
G01 X48.6288 Y0.9077
G01 X48.6325 Y0.9040
G01 X48.6378 Y0.8994
G01 X48.6436 Y0.8953
G01 X48.6481 Y0.8926
G01 X48.6545 Y0.8896
G01 X48.6611 Y0.8872
G01 X48.6680 Y0.8855
G01 X48.6732 Y0.8847
G00 Z2.0000
G00 X52.1890 Y3.0275
G01 F30.00
G01 Z-0.0600
G01 F60.00
G01 X52.1943 Y3.0268
G01 X52.2012 Y3.0252
G01 X52.2062 Y3.0236
G01 X52.2127 Y3.0210
G01 X52.2174 Y3.0185
G01 X52.2234 Y3.0147
G01 X52.2289 Y3.0104
G01 X52.2328 Y3.0068
G01 X52.2364 Y3.0029
G01 X52.2407 Y2.9974
G01 X52.2445 Y2.9914
G01 X52.2470 Y2.9867
G01 X52.2490 Y2.9819
G01 X52.2512 Y2.9752
G01 X52.2525 Y2.9700
G01 X52.2535 Y2.9630
G01 X52.2538 Y2.9560
G01 X52.2538 Y2.2819
G01 X52.5759 Y2.2819
G01 X52.6184 Y2.3245
G01 X52.6211 Y2.9467
G01 X52.6118 Y3.0415
G01 X52.5868 Y3.1237
G01 X52.5463 Y3.1994
G01 X52.4919 Y3.2659
G01 X52.4254 Y3.3203
G01 X52.3497 Y3.3608
G01 X52.2675 Y3.3858
G01 X52.1729 Y3.3951
G01 X51.8007 Y3.3926
G01 X51.7579 Y3.3499
G01 X51.7579 Y3.0278
G01 X52.1820 Y3.0278
G01 X52.1890 Y3.0275
G00 Z2.0000
G00 X54.7692 Y6.3847
G01 F30.00
G01 Z-0.0600
G01 F60.00
G01 X54.7588 Y6.3868
G01 X54.7538 Y6.3884
G01 X54.7473 Y6.3910
G01 X54.7381 Y6.3963
G01 X54.7324 Y6.4005
G01 X54.7285 Y6.4040
G01 X54.7214 Y6.4118
G01 X54.7183 Y6.4161
G01 X54.7146 Y6.4221
G01 X54.7123 Y6.4269
G01 X54.7098 Y6.4335
G01 X54.7079 Y6.4403
G01 X54.7069 Y6.4455
G01 X54.7062 Y6.4560
G01 X54.7062 Y6.8051
G01 X54.3841 Y6.8051
G01 X54.3413 Y6.7622
G01 X54.3389 Y6.4650
G01 X54.3482 Y6.3705
G01 X54.3732 Y6.2883
G01 X54.4137 Y6.2126
G01 X54.4681 Y6.1461
G01 X54.5346 Y6.0917
G01 X54.6103 Y6.0512
G01 X54.6925 Y6.0262
G01 X54.7876 Y6.0169
G01 X56.5097 Y6.0198
G01 X56.5521 Y6.0621
G01 X56.5521 Y6.3841
G01 X54.7780 Y6.3842
G01 X54.7692 Y6.3847
G00 Z2.0000
G00 X54.7067 Y7.8148
G01 F30.00
G01 Z-0.0600
G01 F60.00
G01 X54.7075 Y7.8200
G01 X54.7092 Y7.8269
G01 X54.7116 Y7.8335
G01 X54.7138 Y7.8383
G01 X54.7164 Y7.8429
G01 X54.7203 Y7.8488
G01 X54.7248 Y7.8543
G01 X54.7297 Y7.8592
G01 X54.7338 Y7.8626
G01 X54.7396 Y7.8667
G01 X54.7457 Y7.8702
G01 X54.7521 Y7.8730
G01 X54.7588 Y7.8752
G01 X54.7640 Y7.8765
G01 X54.7692 Y7.8773
G01 X54.7762 Y7.8778
G01 X56.5521 Y7.8778
G01 X56.5521 Y8.1999
G01 X56.5097 Y8.2422
G01 X54.7876 Y8.2451
G01 X54.6925 Y8.2358
G01 X54.6103 Y8.2108
G01 X54.5346 Y8.1703
G01 X54.4681 Y8.1159
G01 X54.4137 Y8.0494
G01 X54.3732 Y7.9737
G01 X54.3482 Y7.8915
G01 X54.3389 Y7.7970
G01 X54.3413 Y7.4998
G01 X54.3841 Y7.4569
G01 X54.7062 Y7.4569
G01 X54.7062 Y7.8060
G01 X54.7067 Y7.8148
G00 Z2.0000
G00 X54.7692 Y12.0347
G01 F30.00
G01 Z-0.0600
G01 F60.00
G01 X54.7588 Y12.0368
G01 X54.7538 Y12.0384
G01 X54.7473 Y12.0410
G01 X54.7426 Y12.0435
G01 X54.7366 Y12.0473
G01 X54.7285 Y12.0540
G01 X54.7214 Y12.0618
G01 X54.7183 Y12.0661
G01 X54.7146 Y12.0721
G01 X54.7123 Y12.0769
G01 X54.7098 Y12.0835
G01 X54.7079 Y12.0903
G01 X54.7069 Y12.0955
G01 X54.7062 Y12.1060
G01 X54.7062 Y12.4551
G01 X54.3841 Y12.4551
G01 X54.3413 Y12.4122
G01 X54.3389 Y12.1150
G01 X54.3482 Y12.0205
G01 X54.3732 Y11.9383
G01 X54.4137 Y11.8626
G01 X54.4681 Y11.7961
G01 X54.5346 Y11.7417
G01 X54.6103 Y11.7012
G01 X54.6925 Y11.6762
G01 X54.7876 Y11.6669
G01 X56.5097 Y11.6698
G01 X56.5521 Y11.7121
G01 X56.5521 Y12.0341
G01 X54.7780 Y12.0342
G01 X54.7692 Y12.0347
G00 Z2.0000
G00 X54.7065 Y13.4630
G01 F30.00
G01 Z-0.0600
G01 F60.00
G01 X54.7075 Y13.4700
G01 X54.7092 Y13.4769
G01 X54.7110 Y13.4819
G01 X54.7138 Y13.4883
G01 X54.7173 Y13.4944
G01 X54.7203 Y13.4988
G01 X54.7248 Y13.5043
G01 X54.7297 Y13.5092
G01 X54.7352 Y13.5137
G01 X54.7396 Y13.5167
G01 X54.7457 Y13.5202
G01 X54.7521 Y13.5230
G01 X54.7588 Y13.5252
G01 X54.7640 Y13.5265
G01 X54.7710 Y13.5275
G01 X54.7762 Y13.5278
G01 X56.5521 Y13.5278
G01 X56.5521 Y13.8499
G01 X56.5097 Y13.8922
G01 X54.7876 Y13.8951
G01 X54.6925 Y13.8858
G01 X54.6103 Y13.8608
G01 X54.5346 Y13.8203
G01 X54.4681 Y13.7659
G01 X54.4137 Y13.6994
G01 X54.3732 Y13.6237
G01 X54.3482 Y13.5415
G01 X54.3389 Y13.4470
G01 X54.3413 Y13.1498
G01 X54.3841 Y13.1069
G01 X54.7062 Y13.1069
G01 X54.7062 Y13.4560
G01 X54.7065 Y13.4630
G00 Z2.0000
G00 X52.3810 Y16.4798
G01 F30.00
G01 Z-0.0600
G01 F60.00
G01 X52.3801 Y16.4603
G01 X52.3801 Y12.1627
G01 X52.3810 Y12.1432
G01 X52.3843 Y12.1222
G01 X52.3887 Y12.1050
G01 X52.3940 Y12.0899
G01 X52.3967 Y12.0834
G01 X52.4036 Y12.0689
G01 X52.4117 Y12.0552
G01 X52.4156 Y12.0493
G01 X52.4252 Y12.0365
G01 X52.4371 Y12.0233
G01 X53.6101 Y10.8503
G01 X53.6232 Y10.8384
G01 X53.6373 Y10.8276
G01 X53.6432 Y10.8237
G01 X53.6569 Y10.8156
G01 X53.6762 Y10.8066
G01 X53.6930 Y10.8007
G01 X53.7119 Y10.7959
G01 X53.7312 Y10.7930
G01 X53.7472 Y10.7922
G01 X54.7848 Y10.7921
G01 X54.8008 Y10.7928
G01 X54.8078 Y10.7935
G01 X54.8236 Y10.7959
G01 X54.8392 Y10.7997
G01 X54.8459 Y10.8018
G01 X54.8609 Y10.8072
G01 X54.8754 Y10.8140
G01 X54.8816 Y10.8173
G01 X54.8953 Y10.8256
G01 X54.9110 Y10.8372
G01 X54.9267 Y10.8516
G01 X54.9374 Y10.8635
G01 X54.9681 Y10.9009
G01 X55.0346 Y10.9553
G01 X55.1103 Y10.9958
G01 X55.1925 Y11.0208
G01 X55.2878 Y11.0302
G01 X58.4808 Y11.0302
G01 X58.5002 Y11.0313
G01 X58.5212 Y11.0348
G01 X58.5401 Y11.0398
G01 X58.5552 Y11.0453
G01 X58.5696 Y11.0521
G01 X58.5880 Y11.0627
G01 X58.6038 Y11.0742
G01 X58.6197 Y11.0884
G01 X58.6316 Y11.1015
G01 X58.6424 Y11.1157
G01 X58.6463 Y11.1215
G01 X58.6544 Y11.1353
G01 X58.6628 Y11.1530
G01 X58.6682 Y11.1680
G01 X58.6703 Y11.1747
G01 X58.6741 Y11.1903
G01 X58.6768 Y11.2078
G01 X58.6779 Y11.2291
G01 X58.6779 Y11.4688
G01 X58.6772 Y11.4847
G01 X58.6765 Y11.4917
G01 X58.6741 Y11.5075
G01 X58.6703 Y11.5231
G01 X58.6683 Y11.5298
G01 X58.6628 Y11.5448
G01 X58.6561 Y11.5593
G01 X58.6527 Y11.5655
G01 X58.6445 Y11.5792
G01 X58.6350 Y11.5921
G01 X58.6306 Y11.5975
G01 X58.6198 Y11.6093
G01 X58.6080 Y11.6201
G01 X58.6026 Y11.6246
G01 X58.5897 Y11.6340
G01 X58.5760 Y11.6423
G01 X58.5698 Y11.6457
G01 X58.5554 Y11.6524
G01 X58.5370 Y11.6590
G01 X58.5181 Y11.6638
G01 X58.4988 Y11.6667
G01 X58.4793 Y11.6677
G01 X57.2463 Y11.6698
G01 X57.2039 Y11.7121
G01 X57.2039 Y12.0342
G01 X58.9798 Y12.0342
G01 X58.9903 Y12.0352
G01 X58.9972 Y12.0368
G01 X59.0022 Y12.0384
G01 X59.0071 Y12.0403
G01 X59.0134 Y12.0435
G01 X59.0179 Y12.0463
G01 X59.0236 Y12.0505
G01 X59.0275 Y12.0540
G01 X59.0324 Y12.0591
G01 X59.0367 Y12.0646
G01 X59.0396 Y12.0691
G01 X59.0422 Y12.0737
G01 X59.0450 Y12.0801
G01 X59.0468 Y12.0851
G01 X59.0485 Y12.0920
G01 X59.0495 Y12.0990
G01 X59.0498 Y12.1060
G01 X59.0498 Y13.4578
G01 X59.0493 Y13.4648
G01 X59.0477 Y13.4735
G01 X59.0450 Y13.4819
G01 X59.0422 Y13.4883
G01 X59.0387 Y13.4944
G01 X59.0335 Y13.5016
G01 X59.0275 Y13.5080
G01 X59.0222 Y13.5126
G01 X59.0164 Y13.5167
G01 X59.0119 Y13.5194
G01 X59.0055 Y13.5224
G01 X59.0005 Y13.5242
G01 X58.9955 Y13.5257
G01 X58.9885 Y13.5271
G01 X58.9780 Y13.5278
G01 X57.2039 Y13.5279
G01 X57.2039 Y13.8499
G01 X57.2463 Y13.8922
G01 X58.4793 Y13.8943
G01 X58.4988 Y13.8953
G01 X58.5181 Y13.8982
G01 X58.5336 Y13.9020
G01 X58.5403 Y13.9041
G01 X58.5554 Y13.9096
G01 X58.5698 Y13.9163
G01 X58.5760 Y13.9197
G01 X58.5897 Y13.9280
G01 X58.6053 Y13.9396
G01 X58.6172 Y13.9503
G01 X58.6222 Y13.9552
G01 X58.6329 Y13.9672
G01 X58.6445 Y13.9828
G01 X58.6545 Y13.9996
G01 X58.6614 Y14.0140
G01 X58.6683 Y14.0322
G01 X58.6703 Y14.0389
G01 X58.6741 Y14.0545
G01 X58.6765 Y14.0703
G01 X58.6772 Y14.0773
G01 X58.6779 Y14.0932
G01 X58.6779 Y18.9248
G01 X58.6768 Y18.9442
G01 X58.6733 Y18.9652
G01 X58.6682 Y18.9841
G01 X58.6628 Y18.9991
G01 X58.6560 Y19.0136
G01 X58.6454 Y19.0320
G01 X58.6339 Y19.0478
G01 X58.6197 Y19.0637
G01 X58.6065 Y19.0756
G01 X58.5895 Y19.0884
G01 X58.5758 Y19.0967
G01 X58.5696 Y19.1000
G01 X58.5518 Y19.1080
G01 X58.5367 Y19.1133
G01 X58.5178 Y19.1181
G01 X58.4985 Y19.1210
G01 X58.4790 Y19.1219
G01 X52.8201 Y19.1219
G01 X52.8006 Y19.1210
G01 X52.7813 Y19.1181
G01 X52.7623 Y19.1133
G01 X52.7438 Y19.1067
G01 X52.7263 Y19.0984
G01 X52.7125 Y19.0903
G01 X52.7067 Y19.0864
G01 X52.6939 Y19.0768
G01 X52.6820 Y19.0661
G01 X52.6770 Y19.0611
G01 X52.6663 Y19.0492
G01 X52.6567 Y19.0364
G01 X52.6528 Y19.0305
G01 X52.6446 Y19.0168
G01 X52.6377 Y19.0023
G01 X52.6350 Y18.9958
G01 X52.6297 Y18.9807
G01 X52.6253 Y18.9635
G01 X52.6225 Y18.9460
G01 X52.6219 Y18.9390
G01 X52.6212 Y18.9230
G01 X52.6212 Y16.9658
G01 X52.6118 Y16.8705
G01 X52.5868 Y16.7883
G01 X52.5463 Y16.7126
G01 X52.4919 Y16.6461
G01 X52.4528 Y16.6141
G01 X52.4396 Y16.6022
G01 X52.4252 Y16.5865
G01 X52.4146 Y16.5723
G01 X52.4036 Y16.5541
G01 X52.3967 Y16.5397
G01 X52.3940 Y16.5332
G01 X52.3887 Y16.5181
G01 X52.3847 Y16.5026
G01 X52.3833 Y16.4957
G01 X52.3810 Y16.4798
G00 Z2.0000
G00 X50.6732 Y16.8847
G01 F30.00
G01 Z-0.0600
G01 F60.00
G01 X50.6820 Y16.8842
G01 X51.0720 Y16.8842
G01 X51.0720 Y11.7340
G01 X51.0742 Y11.6877
G01 X51.0804 Y11.6454
G01 X51.0818 Y11.6385
G01 X51.0928 Y11.5953
G01 X51.1066 Y11.5566
G01 X51.1093 Y11.5501
G01 X51.1277 Y11.5115
G01 X51.1496 Y11.4747
G01 X51.1535 Y11.4689
G01 X51.1791 Y11.4345
G01 X51.2090 Y11.4015
G01 X52.9908 Y9.6198
G01 X53.0225 Y9.5911
G01 X53.0597 Y9.5635
G01 X53.0995 Y9.5397
G01 X53.1381 Y9.5213
G01 X53.1446 Y9.5186
G01 X53.1850 Y9.5043
G01 X53.2265 Y9.4938
G01 X53.2334 Y9.4924
G01 X53.2722 Y9.4867
G01 X53.2792 Y9.4860
G01 X53.3220 Y9.4840
G01 X55.2062 Y9.4839
G01 X55.2062 Y9.3192
G01 X55.2072 Y9.3087
G01 X55.2092 Y9.3001
G01 X55.2116 Y9.2935
G01 X55.2138 Y9.2887
G01 X55.2193 Y9.2796
G01 X55.2260 Y9.2715
G01 X55.2338 Y9.2644
G01 X55.2381 Y9.2613
G01 X55.2441 Y9.2576
G01 X55.2538 Y9.2534
G01 X55.2640 Y9.2505
G01 X55.2745 Y9.2492
G01 X58.8780 Y9.2492
G01 X58.8850 Y9.2495
G01 X58.8937 Y9.2509
G01 X58.9005 Y9.2528
G01 X58.9071 Y9.2553
G01 X58.9134 Y9.2585
G01 X58.9194 Y9.2623
G01 X58.9263 Y9.2678
G01 X58.9312 Y9.2727
G01 X58.9346 Y9.2768
G01 X58.9387 Y9.2826
G01 X58.9422 Y9.2887
G01 X58.9450 Y9.2951
G01 X58.9472 Y9.3018
G01 X58.9485 Y9.3070
G01 X58.9495 Y9.3140
G01 X58.9498 Y9.3192
G01 X58.9498 Y10.5928
G01 X58.9493 Y10.5998
G01 X58.9485 Y10.6050
G01 X58.9472 Y10.6102
G01 X58.9450 Y10.6169
G01 X58.9405 Y10.6264
G01 X58.9367 Y10.6324
G01 X58.9335 Y10.6366
G01 X58.9288 Y10.6418
G01 X58.9249 Y10.6454
G01 X58.9194 Y10.6497
G01 X58.9149 Y10.6526
G01 X58.9103 Y10.6552
G01 X58.9039 Y10.6580
G01 X58.8937 Y10.6611
G01 X58.8850 Y10.6625
G01 X58.8780 Y10.6628
G01 X55.2745 Y10.6628
G01 X55.2640 Y10.6615
G01 X55.2538 Y10.6586
G01 X55.2441 Y10.6544
G01 X55.2381 Y10.6507
G01 X55.2338 Y10.6476
G01 X55.2260 Y10.6405
G01 X55.2214 Y10.6352
G01 X55.2183 Y10.6309
G01 X55.2130 Y10.6217
G01 X55.2092 Y10.6119
G01 X55.2069 Y10.6015
G01 X55.2062 Y10.5928
G01 X55.2062 Y10.4280
G01 X53.5175 Y10.4281
G01 X52.0160 Y11.9295
G01 X52.0161 Y16.8842
G01 X52.1838 Y16.8842
G01 X52.1925 Y16.8849
G01 X52.2012 Y16.8868
G01 X52.2111 Y16.8903
G01 X52.2174 Y16.8935
G01 X52.2219 Y16.8963
G01 X52.2303 Y16.9028
G01 X52.2375 Y16.9104
G01 X52.2436 Y16.9191
G01 X52.2484 Y16.9285
G01 X52.2517 Y16.9385
G01 X52.2535 Y16.9490
G01 X52.2538 Y16.9560
G01 X52.2538 Y18.9578
G01 X52.2531 Y18.9665
G01 X52.2517 Y18.9735
G01 X52.2490 Y18.9819
G01 X52.2454 Y18.9899
G01 X52.2417 Y18.9959
G01 X52.2364 Y19.0029
G01 X52.2303 Y19.0092
G01 X52.2248 Y19.0137
G01 X52.2189 Y19.0176
G01 X52.2143 Y19.0202
G01 X52.2045 Y19.0242
G01 X52.1977 Y19.0261
G01 X52.1925 Y19.0271
G01 X52.1820 Y19.0278
G01 X50.6820 Y19.0278
G01 X50.6732 Y19.0273
G01 X50.6645 Y19.0257
G01 X50.6561 Y19.0230
G01 X50.6497 Y19.0202
G01 X50.6421 Y19.0157
G01 X50.6364 Y19.0115
G01 X50.6300 Y19.0055
G01 X50.6243 Y18.9988
G01 X50.6186 Y18.9899
G01 X50.6163 Y18.9851
G01 X50.6138 Y18.9785
G01 X50.6112 Y18.9683
G01 X50.6105 Y18.9630
G01 X50.6102 Y18.9560
G01 X50.6102 Y16.9542
G01 X50.6107 Y16.9472
G01 X50.6119 Y16.9403
G01 X50.6132 Y16.9351
G01 X50.6156 Y16.9285
G01 X50.6186 Y16.9221
G01 X50.6213 Y16.9176
G01 X50.6243 Y16.9132
G01 X50.6288 Y16.9077
G01 X50.6337 Y16.9028
G01 X50.6392 Y16.8983
G01 X50.6436 Y16.8953
G01 X50.6497 Y16.8918
G01 X50.6561 Y16.8890
G01 X50.6611 Y16.8872
G01 X50.6680 Y16.8855
G01 X50.6732 Y16.8847
G00 Z2.0000
G00 X44.6732 Y16.8847
G01 F30.00
G01 Z-0.0600
G01 F60.00
G01 X44.6820 Y16.8842
G01 X44.9760 Y16.8842
G01 X44.9759 Y15.6942
G01 X44.9651 Y15.6817
G01 X44.9330 Y15.6384
G01 X44.9291 Y15.6325
G01 X44.8996 Y15.5831
G01 X44.8728 Y15.5263
G01 X44.8529 Y15.4705
G01 X44.8381 Y15.4113
G01 X44.8291 Y15.3510
G01 X44.8262 Y15.2935
G01 X44.8262 Y15.2865
G01 X44.8291 Y15.2290
G01 X44.8375 Y15.1722
G01 X44.8389 Y15.1652
G01 X44.8529 Y15.1095
G01 X44.8722 Y15.0553
G01 X44.8749 Y15.0488
G01 X44.8988 Y14.9984
G01 X44.9310 Y14.9445
G01 X44.9673 Y14.8955
G01 X45.0083 Y14.8503
G01 X45.0535 Y14.8093
G01 X45.1025 Y14.7730
G01 X45.1549 Y14.7416
G01 X45.2100 Y14.7155
G01 X45.2675 Y14.6949
G01 X45.3267 Y14.6801
G01 X45.3870 Y14.6711
G01 X45.4480 Y14.6682
G01 X45.5090 Y14.6711
G01 X45.5693 Y14.6801
G01 X45.6285 Y14.6949
G01 X45.6860 Y14.7155
G01 X45.7396 Y14.7408
G01 X45.7935 Y14.7730
G01 X45.8397 Y14.8071
G01 X45.8452 Y14.8116
G01 X45.8877 Y14.8503
G01 X45.9264 Y14.8928
G01 X45.9309 Y14.8983
G01 X45.9650 Y14.9445
G01 X45.9964 Y14.9969
G01 X46.0211 Y15.0488
G01 X46.0238 Y15.0553
G01 X46.0431 Y15.1095
G01 X46.0571 Y15.1652
G01 X46.0585 Y15.1722
G01 X46.0667 Y15.2273
G01 X46.0698 Y15.2900
G01 X46.0669 Y15.3510
G01 X46.0579 Y15.4113
G01 X46.0431 Y15.4705
G01 X46.0225 Y15.5280
G01 X45.9964 Y15.5831
G01 X45.9641 Y15.6369
G01 X45.9298 Y15.6831
G01 X45.9200 Y15.6942
G01 X45.9201 Y16.8842
G01 X46.1820 Y16.8842
G01 X46.1873 Y16.8843
G01 X46.1943 Y16.8852
G01 X46.2045 Y16.8878
G01 X46.2143 Y16.8918
G01 X46.2189 Y16.8944
G01 X46.2248 Y16.8983
G01 X46.2328 Y16.9052
G01 X46.2375 Y16.9104
G01 X46.2407 Y16.9146
G01 X46.2462 Y16.9237
G01 X46.2502 Y16.9335
G01 X46.2521 Y16.9403
G01 X46.2531 Y16.9455
G01 X46.2538 Y16.9560
G01 X46.2538 Y18.9578
G01 X46.2531 Y18.9665
G01 X46.2517 Y18.9735
G01 X46.2490 Y18.9819
G01 X46.2454 Y18.9899
G01 X46.2417 Y18.9959
G01 X46.2364 Y19.0029
G01 X46.2303 Y19.0092
G01 X46.2248 Y19.0137
G01 X46.2189 Y19.0176
G01 X46.2143 Y19.0202
G01 X46.2045 Y19.0242
G01 X46.1977 Y19.0261
G01 X46.1925 Y19.0271
G01 X46.1820 Y19.0278
G01 X44.6820 Y19.0278
G01 X44.6732 Y19.0273
G01 X44.6645 Y19.0257
G01 X44.6561 Y19.0230
G01 X44.6497 Y19.0202
G01 X44.6421 Y19.0157
G01 X44.6364 Y19.0115
G01 X44.6300 Y19.0055
G01 X44.6243 Y18.9988
G01 X44.6186 Y18.9899
G01 X44.6163 Y18.9851
G01 X44.6138 Y18.9785
G01 X44.6112 Y18.9683
G01 X44.6105 Y18.9630
G01 X44.6102 Y18.9560
G01 X44.6102 Y16.9542
G01 X44.6107 Y16.9472
G01 X44.6115 Y16.9420
G01 X44.6132 Y16.9351
G01 X44.6156 Y16.9285
G01 X44.6186 Y16.9221
G01 X44.6213 Y16.9176
G01 X44.6243 Y16.9132
G01 X44.6288 Y16.9077
G01 X44.6337 Y16.9028
G01 X44.6378 Y16.8994
G01 X44.6421 Y16.8963
G01 X44.6481 Y16.8926
G01 X44.6545 Y16.8896
G01 X44.6595 Y16.8878
G01 X44.6663 Y16.8859
G01 X44.6732 Y16.8847
G00 Z2.0000
G00 X42.6715 Y16.8849
G01 F30.00
G01 Z-0.0600
G01 F60.00
G01 X42.6820 Y16.8842
G01 X42.9440 Y16.8842
G01 X42.9439 Y15.6942
G01 X42.9342 Y15.6831
G01 X42.8990 Y15.6355
G01 X42.8693 Y15.5862
G01 X42.8660 Y15.5800
G01 X42.8415 Y15.5280
G01 X42.8220 Y15.4739
G01 X42.8200 Y15.4671
G01 X42.8069 Y15.4148
G01 X42.8055 Y15.4078
G01 X42.7971 Y15.3510
G01 X42.7942 Y15.2935
G01 X42.7942 Y15.2865
G01 X42.7971 Y15.2290
G01 X42.8061 Y15.1687
G01 X42.8200 Y15.1129
G01 X42.8220 Y15.1061
G01 X42.8422 Y15.0504
G01 X42.8676 Y14.9969
G01 X42.8990 Y14.9445
G01 X42.9353 Y14.8955
G01 X42.9763 Y14.8503
G01 X43.0215 Y14.8093
G01 X43.0705 Y14.7730
G01 X43.1229 Y14.7416
G01 X43.1780 Y14.7155
G01 X43.2355 Y14.6949
G01 X43.2947 Y14.6801
G01 X43.3550 Y14.6711
G01 X43.4160 Y14.6682
G01 X43.4770 Y14.6711
G01 X43.5373 Y14.6801
G01 X43.5965 Y14.6949
G01 X43.6556 Y14.7162
G01 X43.7091 Y14.7416
G01 X43.7585 Y14.7711
G01 X43.7644 Y14.7750
G01 X43.8105 Y14.8093
G01 X43.8532 Y14.8479
G01 X43.8581 Y14.8528
G01 X43.8967 Y14.8955
G01 X43.9310 Y14.9416
G01 X43.9349 Y14.9475
G01 X43.9644 Y14.9969
G01 X43.9891 Y15.0488
G01 X43.9918 Y15.0553
G01 X44.0111 Y15.1095
G01 X44.0251 Y15.1652
G01 X44.0265 Y15.1722
G01 X44.0347 Y15.2273
G01 X44.0378 Y15.2900
G01 X44.0349 Y15.3510
G01 X44.0259 Y15.4113
G01 X44.0111 Y15.4705
G01 X43.9905 Y15.5280
G01 X43.9644 Y15.5831
G01 X43.9321 Y15.6369
G01 X43.8978 Y15.6831
G01 X43.8880 Y15.6942
G01 X43.8881 Y16.8842
G01 X44.1820 Y16.8842
G01 X44.1873 Y16.8843
G01 X44.1943 Y16.8852
G01 X44.2045 Y16.8878
G01 X44.2143 Y16.8918
G01 X44.2189 Y16.8944
G01 X44.2248 Y16.8983
G01 X44.2328 Y16.9052
G01 X44.2397 Y16.9132
G01 X44.2427 Y16.9176
G01 X44.2462 Y16.9237
G01 X44.2502 Y16.9335
G01 X44.2521 Y16.9403
G01 X44.2531 Y16.9455
G01 X44.2538 Y16.9560
G01 X44.2538 Y18.9578
G01 X44.2531 Y18.9665
G01 X44.2517 Y18.9735
G01 X44.2490 Y18.9819
G01 X44.2454 Y18.9899
G01 X44.2417 Y18.9959
G01 X44.2364 Y19.0029
G01 X44.2303 Y19.0092
G01 X44.2248 Y19.0137
G01 X44.2189 Y19.0176
G01 X44.2143 Y19.0202
G01 X44.2045 Y19.0242
G01 X44.1977 Y19.0261
G01 X44.1925 Y19.0271
G01 X44.1820 Y19.0278
G01 X42.6820 Y19.0278
G01 X42.6732 Y19.0273
G01 X42.6645 Y19.0257
G01 X42.6561 Y19.0230
G01 X42.6497 Y19.0202
G01 X42.6421 Y19.0157
G01 X42.6364 Y19.0115
G01 X42.6300 Y19.0055
G01 X42.6243 Y18.9988
G01 X42.6186 Y18.9899
G01 X42.6163 Y18.9851
G01 X42.6138 Y18.9785
G01 X42.6112 Y18.9683
G01 X42.6105 Y18.9630
G01 X42.6102 Y18.9560
G01 X42.6102 Y16.9542
G01 X42.6105 Y16.9490
G01 X42.6115 Y16.9420
G01 X42.6132 Y16.9351
G01 X42.6150 Y16.9301
G01 X42.6178 Y16.9237
G01 X42.6213 Y16.9176
G01 X42.6243 Y16.9132
G01 X42.6288 Y16.9077
G01 X42.6337 Y16.9028
G01 X42.6378 Y16.8994
G01 X42.6436 Y16.8953
G01 X42.6481 Y16.8926
G01 X42.6545 Y16.8896
G01 X42.6595 Y16.8878
G01 X42.6663 Y16.8859
G01 X42.6715 Y16.8849
G00 Z2.0000
G00 X40.6715 Y16.8849
G01 F30.00
G01 Z-0.0600
G01 F60.00
G01 X40.6820 Y16.8842
G01 X40.9120 Y16.8842
G01 X40.9119 Y15.6942
G01 X40.9022 Y15.6831
G01 X40.8670 Y15.6355
G01 X40.8373 Y15.5862
G01 X40.8340 Y15.5800
G01 X40.8095 Y15.5280
G01 X40.7900 Y15.4739
G01 X40.7880 Y15.4671
G01 X40.7749 Y15.4148
G01 X40.7735 Y15.4078
G01 X40.7651 Y15.3510
G01 X40.7622 Y15.2935
G01 X40.7622 Y15.2865
G01 X40.7651 Y15.2290
G01 X40.7741 Y15.1687
G01 X40.7880 Y15.1129
G01 X40.7900 Y15.1061
G01 X40.8102 Y15.0504
G01 X40.8356 Y14.9969
G01 X40.8670 Y14.9445
G01 X40.9033 Y14.8955
G01 X40.9443 Y14.8503
G01 X40.9895 Y14.8093
G01 X41.0385 Y14.7730
G01 X41.0909 Y14.7416
G01 X41.1460 Y14.7155
G01 X41.2035 Y14.6949
G01 X41.2627 Y14.6801
G01 X41.3230 Y14.6711
G01 X41.3840 Y14.6682
G01 X41.4450 Y14.6711
G01 X41.5053 Y14.6801
G01 X41.5645 Y14.6949
G01 X41.6236 Y14.7162
G01 X41.6771 Y14.7416
G01 X41.7265 Y14.7711
G01 X41.7324 Y14.7750
G01 X41.7785 Y14.8093
G01 X41.8212 Y14.8479
G01 X41.8261 Y14.8528
G01 X41.8647 Y14.8955
G01 X41.8990 Y14.9416
G01 X41.9029 Y14.9475
G01 X41.9324 Y14.9969
G01 X41.9571 Y15.0488
G01 X41.9598 Y15.0553
G01 X41.9791 Y15.1095
G01 X41.9931 Y15.1652
G01 X41.9945 Y15.1722
G01 X42.0029 Y15.2290
G01 X42.0058 Y15.2900
G01 X42.0029 Y15.3510
G01 X41.9939 Y15.4113
G01 X41.9791 Y15.4705
G01 X41.9585 Y15.5280
G01 X41.9324 Y15.5831
G01 X41.9001 Y15.6369
G01 X41.8658 Y15.6831
G01 X41.8560 Y15.6942
G01 X41.8561 Y16.8842
G01 X42.1820 Y16.8842
G01 X42.1925 Y16.8849
G01 X42.1977 Y16.8859
G01 X42.2045 Y16.8878
G01 X42.2143 Y16.8918
G01 X42.2189 Y16.8944
G01 X42.2248 Y16.8983
G01 X42.2328 Y16.9052
G01 X42.2375 Y16.9104
G01 X42.2407 Y16.9146
G01 X42.2462 Y16.9237
G01 X42.2502 Y16.9335
G01 X42.2517 Y16.9385
G01 X42.2531 Y16.9455
G01 X42.2538 Y16.9560
G01 X42.2538 Y18.9578
G01 X42.2531 Y18.9665
G01 X42.2517 Y18.9735
G01 X42.2490 Y18.9819
G01 X42.2454 Y18.9899
G01 X42.2417 Y18.9959
G01 X42.2364 Y19.0029
G01 X42.2303 Y19.0092
G01 X42.2248 Y19.0137
G01 X42.2189 Y19.0176
G01 X42.2143 Y19.0202
G01 X42.2045 Y19.0242
G01 X42.1977 Y19.0261
G01 X42.1925 Y19.0271
G01 X42.1820 Y19.0278
G01 X40.6820 Y19.0278
G01 X40.6732 Y19.0273
G01 X40.6645 Y19.0257
G01 X40.6561 Y19.0230
G01 X40.6497 Y19.0202
G01 X40.6421 Y19.0157
G01 X40.6364 Y19.0115
G01 X40.6300 Y19.0055
G01 X40.6243 Y18.9988
G01 X40.6186 Y18.9899
G01 X40.6163 Y18.9851
G01 X40.6138 Y18.9785
G01 X40.6112 Y18.9683
G01 X40.6105 Y18.9630
G01 X40.6102 Y18.9560
G01 X40.6102 Y16.9542
G01 X40.6107 Y16.9472
G01 X40.6119 Y16.9403
G01 X40.6132 Y16.9351
G01 X40.6156 Y16.9285
G01 X40.6186 Y16.9221
G01 X40.6213 Y16.9176
G01 X40.6243 Y16.9132
G01 X40.6288 Y16.9077
G01 X40.6325 Y16.9040
G01 X40.6378 Y16.8994
G01 X40.6436 Y16.8953
G01 X40.6481 Y16.8926
G01 X40.6529 Y16.8903
G01 X40.6595 Y16.8878
G01 X40.6645 Y16.8863
G01 X40.6715 Y16.8849
G00 Z2.0000
G00 X38.6715 Y16.8849
G01 F30.00
G01 Z-0.0600
G01 F60.00
G01 X38.6820 Y16.8842
G01 X40.1838 Y16.8842
G01 X40.1925 Y16.8849
G01 X40.1995 Y16.8863
G01 X40.2062 Y16.8884
G01 X40.2143 Y16.8918
G01 X40.2219 Y16.8963
G01 X40.2289 Y16.9016
G01 X40.2340 Y16.9065
G01 X40.2397 Y16.9132
G01 X40.2436 Y16.9191
G01 X40.2462 Y16.9237
G01 X40.2502 Y16.9335
G01 X40.2517 Y16.9385
G01 X40.2531 Y16.9455
G01 X40.2538 Y16.9560
G01 X40.2538 Y18.9560
G01 X40.2533 Y18.9648
G01 X40.2517 Y18.9735
G01 X40.2490 Y18.9819
G01 X40.2462 Y18.9883
G01 X40.2417 Y18.9959
G01 X40.2364 Y19.0029
G01 X40.2303 Y19.0092
G01 X40.2248 Y19.0137
G01 X40.2189 Y19.0176
G01 X40.2143 Y19.0202
G01 X40.2045 Y19.0242
G01 X40.1977 Y19.0261
G01 X40.1925 Y19.0271
G01 X40.1820 Y19.0278
G01 X38.6820 Y19.0278
G01 X38.6732 Y19.0273
G01 X38.6645 Y19.0257
G01 X38.6578 Y19.0236
G01 X38.6497 Y19.0202
G01 X38.6421 Y19.0157
G01 X38.6351 Y19.0104
G01 X38.6288 Y19.0043
G01 X38.6243 Y18.9988
G01 X38.6213 Y18.9944
G01 X38.6178 Y18.9883
G01 X38.6138 Y18.9785
G01 X38.6119 Y18.9717
G01 X38.6109 Y18.9665
G01 X38.6102 Y18.9560
G01 X38.6102 Y16.9542
G01 X38.6105 Y16.9490
G01 X38.6115 Y16.9420
G01 X38.6132 Y16.9351
G01 X38.6156 Y16.9285
G01 X38.6186 Y16.9221
G01 X38.6213 Y16.9176
G01 X38.6254 Y16.9118
G01 X38.6288 Y16.9077
G01 X38.6325 Y16.9040
G01 X38.6378 Y16.8994
G01 X38.6421 Y16.8963
G01 X38.6481 Y16.8926
G01 X38.6529 Y16.8903
G01 X38.6595 Y16.8878
G01 X38.6663 Y16.8859
G01 X38.6715 Y16.8849
G00 Z2.0000
G00 X36.6715 Y16.8849
G01 F30.00
G01 Z-0.0600
G01 F60.00
G01 X36.6820 Y16.8842
G01 X38.1838 Y16.8842
G01 X38.1925 Y16.8849
G01 X38.1995 Y16.8863
G01 X38.2062 Y16.8884
G01 X38.2143 Y16.8918
G01 X38.2219 Y16.8963
G01 X38.2289 Y16.9016
G01 X38.2340 Y16.9065
G01 X38.2397 Y16.9132
G01 X38.2436 Y16.9191
G01 X38.2462 Y16.9237
G01 X38.2502 Y16.9335
G01 X38.2517 Y16.9385
G01 X38.2531 Y16.9455
G01 X38.2538 Y16.9560
G01 X38.2538 Y18.9560
G01 X38.2533 Y18.9648
G01 X38.2517 Y18.9735
G01 X38.2490 Y18.9819
G01 X38.2462 Y18.9883
G01 X38.2417 Y18.9959
G01 X38.2364 Y19.0029
G01 X38.2303 Y19.0092
G01 X38.2248 Y19.0137
G01 X38.2189 Y19.0176
G01 X38.2143 Y19.0202
G01 X38.2045 Y19.0242
G01 X38.1977 Y19.0261
G01 X38.1925 Y19.0271
G01 X38.1820 Y19.0278
G01 X36.6820 Y19.0278
G01 X36.6732 Y19.0273
G01 X36.6645 Y19.0257
G01 X36.6578 Y19.0236
G01 X36.6497 Y19.0202
G01 X36.6421 Y19.0157
G01 X36.6351 Y19.0104
G01 X36.6288 Y19.0043
G01 X36.6243 Y18.9988
G01 X36.6213 Y18.9944
G01 X36.6178 Y18.9883
G01 X36.6138 Y18.9785
G01 X36.6119 Y18.9717
G01 X36.6109 Y18.9665
G01 X36.6102 Y18.9560
G01 X36.6102 Y16.9542
G01 X36.6105 Y16.9490
G01 X36.6115 Y16.9420
G01 X36.6132 Y16.9351
G01 X36.6156 Y16.9285
G01 X36.6186 Y16.9221
G01 X36.6213 Y16.9176
G01 X36.6254 Y16.9118
G01 X36.6288 Y16.9077
G01 X36.6325 Y16.9040
G01 X36.6378 Y16.8994
G01 X36.6421 Y16.8963
G01 X36.6481 Y16.8926
G01 X36.6529 Y16.8903
G01 X36.6595 Y16.8878
G01 X36.6663 Y16.8859
G01 X36.6715 Y16.8849
G00 Z2.0000
G00 X31.1142 Y17.5725
G01 F30.00
G01 Z-0.0600
G01 F60.00
G01 X31.1183 Y17.4905
G01 X31.1309 Y17.4059
G01 X31.1517 Y17.3229
G01 X31.1805 Y17.2424
G01 X31.2171 Y17.1650
G01 X31.2611 Y17.0916
G01 X31.3121 Y17.0229
G01 X31.3695 Y16.9595
G01 X31.4329 Y16.9021
G01 X31.5016 Y16.8511
G01 X31.5750 Y16.8071
G01 X31.6524 Y16.7705
G01 X31.7329 Y16.7417
G01 X31.8159 Y16.7209
G01 X31.9005 Y16.7083
G01 X31.9860 Y16.7042
G01 X32.0715 Y16.7083
G01 X32.1561 Y16.7209
G01 X32.2391 Y16.7417
G01 X32.3196 Y16.7705
G01 X32.3970 Y16.8071
G01 X32.4704 Y16.8511
G01 X32.5391 Y16.9021
G01 X32.6025 Y16.9595
G01 X32.6599 Y17.0229
G01 X32.7109 Y17.0916
G01 X32.7549 Y17.1650
G01 X32.7915 Y17.2424
G01 X32.8203 Y17.3229
G01 X32.8411 Y17.4059
G01 X32.8537 Y17.4905
G01 X32.8578 Y17.5760
G01 X32.8537 Y17.6615
G01 X32.8411 Y17.7461
G01 X32.8203 Y17.8291
G01 X32.7915 Y17.9096
G01 X32.7549 Y17.9870
G01 X32.7109 Y18.0604
G01 X32.6599 Y18.1291
G01 X32.6025 Y18.1925
G01 X32.5391 Y18.2499
G01 X32.4704 Y18.3009
G01 X32.3970 Y18.3449
G01 X32.3196 Y18.3815
G01 X32.2391 Y18.4103
G01 X32.1561 Y18.4311
G01 X32.0715 Y18.4437
G01 X31.9860 Y18.4478
G01 X31.9005 Y18.4437
G01 X31.8159 Y18.4311
G01 X31.7329 Y18.4103
G01 X31.6524 Y18.3815
G01 X31.5750 Y18.3449
G01 X31.5016 Y18.3009
G01 X31.4329 Y18.2499
G01 X31.3695 Y18.1925
G01 X31.3121 Y18.1291
G01 X31.2611 Y18.0604
G01 X31.2171 Y17.9870
G01 X31.1805 Y17.9096
G01 X31.1517 Y17.8291
G01 X31.1309 Y17.7461
G01 X31.1183 Y17.6615
G01 X31.1142 Y17.5795
G01 X31.1142 Y17.5725
G00 Z2.0000
G00 X28.5742 Y17.5725
G01 F30.00
G01 Z-0.0600
G01 F60.00
G01 X28.5783 Y17.4905
G01 X28.5909 Y17.4059
G01 X28.6117 Y17.3229
G01 X28.6405 Y17.2424
G01 X28.6771 Y17.1650
G01 X28.7211 Y17.0916
G01 X28.7721 Y17.0229
G01 X28.8295 Y16.9595
G01 X28.8929 Y16.9021
G01 X28.9616 Y16.8511
G01 X29.0350 Y16.8071
G01 X29.1124 Y16.7705
G01 X29.1929 Y16.7417
G01 X29.2759 Y16.7209
G01 X29.3605 Y16.7083
G01 X29.4460 Y16.7042
G01 X29.5315 Y16.7083
G01 X29.6161 Y16.7209
G01 X29.6991 Y16.7417
G01 X29.7796 Y16.7705
G01 X29.8570 Y16.8071
G01 X29.9304 Y16.8511
G01 X29.9991 Y16.9021
G01 X30.0625 Y16.9595
G01 X30.1199 Y17.0229
G01 X30.1709 Y17.0916
G01 X30.2149 Y17.1650
G01 X30.2515 Y17.2424
G01 X30.2803 Y17.3229
G01 X30.3011 Y17.4059
G01 X30.3137 Y17.4905
G01 X30.3178 Y17.5760
G01 X30.3137 Y17.6615
G01 X30.3011 Y17.7461
G01 X30.2803 Y17.8291
G01 X30.2515 Y17.9096
G01 X30.2149 Y17.9870
G01 X30.1709 Y18.0604
G01 X30.1199 Y18.1291
G01 X30.0625 Y18.1925
G01 X29.9991 Y18.2499
G01 X29.9304 Y18.3009
G01 X29.8570 Y18.3449
G01 X29.7796 Y18.3815
G01 X29.6991 Y18.4103
G01 X29.6161 Y18.4311
G01 X29.5315 Y18.4437
G01 X29.4460 Y18.4478
G01 X29.3605 Y18.4437
G01 X29.2759 Y18.4311
G01 X29.1929 Y18.4103
G01 X29.1124 Y18.3815
G01 X29.0350 Y18.3449
G01 X28.9616 Y18.3009
G01 X28.8929 Y18.2499
G01 X28.8295 Y18.1925
G01 X28.7721 Y18.1291
G01 X28.7211 Y18.0604
G01 X28.6771 Y17.9870
G01 X28.6405 Y17.9096
G01 X28.6117 Y17.8291
G01 X28.5909 Y17.7461
G01 X28.5783 Y17.6615
G01 X28.5742 Y17.5795
G01 X28.5742 Y17.5725
G00 Z2.0000
G00 X26.0342 Y17.5725
G01 F30.00
G01 Z-0.0600
G01 F60.00
G01 X26.0383 Y17.4905
G01 X26.0509 Y17.4059
G01 X26.0717 Y17.3229
G01 X26.1005 Y17.2424
G01 X26.1371 Y17.1650
G01 X26.1811 Y17.0916
G01 X26.2321 Y17.0229
G01 X26.2895 Y16.9595
G01 X26.3529 Y16.9021
G01 X26.4216 Y16.8511
G01 X26.4950 Y16.8071
G01 X26.5724 Y16.7705
G01 X26.6529 Y16.7417
G01 X26.7359 Y16.7209
G01 X26.8205 Y16.7083
G01 X26.9060 Y16.7042
G01 X26.9915 Y16.7083
G01 X27.0761 Y16.7209
G01 X27.1591 Y16.7417
G01 X27.2396 Y16.7705
G01 X27.3170 Y16.8071
G01 X27.3904 Y16.8511
G01 X27.4591 Y16.9021
G01 X27.5225 Y16.9595
G01 X27.5799 Y17.0229
G01 X27.6309 Y17.0916
G01 X27.6749 Y17.1650
G01 X27.7115 Y17.2424
G01 X27.7403 Y17.3229
G01 X27.7611 Y17.4059
G01 X27.7737 Y17.4905
G01 X27.7778 Y17.5760
G01 X27.7737 Y17.6615
G01 X27.7611 Y17.7461
G01 X27.7403 Y17.8291
G01 X27.7115 Y17.9096
G01 X27.6749 Y17.9870
G01 X27.6309 Y18.0604
G01 X27.5799 Y18.1291
G01 X27.5225 Y18.1925
G01 X27.4591 Y18.2499
G01 X27.3904 Y18.3009
G01 X27.3170 Y18.3449
G01 X27.2396 Y18.3815
G01 X27.1591 Y18.4103
G01 X27.0761 Y18.4311
G01 X26.9915 Y18.4437
G01 X26.9060 Y18.4478
G01 X26.8205 Y18.4437
G01 X26.7359 Y18.4311
G01 X26.6529 Y18.4103
G01 X26.5724 Y18.3815
G01 X26.4950 Y18.3449
G01 X26.4216 Y18.3009
G01 X26.3529 Y18.2499
G01 X26.2895 Y18.1925
G01 X26.2321 Y18.1291
G01 X26.1811 Y18.0604
G01 X26.1371 Y17.9870
G01 X26.1005 Y17.9096
G01 X26.0717 Y17.8291
G01 X26.0509 Y17.7461
G01 X26.0383 Y17.6615
G01 X26.0342 Y17.5795
G01 X26.0342 Y17.5725
G00 Z2.0000
G00 X23.4942 Y17.5742
G01 F30.00
G01 Z-0.0600
G01 F60.00
G01 X23.4983 Y17.4905
G01 X23.5109 Y17.4059
G01 X23.5317 Y17.3229
G01 X23.5605 Y17.2424
G01 X23.5971 Y17.1650
G01 X23.6411 Y17.0916
G01 X23.6921 Y17.0229
G01 X23.7495 Y16.9595
G01 X23.8129 Y16.9021
G01 X23.8816 Y16.8511
G01 X23.9550 Y16.8071
G01 X24.0324 Y16.7705
G01 X24.1129 Y16.7417
G01 X24.1959 Y16.7209
G01 X24.2805 Y16.7083
G01 X24.3660 Y16.7042
G01 X24.4515 Y16.7083
G01 X24.5361 Y16.7209
G01 X24.6191 Y16.7417
G01 X24.6996 Y16.7705
G01 X24.7770 Y16.8071
G01 X24.8504 Y16.8511
G01 X24.9191 Y16.9021
G01 X24.9825 Y16.9595
G01 X25.0399 Y17.0229
G01 X25.0909 Y17.0916
G01 X25.1349 Y17.1650
G01 X25.1715 Y17.2424
G01 X25.2003 Y17.3229
G01 X25.2211 Y17.4059
G01 X25.2337 Y17.4905
G01 X25.2378 Y17.5760
G01 X25.2337 Y17.6615
G01 X25.2211 Y17.7461
G01 X25.2003 Y17.8291
G01 X25.1715 Y17.9096
G01 X25.1349 Y17.9870
G01 X25.0909 Y18.0604
G01 X25.0399 Y18.1291
G01 X24.9825 Y18.1925
G01 X24.9191 Y18.2499
G01 X24.8504 Y18.3009
G01 X24.7770 Y18.3449
G01 X24.6996 Y18.3815
G01 X24.6191 Y18.4103
G01 X24.5361 Y18.4311
G01 X24.4515 Y18.4437
G01 X24.3660 Y18.4478
G01 X24.2805 Y18.4437
G01 X24.1959 Y18.4311
G01 X24.1129 Y18.4103
G01 X24.0324 Y18.3815
G01 X23.9550 Y18.3449
G01 X23.8816 Y18.3009
G01 X23.8129 Y18.2499
G01 X23.7495 Y18.1925
G01 X23.6921 Y18.1291
G01 X23.6411 Y18.0604
G01 X23.5971 Y17.9870
G01 X23.5605 Y17.9096
G01 X23.5317 Y17.8291
G01 X23.5109 Y17.7461
G01 X23.4983 Y17.6615
G01 X23.4942 Y17.5742
G00 Z2.0000
G00 X20.9542 Y17.5742
G01 F30.00
G01 Z-0.0600
G01 F60.00
G01 X20.9583 Y17.4905
G01 X20.9709 Y17.4059
G01 X20.9917 Y17.3229
G01 X21.0205 Y17.2424
G01 X21.0571 Y17.1650
G01 X21.1011 Y17.0916
G01 X21.1521 Y17.0229
G01 X21.2095 Y16.9595
G01 X21.2729 Y16.9021
G01 X21.3416 Y16.8511
G01 X21.4150 Y16.8071
G01 X21.4924 Y16.7705
G01 X21.5729 Y16.7417
G01 X21.6559 Y16.7209
G01 X21.7405 Y16.7083
G01 X21.8260 Y16.7042
G01 X21.9115 Y16.7083
G01 X21.9961 Y16.7209
G01 X22.0791 Y16.7417
G01 X22.1596 Y16.7705
G01 X22.2370 Y16.8071
G01 X22.3104 Y16.8511
G01 X22.3791 Y16.9021
G01 X22.4425 Y16.9595
G01 X22.4999 Y17.0229
G01 X22.5509 Y17.0916
G01 X22.5949 Y17.1650
G01 X22.6315 Y17.2424
G01 X22.6603 Y17.3229
G01 X22.6811 Y17.4059
G01 X22.6937 Y17.4905
G01 X22.6978 Y17.5760
G01 X22.6937 Y17.6615
G01 X22.6811 Y17.7461
G01 X22.6603 Y17.8291
G01 X22.6315 Y17.9096
G01 X22.5949 Y17.9870
G01 X22.5509 Y18.0604
G01 X22.4999 Y18.1291
G01 X22.4425 Y18.1925
G01 X22.3791 Y18.2499
G01 X22.3104 Y18.3009
G01 X22.2370 Y18.3449
G01 X22.1596 Y18.3815
G01 X22.0791 Y18.4103
G01 X21.9961 Y18.4311
G01 X21.9115 Y18.4437
G01 X21.8260 Y18.4478
G01 X21.7405 Y18.4437
G01 X21.6559 Y18.4311
G01 X21.5729 Y18.4103
G01 X21.4924 Y18.3815
G01 X21.4150 Y18.3449
G01 X21.3416 Y18.3009
G01 X21.2729 Y18.2499
G01 X21.2095 Y18.1925
G01 X21.1521 Y18.1291
G01 X21.1011 Y18.0604
G01 X21.0571 Y17.9870
G01 X21.0205 Y17.9096
G01 X20.9917 Y17.8291
G01 X20.9709 Y17.7461
G01 X20.9583 Y17.6615
G01 X20.9542 Y17.5742
G00 Z2.0000
G00 X18.4142 Y17.5725
G01 F30.00
G01 Z-0.0600
G01 F60.00
G01 X18.4183 Y17.4905
G01 X18.4309 Y17.4059
G01 X18.4517 Y17.3229
G01 X18.4805 Y17.2424
G01 X18.5171 Y17.1650
G01 X18.5611 Y17.0916
G01 X18.6121 Y17.0229
G01 X18.6695 Y16.9595
G01 X18.7329 Y16.9021
G01 X18.8016 Y16.8511
G01 X18.8750 Y16.8071
G01 X18.9524 Y16.7705
G01 X19.0329 Y16.7417
G01 X19.1159 Y16.7209
G01 X19.2005 Y16.7083
G01 X19.2860 Y16.7042
G01 X19.3715 Y16.7083
G01 X19.4561 Y16.7209
G01 X19.5391 Y16.7417
G01 X19.6196 Y16.7705
G01 X19.6970 Y16.8071
G01 X19.7704 Y16.8511
G01 X19.8391 Y16.9021
G01 X19.9025 Y16.9595
G01 X19.9599 Y17.0229
G01 X20.0109 Y17.0916
G01 X20.0549 Y17.1650
G01 X20.0915 Y17.2424
G01 X20.1203 Y17.3229
G01 X20.1411 Y17.4059
G01 X20.1537 Y17.4905
G01 X20.1578 Y17.5760
G01 X20.1537 Y17.6615
G01 X20.1411 Y17.7461
G01 X20.1203 Y17.8291
G01 X20.0915 Y17.9096
G01 X20.0549 Y17.9870
G01 X20.0109 Y18.0604
G01 X19.9599 Y18.1291
G01 X19.9025 Y18.1925
G01 X19.8391 Y18.2499
G01 X19.7704 Y18.3009
G01 X19.6970 Y18.3449
G01 X19.6196 Y18.3815
G01 X19.5391 Y18.4103
G01 X19.4561 Y18.4311
G01 X19.3715 Y18.4437
G01 X19.2860 Y18.4478
G01 X19.2005 Y18.4437
G01 X19.1159 Y18.4311
G01 X19.0329 Y18.4103
G01 X18.9524 Y18.3815
G01 X18.8750 Y18.3449
G01 X18.8016 Y18.3009
G01 X18.7329 Y18.2499
G01 X18.6695 Y18.1925
G01 X18.6121 Y18.1291
G01 X18.5611 Y18.0604
G01 X18.5171 Y17.9870
G01 X18.4805 Y17.9096
G01 X18.4517 Y17.8291
G01 X18.4309 Y17.7461
G01 X18.4183 Y17.6615
G01 X18.4142 Y17.5795
G01 X18.4142 Y17.5725
G00 Z2.0000
G00 X15.8742 Y17.5725
G01 F30.00
G01 Z-0.0600
G01 F60.00
G01 X15.8783 Y17.4905
G01 X15.8909 Y17.4059
G01 X15.9117 Y17.3229
G01 X15.9405 Y17.2424
G01 X15.9771 Y17.1650
G01 X16.0211 Y17.0916
G01 X16.0721 Y17.0229
G01 X16.1295 Y16.9595
G01 X16.1929 Y16.9021
G01 X16.2616 Y16.8511
G01 X16.3350 Y16.8071
G01 X16.4124 Y16.7705
G01 X16.4929 Y16.7417
G01 X16.5759 Y16.7209
G01 X16.6605 Y16.7083
G01 X16.7460 Y16.7042
G01 X16.8315 Y16.7083
G01 X16.9161 Y16.7209
G01 X16.9991 Y16.7417
G01 X17.0796 Y16.7705
G01 X17.1570 Y16.8071
G01 X17.2304 Y16.8511
G01 X17.2991 Y16.9021
G01 X17.3625 Y16.9595
G01 X17.4199 Y17.0229
G01 X17.4709 Y17.0916
G01 X17.5149 Y17.1650
G01 X17.5515 Y17.2424
G01 X17.5803 Y17.3229
G01 X17.6011 Y17.4059
G01 X17.6137 Y17.4905
G01 X17.6178 Y17.5760
G01 X17.6137 Y17.6615
G01 X17.6011 Y17.7461
G01 X17.5803 Y17.8291
G01 X17.5515 Y17.9096
G01 X17.5149 Y17.9870
G01 X17.4709 Y18.0604
G01 X17.4199 Y18.1291
G01 X17.3625 Y18.1925
G01 X17.2991 Y18.2499
G01 X17.2304 Y18.3009
G01 X17.1570 Y18.3449
G01 X17.0796 Y18.3815
G01 X16.9991 Y18.4103
G01 X16.9161 Y18.4311
G01 X16.8315 Y18.4437
G01 X16.7460 Y18.4478
G01 X16.6605 Y18.4437
G01 X16.5759 Y18.4311
G01 X16.4929 Y18.4103
G01 X16.4124 Y18.3815
G01 X16.3350 Y18.3449
G01 X16.2616 Y18.3009
G01 X16.1929 Y18.2499
G01 X16.1295 Y18.1925
G01 X16.0721 Y18.1291
G01 X16.0211 Y18.0604
G01 X15.9771 Y17.9870
G01 X15.9405 Y17.9096
G01 X15.9117 Y17.8291
G01 X15.8909 Y17.7461
G01 X15.8783 Y17.6615
G01 X15.8742 Y17.5795
G01 X15.8742 Y17.5725
G00 Z2.0000
G00 X13.3342 Y17.5725
G01 F30.00
G01 Z-0.0600
G01 F60.00
G01 X13.3383 Y17.4905
G01 X13.3509 Y17.4059
G01 X13.3717 Y17.3229
G01 X13.4005 Y17.2424
G01 X13.4371 Y17.1650
G01 X13.4811 Y17.0916
G01 X13.5321 Y17.0229
G01 X13.5895 Y16.9595
G01 X13.6529 Y16.9021
G01 X13.7216 Y16.8511
G01 X13.7950 Y16.8071
G01 X13.8724 Y16.7705
G01 X13.9529 Y16.7417
G01 X14.0359 Y16.7209
G01 X14.1205 Y16.7083
G01 X14.2060 Y16.7042
G01 X14.2915 Y16.7083
G01 X14.3761 Y16.7209
G01 X14.4591 Y16.7417
G01 X14.5396 Y16.7705
G01 X14.6170 Y16.8071
G01 X14.6904 Y16.8511
G01 X14.7591 Y16.9021
G01 X14.8225 Y16.9595
G01 X14.8799 Y17.0229
G01 X14.9309 Y17.0916
G01 X14.9749 Y17.1650
G01 X15.0115 Y17.2424
G01 X15.0403 Y17.3229
G01 X15.0611 Y17.4059
G01 X15.0737 Y17.4905
G01 X15.0778 Y17.5760
G01 X15.0737 Y17.6615
G01 X15.0611 Y17.7461
G01 X15.0403 Y17.8291
G01 X15.0115 Y17.9096
G01 X14.9749 Y17.9870
G01 X14.9309 Y18.0604
G01 X14.8799 Y18.1291
G01 X14.8225 Y18.1925
G01 X14.7591 Y18.2499
G01 X14.6904 Y18.3009
G01 X14.6170 Y18.3449
G01 X14.5396 Y18.3815
G01 X14.4591 Y18.4103
G01 X14.3761 Y18.4311
G01 X14.2915 Y18.4437
G01 X14.2060 Y18.4478
G01 X14.1205 Y18.4437
G01 X14.0359 Y18.4311
G01 X13.9529 Y18.4103
G01 X13.8724 Y18.3815
G01 X13.7950 Y18.3449
G01 X13.7216 Y18.3009
G01 X13.6529 Y18.2499
G01 X13.5895 Y18.1925
G01 X13.5321 Y18.1291
G01 X13.4811 Y18.0604
G01 X13.4371 Y17.9870
G01 X13.4005 Y17.9096
G01 X13.3717 Y17.8291
G01 X13.3509 Y17.7461
G01 X13.3383 Y17.6615
G01 X13.3342 Y17.5795
G01 X13.3342 Y17.5725
G00 Z2.0000
G00 X10.7942 Y17.5725
G01 F30.00
G01 Z-0.0600
G01 F60.00
G01 X10.7983 Y17.4905
G01 X10.8109 Y17.4059
G01 X10.8317 Y17.3229
G01 X10.8605 Y17.2424
G01 X10.8971 Y17.1650
G01 X10.9411 Y17.0916
G01 X10.9921 Y17.0229
G01 X11.0495 Y16.9595
G01 X11.1129 Y16.9021
G01 X11.1816 Y16.8511
G01 X11.2550 Y16.8071
G01 X11.3324 Y16.7705
G01 X11.4129 Y16.7417
G01 X11.4959 Y16.7209
G01 X11.5805 Y16.7083
G01 X11.6660 Y16.7042
G01 X11.7515 Y16.7083
G01 X11.8361 Y16.7209
G01 X11.9191 Y16.7417
G01 X11.9996 Y16.7705
G01 X12.0770 Y16.8071
G01 X12.1504 Y16.8511
G01 X12.2191 Y16.9021
G01 X12.2825 Y16.9595
G01 X12.3399 Y17.0229
G01 X12.3909 Y17.0916
G01 X12.4349 Y17.1650
G01 X12.4715 Y17.2424
G01 X12.5003 Y17.3229
G01 X12.5211 Y17.4059
G01 X12.5337 Y17.4905
G01 X12.5378 Y17.5760
G01 X12.5337 Y17.6615
G01 X12.5211 Y17.7461
G01 X12.5003 Y17.8291
G01 X12.4715 Y17.9096
G01 X12.4349 Y17.9870
G01 X12.3909 Y18.0604
G01 X12.3399 Y18.1291
G01 X12.2825 Y18.1925
G01 X12.2191 Y18.2499
G01 X12.1504 Y18.3009
G01 X12.0770 Y18.3449
G01 X11.9996 Y18.3815
G01 X11.9191 Y18.4103
G01 X11.8361 Y18.4311
G01 X11.7515 Y18.4437
G01 X11.6660 Y18.4478
G01 X11.5805 Y18.4437
G01 X11.4959 Y18.4311
G01 X11.4129 Y18.4103
G01 X11.3324 Y18.3815
G01 X11.2550 Y18.3449
G01 X11.1816 Y18.3009
G01 X11.1129 Y18.2499
G01 X11.0495 Y18.1925
G01 X10.9921 Y18.1291
G01 X10.9411 Y18.0604
G01 X10.8971 Y17.9870
G01 X10.8605 Y17.9096
G01 X10.8317 Y17.8291
G01 X10.8109 Y17.7461
G01 X10.7983 Y17.6615
G01 X10.7942 Y17.5795
G01 X10.7942 Y17.5725
G00 Z2.0000
G00 X8.2542 Y17.5742
G01 F30.00
G01 Z-0.0600
G01 F60.00
G01 X8.2583 Y17.4905
G01 X8.2709 Y17.4059
G01 X8.2917 Y17.3229
G01 X8.3205 Y17.2424
G01 X8.3571 Y17.1650
G01 X8.4011 Y17.0916
G01 X8.4521 Y17.0229
G01 X8.5095 Y16.9595
G01 X8.5729 Y16.9021
G01 X8.6416 Y16.8511
G01 X8.7150 Y16.8071
G01 X8.7924 Y16.7705
G01 X8.8729 Y16.7417
G01 X8.9559 Y16.7209
G01 X9.0405 Y16.7083
G01 X9.1260 Y16.7042
G01 X9.2115 Y16.7083
G01 X9.2961 Y16.7209
G01 X9.3791 Y16.7417
G01 X9.4596 Y16.7705
G01 X9.5370 Y16.8071
G01 X9.6104 Y16.8511
G01 X9.6791 Y16.9021
G01 X9.7425 Y16.9595
G01 X9.7999 Y17.0229
G01 X9.8509 Y17.0916
G01 X9.8949 Y17.1650
G01 X9.9315 Y17.2424
G01 X9.9603 Y17.3229
G01 X9.9811 Y17.4059
G01 X9.9937 Y17.4905
G01 X9.9978 Y17.5760
G01 X9.9937 Y17.6615
G01 X9.9811 Y17.7461
G01 X9.9603 Y17.8291
G01 X9.9315 Y17.9096
G01 X9.8949 Y17.9870
G01 X9.8509 Y18.0604
G01 X9.7999 Y18.1291
G01 X9.7425 Y18.1925
G01 X9.6791 Y18.2499
G01 X9.6104 Y18.3009
G01 X9.5370 Y18.3449
G01 X9.4596 Y18.3815
G01 X9.3791 Y18.4103
G01 X9.2961 Y18.4311
G01 X9.2115 Y18.4437
G01 X9.1260 Y18.4478
G01 X9.0405 Y18.4437
G01 X8.9559 Y18.4311
G01 X8.8729 Y18.4103
G01 X8.7924 Y18.3815
G01 X8.7150 Y18.3449
G01 X8.6416 Y18.3009
G01 X8.5729 Y18.2499
G01 X8.5095 Y18.1925
G01 X8.4521 Y18.1291
G01 X8.4011 Y18.0604
G01 X8.3571 Y17.9870
G01 X8.3205 Y17.9096
G01 X8.2917 Y17.8291
G01 X8.2709 Y17.7461
G01 X8.2583 Y17.6615
G01 X8.2542 Y17.5742
G00 Z2.0000
G00 X6.6467 Y16.3354
G01 F30.00
G01 Z-0.0600
G01 F60.00
G01 X6.8876 Y16.3711
G01 X7.1215 Y16.4547
G01 X7.1601 Y16.4754
G01 X7.1750 Y16.5261
G01 X6.9271 Y16.7740
G01 X6.9164 Y16.7692
G01 X6.8391 Y16.7417
G01 X6.7561 Y16.7209
G01 X6.6715 Y16.7083
G01 X6.5860 Y16.7042
G01 X6.5005 Y16.7083
G01 X6.4159 Y16.7209
G01 X6.3329 Y16.7417
G01 X6.2556 Y16.7692
G01 X6.2449 Y16.7740
G01 X5.9970 Y16.5261
G01 X6.0102 Y16.4810
G01 X6.1674 Y16.4066
G01 X6.4035 Y16.3474
G01 X6.6467 Y16.3354
G00 Z2.0000
G00 X6.5551 Y13.8355
G01 F30.00
G01 Z-0.0600
G01 F60.00
G01 X6.5571 Y13.8423
G01 X6.5666 Y13.8687
G01 X6.5786 Y13.8941
G01 X6.5819 Y13.9003
G01 X6.5964 Y13.9243
G01 X6.6130 Y13.9469
G01 X6.6175 Y13.9524
G01 X6.6340 Y13.9705
G01 X6.6390 Y13.9755
G01 X6.6598 Y13.9943
G01 X6.6823 Y14.0111
G01 X6.6882 Y14.0150
G01 X6.7123 Y14.0293
G01 X6.7407 Y14.0428
G01 X6.7672 Y14.0524
G01 X6.7740 Y14.0544
G01 X6.7978 Y14.0604
G01 X6.8047 Y14.0618
G01 X6.8325 Y14.0658
G01 X6.8640 Y14.0673
G01 X8.0381 Y14.0673
G01 X8.0381 Y14.3894
G01 X7.9957 Y14.4318
G01 X6.6236 Y14.4346
G01 X6.5285 Y14.4253
G01 X6.4463 Y14.4003
G01 X6.3706 Y14.3598
G01 X6.3041 Y14.3054
G01 X6.2497 Y14.2389
G01 X6.2092 Y14.1632
G01 X6.1842 Y14.0810
G01 X6.1749 Y13.9860
G01 X6.1777 Y13.0014
G01 X6.2201 Y12.9589
G01 X6.5422 Y12.9589
G01 X6.5422 Y13.7473
G01 X6.5434 Y13.7735
G01 X6.5441 Y13.7805
G01 X6.5483 Y13.8083
G01 X6.5551 Y13.8355
G00 Z2.0000
G00 X6.5422 Y11.5170
G01 F30.00
G01 Z-0.0600
G01 F60.00
G01 X6.5422 Y12.3071
G01 X6.2201 Y12.3071
G01 X6.1777 Y12.2646
G01 X6.1749 Y11.2800
G01 X6.1842 Y11.1850
G01 X6.2092 Y11.1028
G01 X6.2497 Y11.0271
G01 X6.3041 Y10.9606
G01 X6.3706 Y10.9062
G01 X6.4463 Y10.8657
G01 X6.5285 Y10.8407
G01 X6.6236 Y10.8314
G01 X7.9957 Y10.8342
G01 X8.0381 Y10.8766
G01 X8.0381 Y11.1986
G01 X6.8640 Y11.1987
G01 X6.8325 Y11.2002
G01 X6.7995 Y11.2052
G01 X6.7706 Y11.2125
G01 X6.7408 Y11.2231
G01 X6.7123 Y11.2367
G01 X6.6882 Y11.2510
G01 X6.6823 Y11.2549
G01 X6.6626 Y11.2695
G01 X6.6571 Y11.2740
G01 X6.6364 Y11.2929
G01 X6.6152 Y11.3163
G01 X6.5964 Y11.3417
G01 X6.5819 Y11.3657
G01 X6.5786 Y11.3719
G01 X6.5681 Y11.3941
G01 X6.5654 Y11.4006
G01 X6.5560 Y11.4271
G01 X6.5483 Y11.4577
G01 X6.5437 Y11.4890
G01 X6.5422 Y11.5170
G00 Z2.0000
G00 X3.6400 Y12.3302
G01 F30.00
G01 Z-0.0600
G01 F60.00
G01 X3.7186 Y12.2930
G01 X3.7962 Y12.2465
G01 X3.8688 Y12.1926
G01 X3.9371 Y12.1306
G01 X3.9966 Y12.0648
G01 X4.0515 Y11.9907
G01 X4.0978 Y11.9130
G01 X4.1350 Y11.8344
G01 X4.1454 Y11.8059
G01 X4.4842 Y11.8059
G01 X4.5114 Y11.8574
G01 X4.4948 Y11.9121
G01 X4.3845 Y12.1437
G01 X4.2339 Y12.3456
G01 X4.0467 Y12.5143
G01 X3.8303 Y12.6432
G01 X3.6563 Y12.7049
G01 X3.6099 Y12.6806
G01 X3.6099 Y12.3414
G01 X3.6335 Y12.3329
G01 X3.6400 Y12.3302
G00 Z2.0000
G00 X2.4323 Y11.8328
G01 F30.00
G01 Z-0.0600
G01 F60.00
G01 X2.4710 Y11.9146
G01 X2.5175 Y11.9922
G01 X2.5714 Y12.0648
G01 X2.6334 Y12.1331
G01 X2.6992 Y12.1926
G01 X2.7733 Y12.2475
G01 X2.8510 Y12.2938
G01 X2.9296 Y12.3310
G01 X2.9581 Y12.3414
G01 X2.9581 Y12.6806
G01 X2.9117 Y12.7049
G01 X2.7377 Y12.6432
G01 X2.5213 Y12.5143
G01 X2.3341 Y12.3456
G01 X2.1835 Y12.1437
G01 X2.0732 Y11.9121
G01 X2.0566 Y11.8574
G01 X2.0838 Y11.8059
G01 X2.4226 Y11.8059
G01 X2.4323 Y11.8328
G00 Z2.0000
G00 X2.4235 Y8.0189
G01 F30.00
G01 Z-0.0600
G01 F60.00
G01 X2.4340 Y8.0182
G01 X4.1340 Y8.0182
G01 X4.1410 Y8.0185
G01 X4.1480 Y8.0195
G01 X4.1549 Y8.0212
G01 X4.1615 Y8.0236
G01 X4.1679 Y8.0266
G01 X4.1754 Y8.0313
G01 X4.1809 Y8.0356
G01 X4.1860 Y8.0405
G01 X4.1906 Y8.0458
G01 X4.1947 Y8.0516
G01 X4.1974 Y8.0561
G01 X4.2004 Y8.0625
G01 X4.2028 Y8.0691
G01 X4.2045 Y8.0760
G01 X4.2055 Y8.0830
G01 X4.2058 Y8.0900
G01 X4.2058 Y9.7900
G01 X4.2053 Y9.7988
G01 X4.2041 Y9.8057
G01 X4.2022 Y9.8125
G01 X4.1997 Y9.8191
G01 X4.1965 Y9.8254
G01 X4.1927 Y9.8314
G01 X4.1884 Y9.8369
G01 X4.1835 Y9.8420
G01 X4.1782 Y9.8466
G01 X4.1724 Y9.8507
G01 X4.1663 Y9.8542
G01 X4.1615 Y9.8564
G01 X4.1549 Y9.8588
G01 X4.1480 Y9.8605
G01 X4.1410 Y9.8615
G01 X4.1340 Y9.8618
G01 X2.4340 Y9.8618
G01 X2.4270 Y9.8615
G01 X2.4200 Y9.8605
G01 X2.4131 Y9.8588
G01 X2.4065 Y9.8564
G01 X2.4001 Y9.8534
G01 X2.3941 Y9.8497
G01 X2.3884 Y9.8455
G01 X2.3820 Y9.8395
G01 X2.3774 Y9.8342
G01 X2.3733 Y9.8284
G01 X2.3698 Y9.8223
G01 X2.3676 Y9.8175
G01 X2.3652 Y9.8109
G01 X2.3635 Y9.8040
G01 X2.3625 Y9.7970
G01 X2.3622 Y9.7900
G01 X2.3622 Y8.0882
G01 X2.3625 Y8.0830
G01 X2.3635 Y8.0760
G01 X2.3648 Y8.0708
G01 X2.3670 Y8.0641
G01 X2.3698 Y8.0577
G01 X2.3733 Y8.0516
G01 X2.3774 Y8.0458
G01 X2.3808 Y8.0417
G01 X2.3857 Y8.0368
G01 X2.3898 Y8.0334
G01 X2.3941 Y8.0303
G01 X2.4001 Y8.0266
G01 X2.4065 Y8.0236
G01 X2.4115 Y8.0218
G01 X2.4183 Y8.0199
G01 X2.4235 Y8.0189
G00 Z2.0000
G00 X3.6782 Y6.3965
G01 F30.00
G01 Z-0.0600
G01 F60.00
G01 X3.6811 Y6.3390
G01 X3.6901 Y6.2787
G01 X3.7049 Y6.2195
G01 X3.7242 Y6.1653
G01 X3.7269 Y6.1588
G01 X3.7500 Y6.1100
G01 X3.7533 Y6.1038
G01 X3.7830 Y6.0545
G01 X3.8193 Y6.0055
G01 X3.8603 Y5.9603
G01 X3.9055 Y5.9193
G01 X3.9545 Y5.8830
G01 X4.0038 Y5.8533
G01 X4.0100 Y5.8500
G01 X4.0588 Y5.8269
G01 X4.0653 Y5.8242
G01 X4.1195 Y5.8049
G01 X4.1752 Y5.7909
G01 X4.1822 Y5.7895
G01 X4.2355 Y5.7816
G01 X4.2426 Y5.7809
G01 X4.3000 Y5.7782
G01 X4.3574 Y5.7809
G01 X4.3645 Y5.7816
G01 X4.4213 Y5.7901
G01 X4.4788 Y5.8044
G01 X4.5380 Y5.8255
G01 X4.5931 Y5.8516
G01 X4.6469 Y5.8839
G01 X4.6931 Y5.9182
G01 X4.7042 Y5.9280
G01 X6.5422 Y5.9279
G01 X6.5422 Y5.7937
G01 X6.5437 Y5.7640
G01 X6.5480 Y5.7344
G01 X6.5560 Y5.7021
G01 X6.5667 Y5.6722
G01 X6.5802 Y5.6438
G01 X6.5954 Y5.6182
G01 X6.6152 Y5.5913
G01 X6.6364 Y5.5679
G01 X6.6598 Y5.5467
G01 X6.6823 Y5.5299
G01 X6.6882 Y5.5260
G01 X6.7123 Y5.5117
G01 X6.7376 Y5.4996
G01 X6.7441 Y5.4969
G01 X6.7706 Y5.4875
G01 X6.7978 Y5.4806
G01 X6.8047 Y5.4792
G01 X6.8290 Y5.4756
G01 X6.8360 Y5.4749
G01 X6.8640 Y5.4737
G01 X9.8640 Y5.4737
G01 X9.8955 Y5.4752
G01 X9.9233 Y5.4792
G01 X9.9302 Y5.4806
G01 X9.9574 Y5.4875
G01 X9.9873 Y5.4982
G01 X10.0126 Y5.5101
G01 X10.0188 Y5.5134
G01 X10.0398 Y5.5260
G01 X10.0457 Y5.5299
G01 X10.0682 Y5.5467
G01 X10.0916 Y5.5679
G01 X10.1128 Y5.5913
G01 X10.1296 Y5.6138
G01 X10.1335 Y5.6197
G01 X10.1461 Y5.6407
G01 X10.1494 Y5.6469
G01 X10.1614 Y5.6723
G01 X10.1715 Y5.7004
G01 X10.1789 Y5.7293
G01 X10.1803 Y5.7362
G01 X10.1843 Y5.7640
G01 X10.1858 Y5.7937
G01 X10.1858 Y6.4360
G01 X14.7725 Y6.4359
G01 X15.6118 Y5.5968
G01 X15.6409 Y5.5704
G01 X15.6463 Y5.5659
G01 X15.6807 Y5.5405
G01 X15.7174 Y5.5184
G01 X15.7236 Y5.5151
G01 X15.7624 Y5.4969
G01 X15.8043 Y5.4818
G01 X15.8475 Y5.4708
G01 X15.8544 Y5.4694
G01 X15.8967 Y5.4632
G01 X15.9412 Y5.4610
G01 X17.2041 Y5.4609
G01 X17.2049 Y5.4497
G01 X17.2097 Y5.4185
G01 X17.2170 Y5.3896
G01 X17.2283 Y5.3582
G01 X17.2412 Y5.3313
G01 X17.2574 Y5.3042
G01 X17.2762 Y5.2788
G01 X17.2962 Y5.2567
G01 X17.3208 Y5.2342
G01 X17.3433 Y5.2174
G01 X17.3492 Y5.2135
G01 X17.3702 Y5.2009
G01 X17.3764 Y5.1976
G01 X17.4018 Y5.1856
G01 X17.4316 Y5.1750
G01 X17.4622 Y5.1673
G01 X17.4935 Y5.1627
G01 X17.5250 Y5.1611
G01 X18.2285 Y5.1612
G01 X18.2565 Y5.1627
G01 X18.2843 Y5.1667
G01 X18.2912 Y5.1681
G01 X18.3150 Y5.1741
G01 X18.3218 Y5.1761
G01 X18.3483 Y5.1857
G01 X18.3783 Y5.2000
G01 X18.4038 Y5.2154
G01 X18.4264 Y5.2320
G01 X18.4319 Y5.2365
G01 X18.4526 Y5.2554
G01 X18.4715 Y5.2761
G01 X18.4760 Y5.2816
G01 X18.4926 Y5.3042
G01 X18.5071 Y5.3282
G01 X18.5104 Y5.3344
G01 X18.5224 Y5.3598
G01 X18.5319 Y5.3862
G01 X18.5339 Y5.3930
G01 X18.5407 Y5.4202
G01 X18.5449 Y5.4480
G01 X18.5456 Y5.4550
G01 X18.5468 Y5.4812
G01 X18.5469 Y6.3830
G01 X18.5451 Y6.4163
G01 X18.5407 Y6.4458
G01 X18.5339 Y6.4730
G01 X18.5319 Y6.4798
G01 X18.5236 Y6.5029
G01 X18.5209 Y6.5094
G01 X18.5088 Y6.5347
G01 X18.4945 Y6.5588
G01 X18.4906 Y6.5647
G01 X18.4738 Y6.5872
G01 X18.4526 Y6.6106
G01 X18.4292 Y6.6318
G01 X18.4023 Y6.6516
G01 X18.3798 Y6.6651
G01 X18.3736 Y6.6684
G01 X18.3482 Y6.6803
G01 X18.3218 Y6.6899
G01 X18.3150 Y6.6919
G01 X18.2878 Y6.6987
G01 X18.2600 Y6.7029
G01 X18.2530 Y6.7036
G01 X18.2250 Y6.7048
G01 X17.5250 Y6.7048
G01 X17.4935 Y6.7033
G01 X17.4622 Y6.6987
G01 X17.4316 Y6.6910
G01 X17.4018 Y6.6803
G01 X17.3764 Y6.6684
G01 X17.3702 Y6.6651
G01 X17.3492 Y6.6525
G01 X17.3433 Y6.6486
G01 X17.3208 Y6.6318
G01 X17.2962 Y6.6093
G01 X17.2762 Y6.5872
G01 X17.2574 Y6.5618
G01 X17.2412 Y6.5347
G01 X17.2283 Y6.5078
G01 X17.2170 Y6.4764
G01 X17.2097 Y6.4475
G01 X17.2049 Y6.4163
G01 X17.2041 Y6.4050
G01 X16.1385 Y6.4050
G01 X15.4400 Y7.1035
G01 X15.4401 Y8.7445
G01 X16.8270 Y10.1315
G01 X16.8569 Y10.1645
G01 X16.8825 Y10.1989
G01 X16.8864 Y10.2047
G01 X16.9083 Y10.2415
G01 X16.9267 Y10.2801
G01 X16.9294 Y10.2866
G01 X16.9437 Y10.3270
G01 X16.9546 Y10.3702
G01 X16.9618 Y10.4177
G01 X16.9640 Y10.4640
G01 X16.9641 Y13.8020
G01 X22.0800 Y13.8020
G01 X22.1263 Y13.8042
G01 X22.1686 Y13.8104
G01 X22.1755 Y13.8118
G01 X22.2136 Y13.8213
G01 X22.2204 Y13.8234
G01 X22.2606 Y13.8379
G01 X22.2924 Y13.8528
G01 X22.3307 Y13.8472
G01 X22.3770 Y13.8450
G01 X31.7269 Y13.8449
G01 X31.7352 Y13.8278
G01 X31.7504 Y13.8022
G01 X31.7691 Y13.7767
G01 X31.7914 Y13.7519
G01 X31.8162 Y13.7296
G01 X31.8373 Y13.7139
G01 X31.8432 Y13.7100
G01 X31.8673 Y13.6957
G01 X31.8926 Y13.6836
G01 X31.8991 Y13.6809
G01 X31.9256 Y13.6715
G01 X31.9528 Y13.6646
G01 X31.9597 Y13.6632
G01 X31.9875 Y13.6592
G01 X32.0190 Y13.6577
G01 X32.9690 Y13.6577
G01 X32.9970 Y13.6589
G01 X33.0040 Y13.6596
G01 X33.0318 Y13.6638
G01 X33.0624 Y13.6715
G01 X33.0889 Y13.6809
G01 X33.0954 Y13.6836
G01 X33.1207 Y13.6957
G01 X33.1463 Y13.7109
G01 X33.1704 Y13.7285
G01 X33.1758 Y13.7330
G01 X33.1966 Y13.7519
G01 X33.2167 Y13.7740
G01 X33.2376 Y13.8022
G01 X33.2528 Y13.8278
G01 X33.2611 Y13.8450
G01 X36.8275 Y13.8449
G01 X39.2735 Y11.3990
G01 X39.3039 Y11.3714
G01 X39.3093 Y11.3669
G01 X39.3437 Y11.3415
G01 X39.3804 Y11.3194
G01 X39.3866 Y11.3161
G01 X39.4254 Y11.2979
G01 X39.4707 Y11.2818
G01 X39.5139 Y11.2710
G01 X39.5562 Y11.2647
G01 X39.5632 Y11.2640
G01 X39.6060 Y11.2620
G01 X45.7020 Y11.2620
G01 X45.7448 Y11.2640
G01 X45.7518 Y11.2647
G01 X45.7941 Y11.2710
G01 X45.8373 Y11.2818
G01 X45.8827 Y11.2979
G01 X45.9214 Y11.3161
G01 X45.9276 Y11.3194
G01 X45.9643 Y11.3415
G01 X45.9987 Y11.3669
G01 X46.0041 Y11.3714
G01 X46.0358 Y11.4002
G01 X47.7670 Y13.1315
G01 X47.7946 Y13.1619
G01 X47.7991 Y13.1673
G01 X47.8245 Y13.2017
G01 X47.8466 Y13.2384
G01 X47.8499 Y13.2446
G01 X47.8681 Y13.2834
G01 X47.8837 Y13.3270
G01 X47.8950 Y13.3719
G01 X47.9013 Y13.4142
G01 X47.9020 Y13.4212
G01 X47.9040 Y13.4640
G01 X47.9041 Y16.8842
G01 X48.1820 Y16.8842
G01 X48.1890 Y16.8845
G01 X48.1943 Y16.8852
G01 X48.2045 Y16.8878
G01 X48.2111 Y16.8903
G01 X48.2159 Y16.8926
G01 X48.2248 Y16.8983
G01 X48.2328 Y16.9052
G01 X48.2397 Y16.9132
G01 X48.2454 Y16.9221
G01 X48.2496 Y16.9318
G01 X48.2512 Y16.9368
G01 X48.2528 Y16.9437
G01 X48.2535 Y16.9490
G01 X48.2538 Y16.9560
G01 X48.2538 Y18.9560
G01 X48.2531 Y18.9665
G01 X48.2512 Y18.9752
G01 X48.2490 Y18.9819
G01 X48.2470 Y18.9867
G01 X48.2417 Y18.9959
G01 X48.2386 Y19.0002
G01 X48.2340 Y19.0055
G01 X48.2303 Y19.0092
G01 X48.2248 Y19.0137
G01 X48.2189 Y19.0176
G01 X48.2143 Y19.0202
G01 X48.2045 Y19.0242
G01 X48.1977 Y19.0261
G01 X48.1925 Y19.0271
G01 X48.1820 Y19.0278
G01 X46.6802 Y19.0278
G01 X46.6697 Y19.0268
G01 X46.6595 Y19.0242
G01 X46.6497 Y19.0202
G01 X46.6421 Y19.0157
G01 X46.6337 Y19.0092
G01 X46.6265 Y19.0016
G01 X46.6204 Y18.9929
G01 X46.6156 Y18.9835
G01 X46.6132 Y18.9769
G01 X46.6115 Y18.9700
G01 X46.6105 Y18.9630
G01 X46.6102 Y18.9560
G01 X46.6102 Y16.9560
G01 X46.6105 Y16.9490
G01 X46.6112 Y16.9437
G01 X46.6138 Y16.9335
G01 X46.6178 Y16.9237
G01 X46.6233 Y16.9146
G01 X46.6276 Y16.9091
G01 X46.6312 Y16.9052
G01 X46.6392 Y16.8983
G01 X46.6481 Y16.8926
G01 X46.6578 Y16.8884
G01 X46.6645 Y16.8863
G01 X46.6697 Y16.8852
G01 X46.6750 Y16.8845
G01 X46.6820 Y16.8842
G01 X46.9600 Y16.8842
G01 X46.9599 Y13.6595
G01 X45.5065 Y12.2060
G01 X39.8015 Y12.2061
G01 X37.3555 Y14.6520
G01 X37.3225 Y14.6819
G01 X37.2853 Y14.7095
G01 X37.2455 Y14.7333
G01 X37.2069 Y14.7517
G01 X37.2004 Y14.7544
G01 X37.1634 Y14.7676
G01 X37.1566 Y14.7697
G01 X37.1151 Y14.7800
G01 X37.0693 Y14.7868
G01 X37.0230 Y14.7890
G01 X33.2611 Y14.7891
G01 X33.2528 Y14.8062
G01 X33.2376 Y14.8318
G01 X33.2167 Y14.8600
G01 X33.1966 Y14.8821
G01 X33.1758 Y14.9010
G01 X33.1704 Y14.9055
G01 X33.1463 Y14.9231
G01 X33.1207 Y14.9383
G01 X33.0954 Y14.9504
G01 X33.0889 Y14.9531
G01 X33.0624 Y14.9625
G01 X33.0318 Y14.9702
G01 X33.0040 Y14.9744
G01 X32.9970 Y14.9751
G01 X32.9690 Y14.9763
G01 X32.0190 Y14.9763
G01 X31.9875 Y14.9748
G01 X31.9597 Y14.9708
G01 X31.9528 Y14.9694
G01 X31.9256 Y14.9625
G01 X31.8991 Y14.9531
G01 X31.8926 Y14.9504
G01 X31.8673 Y14.9383
G01 X31.8432 Y14.9240
G01 X31.8373 Y14.9201
G01 X31.8162 Y14.9044
G01 X31.7914 Y14.8821
G01 X31.7691 Y14.8573
G01 X31.7504 Y14.8318
G01 X31.7352 Y14.8062
G01 X31.7269 Y14.7890
G01 X22.3770 Y14.7890
G01 X22.3307 Y14.7868
G01 X22.2884 Y14.7806
G01 X22.2815 Y14.7792
G01 X22.2434 Y14.7697
G01 X22.2366 Y14.7676
G01 X22.1963 Y14.7531
G01 X22.1646 Y14.7382
G01 X22.1263 Y14.7438
G01 X22.0800 Y14.7460
G01 X14.7355 Y14.7461
G01 X14.7256 Y14.7744
G01 X14.7229 Y14.7809
G01 X14.7108 Y14.8062
G01 X14.6965 Y14.8303
G01 X14.6926 Y14.8362
G01 X14.6758 Y14.8587
G01 X14.6570 Y14.8795
G01 X14.6520 Y14.8845
G01 X14.6312 Y14.9033
G01 X14.6087 Y14.9201
G01 X14.6028 Y14.9240
G01 X14.5787 Y14.9383
G01 X14.5502 Y14.9519
G01 X14.5238 Y14.9614
G01 X14.5170 Y14.9634
G01 X14.4881 Y14.9705
G01 X14.4585 Y14.9748
G01 X14.4270 Y14.9763
G01 X13.4770 Y14.9763
G01 X13.4490 Y14.9751
G01 X13.4420 Y14.9744
G01 X13.4142 Y14.9702
G01 X13.3836 Y14.9625
G01 X13.3571 Y14.9531
G01 X13.3506 Y14.9504
G01 X13.3253 Y14.9383
G01 X13.2997 Y14.9231
G01 X13.2756 Y14.9055
G01 X13.2702 Y14.9010
G01 X13.2494 Y14.8821
G01 X13.2293 Y14.8600
G01 X13.2084 Y14.8318
G01 X13.1932 Y14.8062
G01 X13.1849 Y14.7890
G01 X12.5805 Y14.7891
G01 X12.2856 Y15.0840
G01 X12.2847 Y15.0987
G01 X12.2762 Y15.1556
G01 X12.2611 Y15.2165
G01 X12.2405 Y15.2740
G01 X12.2144 Y15.3291
G01 X12.1830 Y15.3815
G01 X12.1467 Y15.4305
G01 X12.1057 Y15.4757
G01 X12.0591 Y15.5178
G01 X12.0144 Y15.5510
G01 X12.0085 Y15.5549
G01 X11.9591 Y15.5844
G01 X11.9072 Y15.6091
G01 X11.9007 Y15.6118
G01 X11.8465 Y15.6311
G01 X11.7873 Y15.6459
G01 X11.7270 Y15.6549
G01 X11.6695 Y15.6578
G01 X11.6625 Y15.6578
G01 X11.6050 Y15.6549
G01 X11.5482 Y15.6465
G01 X11.5412 Y15.6451
G01 X11.4872 Y15.6316
G01 X11.4280 Y15.6105
G01 X11.3729 Y15.5844
G01 X11.3205 Y15.5530
G01 X11.2715 Y15.5167
G01 X11.2263 Y15.4757
G01 X11.1853 Y15.4305
G01 X11.1490 Y15.3815
G01 X11.1193 Y15.3322
G01 X11.1160 Y15.3260
G01 X11.0915 Y15.2740
G01 X11.0720 Y15.2199
G01 X11.0700 Y15.2131
G01 X11.0569 Y15.1608
G01 X11.0555 Y15.1538
G01 X11.0471 Y15.0970
G01 X11.0442 Y15.0395
G01 X11.0442 Y15.0325
G01 X11.0471 Y14.9750
G01 X11.0561 Y14.9147
G01 X11.0709 Y14.8555
G01 X11.0915 Y14.7980
G01 X11.1176 Y14.7429
G01 X11.1471 Y14.6935
G01 X11.1510 Y14.6876
G01 X11.1853 Y14.6415
G01 X11.2239 Y14.5988
G01 X11.2288 Y14.5939
G01 X11.2715 Y14.5553
G01 X11.3176 Y14.5210
G01 X11.3235 Y14.5171
G01 X11.3729 Y14.4876
G01 X11.4280 Y14.4615
G01 X11.4855 Y14.4409
G01 X11.5430 Y14.4265
G01 X11.6033 Y14.4173
G01 X11.6180 Y14.4164
G01 X12.0538 Y13.9808
G01 X12.0855 Y13.9521
G01 X12.1227 Y13.9245
G01 X12.1625 Y13.9007
G01 X12.2044 Y13.8809
G01 X12.2480 Y13.8653
G01 X12.2929 Y13.8540
G01 X12.3387 Y13.8472
G01 X12.3832 Y13.8450
G01 X13.1849 Y13.8449
G01 X13.1932 Y13.8278
G01 X13.2084 Y13.8022
G01 X13.2293 Y13.7740
G01 X13.2494 Y13.7519
G01 X13.2702 Y13.7330
G01 X13.2756 Y13.7285
G01 X13.2997 Y13.7109
G01 X13.3253 Y13.6957
G01 X13.3506 Y13.6836
G01 X13.3571 Y13.6809
G01 X13.3836 Y13.6715
G01 X13.4108 Y13.6646
G01 X13.4177 Y13.6632
G01 X13.4455 Y13.6592
G01 X13.4752 Y13.6577
G01 X14.4270 Y13.6577
G01 X14.4603 Y13.6594
G01 X14.4898 Y13.6638
G01 X14.5170 Y13.6706
G01 X14.5238 Y13.6726
G01 X14.5502 Y13.6821
G01 X14.5756 Y13.6941
G01 X14.5818 Y13.6974
G01 X14.6028 Y13.7100
G01 X14.6087 Y13.7139
G01 X14.6312 Y13.7307
G01 X14.6546 Y13.7519
G01 X14.6758 Y13.7753
G01 X14.6954 Y13.8020
G01 X16.0200 Y13.8019
G01 X16.0199 Y10.6595
G01 X14.6330 Y9.2725
G01 X14.6031 Y9.2395
G01 X14.5755 Y9.2023
G01 X14.5517 Y9.1625
G01 X14.5333 Y9.1239
G01 X14.5306 Y9.1174
G01 X14.5163 Y9.0770
G01 X14.5050 Y9.0321
G01 X14.4982 Y8.9863
G01 X14.4960 Y8.9418
G01 X14.4959 Y7.3800
G01 X10.1858 Y7.3801
G01 X10.1858 Y8.0205
G01 X10.1843 Y8.0520
G01 X10.1803 Y8.0798
G01 X10.1789 Y8.0867
G01 X10.1720 Y8.1139
G01 X10.1626 Y8.1404
G01 X10.1599 Y8.1469
G01 X10.1478 Y8.1722
G01 X10.1335 Y8.1963
G01 X10.1296 Y8.2022
G01 X10.1128 Y8.2247
G01 X10.0940 Y8.2455
G01 X10.0890 Y8.2505
G01 X10.0682 Y8.2693
G01 X10.0457 Y8.2861
G01 X10.0398 Y8.2900
G01 X10.0157 Y8.3043
G01 X9.9904 Y8.3164
G01 X9.9839 Y8.3191
G01 X9.9557 Y8.3290
G01 X9.9268 Y8.3362
G01 X9.8990 Y8.3404
G01 X9.8920 Y8.3411
G01 X9.8640 Y8.3423
G01 X6.8640 Y8.3423
G01 X6.8325 Y8.3408
G01 X6.8012 Y8.3362
G01 X6.7740 Y8.3294
G01 X6.7672 Y8.3274
G01 X6.7441 Y8.3191
G01 X6.7376 Y8.3164
G01 X6.7123 Y8.3043
G01 X6.6852 Y8.2881
G01 X6.6598 Y8.2693
G01 X6.6390 Y8.2505
G01 X6.6340 Y8.2455
G01 X6.6175 Y8.2274
G01 X6.6130 Y8.2219
G01 X6.5964 Y8.1993
G01 X6.5802 Y8.1722
G01 X6.5681 Y8.1469
G01 X6.5654 Y8.1404
G01 X6.5560 Y8.1139
G01 X6.5483 Y8.0833
G01 X6.5437 Y8.0520
G01 X6.5422 Y8.0205
G01 X6.5422 Y6.8720
G01 X4.7042 Y6.8721
G01 X4.6931 Y6.8818
G01 X4.6469 Y6.9161
G01 X4.5931 Y6.9484
G01 X4.5380 Y6.9745
G01 X4.4788 Y6.9956
G01 X4.4213 Y7.0099
G01 X4.3645 Y7.0184
G01 X4.3574 Y7.0191
G01 X4.3000 Y7.0218
G01 X4.2426 Y7.0191
G01 X4.2355 Y7.0184
G01 X4.1804 Y7.0102
G01 X4.1195 Y6.9951
G01 X4.0653 Y6.9758
G01 X4.0588 Y6.9731
G01 X4.0100 Y6.9500
G01 X4.0038 Y6.9467
G01 X3.9545 Y6.9170
G01 X3.9055 Y6.8807
G01 X3.8603 Y6.8397
G01 X3.8193 Y6.7945
G01 X3.7830 Y6.7455
G01 X3.7516 Y6.6931
G01 X3.7255 Y6.6380
G01 X3.7060 Y6.5839
G01 X3.7040 Y6.5771
G01 X3.6901 Y6.5213
G01 X3.6816 Y6.4645
G01 X3.6809 Y6.4574
G01 X3.6782 Y6.4035
G01 X3.6782 Y6.3965
G00 Z2.0000
G00 X9.8675 Y11.1987
G01 F30.00
G01 Z-0.0600
G01 F60.00
G01 X8.6899 Y11.1987
G01 X8.6899 Y10.8766
G01 X8.7323 Y10.8342
G01 X10.1044 Y10.8314
G01 X10.1995 Y10.8407
G01 X10.2817 Y10.8657
G01 X10.3574 Y10.9062
G01 X10.4239 Y10.9606
G01 X10.4783 Y11.0271
G01 X10.5188 Y11.1028
G01 X10.5438 Y11.1850
G01 X10.5531 Y11.2800
G01 X10.5503 Y12.2646
G01 X10.5079 Y12.3071
G01 X10.1858 Y12.3071
G01 X10.1858 Y11.5187
G01 X10.1843 Y11.4890
G01 X10.1803 Y11.4612
G01 X10.1789 Y11.4543
G01 X10.1725 Y11.4288
G01 X10.1626 Y11.4006
G01 X10.1599 Y11.3941
G01 X10.1478 Y11.3688
G01 X10.1316 Y11.3417
G01 X10.1128 Y11.3163
G01 X10.0940 Y11.2955
G01 X10.0890 Y11.2905
G01 X10.0709 Y11.2740
G01 X10.0654 Y11.2695
G01 X10.0428 Y11.2529
G01 X10.0188 Y11.2384
G01 X10.0126 Y11.2351
G01 X9.9904 Y11.2246
G01 X9.9839 Y11.2219
G01 X9.9574 Y11.2125
G01 X9.9268 Y11.2048
G01 X9.8955 Y11.2002
G01 X9.8675 Y11.1987
G00 Z2.0000
G00 X9.9540 Y14.0544
G01 F30.00
G01 Z-0.0600
G01 F60.00
G01 X9.9608 Y14.0524
G01 X9.9872 Y14.0429
G01 X10.0126 Y14.0309
G01 X10.0188 Y14.0276
G01 X10.0428 Y14.0131
G01 X10.0654 Y13.9965
G01 X10.0709 Y13.9920
G01 X10.0890 Y13.9755
G01 X10.0940 Y13.9705
G01 X10.1128 Y13.9497
G01 X10.1296 Y13.9272
G01 X10.1335 Y13.9213
G01 X10.1478 Y13.8972
G01 X10.1599 Y13.8719
G01 X10.1626 Y13.8654
G01 X10.1720 Y13.8389
G01 X10.1797 Y13.8083
G01 X10.1843 Y13.7770
G01 X10.1858 Y13.7455
G01 X10.1858 Y12.9589
G01 X10.5079 Y12.9589
G01 X10.5503 Y13.0014
G01 X10.5531 Y13.9860
G01 X10.5438 Y14.0810
G01 X10.5188 Y14.1632
G01 X10.4783 Y14.2389
G01 X10.4239 Y14.3054
G01 X10.3574 Y14.3598
G01 X10.2817 Y14.4003
G01 X10.1995 Y14.4253
G01 X10.1044 Y14.4346
G01 X8.7323 Y14.4318
G01 X8.6899 Y14.3894
G01 X8.6899 Y14.0674
G01 X9.8640 Y14.0673
G01 X9.8920 Y14.0661
G01 X9.8990 Y14.0654
G01 X9.9268 Y14.0612
G01 X9.9540 Y14.0544
G00 Z2.0000
G00 X12.8222 Y11.4868
G01 F30.00
G01 Z-0.0600
G01 F60.00
G01 X12.8627 Y11.4111
G01 X12.9171 Y11.3446
G01 X12.9836 Y11.2902
G01 X13.0593 Y11.2497
G01 X13.1415 Y11.2247
G01 X13.2361 Y11.2154
G01 X13.5833 Y11.2178
G01 X13.6261 Y11.2606
G01 X13.6261 Y11.5827
G01 X13.4752 Y11.5827
G01 X13.4455 Y11.5842
G01 X13.4159 Y11.5885
G01 X13.3836 Y11.5965
G01 X13.3538 Y11.6071
G01 X13.3253 Y11.6207
G01 X13.2967 Y11.6379
G01 X13.2756 Y11.6535
G01 X13.2702 Y11.6580
G01 X13.2494 Y11.6769
G01 X13.2305 Y11.6977
G01 X13.2260 Y11.7031
G01 X13.2094 Y11.7257
G01 X13.1923 Y11.7543
G01 X13.1811 Y11.7781
G01 X13.1784 Y11.7846
G01 X13.1690 Y11.8111
G01 X13.1617 Y11.8400
G01 X13.1565 Y11.8747
G01 X13.1552 Y11.9027
G01 X13.1552 Y11.9161
G01 X12.8331 Y11.9161
G01 X12.7901 Y11.8730
G01 X12.7879 Y11.6633
G01 X12.7972 Y11.5690
G01 X12.8222 Y11.4868
G00 Z2.0000
G00 X14.4305 Y11.5827
G01 F30.00
G01 Z-0.0600
G01 F60.00
G01 X14.2779 Y11.5827
G01 X14.2779 Y11.2606
G01 X14.3207 Y11.2178
G01 X14.6679 Y11.2154
G01 X14.7625 Y11.2247
G01 X14.8447 Y11.2497
G01 X14.9204 Y11.2902
G01 X14.9869 Y11.3446
G01 X15.0413 Y11.4111
G01 X15.0818 Y11.4868
G01 X15.1068 Y11.5690
G01 X15.1161 Y11.6633
G01 X15.1139 Y11.8730
G01 X15.0709 Y11.9161
G01 X14.7488 Y11.9161
G01 X14.7488 Y11.9027
G01 X14.7475 Y11.8747
G01 X14.7430 Y11.8434
G01 X14.7350 Y11.8111
G01 X14.7250 Y11.7830
G01 X14.7108 Y11.7528
G01 X14.6946 Y11.7257
G01 X14.6758 Y11.7003
G01 X14.6558 Y11.6782
G01 X14.6312 Y11.6557
G01 X14.6058 Y11.6369
G01 X14.5787 Y11.6207
G01 X14.5503 Y11.6072
G01 X14.5204 Y11.5965
G01 X14.4898 Y11.5888
G01 X14.4585 Y11.5842
G01 X14.4305 Y11.5827
G00 Z2.0000
G00 X18.1562 Y9.4462
G01 F30.00
G01 Z-0.0600
G01 F60.00
G01 X18.1591 Y9.3870
G01 X18.1681 Y9.3267
G01 X18.1829 Y9.2675
G01 X18.2035 Y9.2100
G01 X18.2296 Y9.1549
G01 X18.2610 Y9.1025
G01 X18.2973 Y9.0535
G01 X18.3371 Y9.0095
G01 X18.3835 Y8.9673
G01 X18.4325 Y8.9310
G01 X18.4849 Y8.8996
G01 X18.5368 Y8.8749
G01 X18.5433 Y8.8722
G01 X18.5975 Y8.8529
G01 X18.6532 Y8.8389
G01 X18.6602 Y8.8375
G01 X18.7135 Y8.8296
G01 X18.7300 Y8.8284
G01 X19.5760 Y7.9825
G01 X19.5759 Y6.7048
G01 X19.5232 Y6.7048
G01 X19.4935 Y6.7033
G01 X19.4622 Y6.6987
G01 X19.4333 Y6.6915
G01 X19.4018 Y6.6803
G01 X19.3733 Y6.6668
G01 X19.3462 Y6.6506
G01 X19.3222 Y6.6329
G01 X19.2974 Y6.6106
G01 X19.2762 Y6.5872
G01 X19.2574 Y6.5618
G01 X19.2412 Y6.5347
G01 X19.2277 Y6.5062
G01 X19.2170 Y6.4764
G01 X19.2093 Y6.4458
G01 X19.2047 Y6.4145
G01 X19.2032 Y6.3830
G01 X19.2032 Y5.4830
G01 X19.2047 Y5.4515
G01 X19.2093 Y5.4202
G01 X19.2170 Y5.3896
G01 X19.2277 Y5.3597
G01 X19.2412 Y5.3313
G01 X19.2574 Y5.3042
G01 X19.2762 Y5.2788
G01 X19.2974 Y5.2554
G01 X19.3208 Y5.2342
G01 X19.3462 Y5.2154
G01 X19.3702 Y5.2009
G01 X19.3764 Y5.1976
G01 X19.4018 Y5.1856
G01 X19.4316 Y5.1750
G01 X19.4588 Y5.1681
G01 X19.4657 Y5.1667
G01 X19.4952 Y5.1625
G01 X19.5250 Y5.1611
G01 X20.2250 Y5.1611
G01 X20.2565 Y5.1627
G01 X20.2861 Y5.1670
G01 X20.3184 Y5.1750
G01 X20.3449 Y5.1844
G01 X20.3514 Y5.1871
G01 X20.3736 Y5.1976
G01 X20.3798 Y5.2009
G01 X20.4038 Y5.2154
G01 X20.4292 Y5.2342
G01 X20.4526 Y5.2554
G01 X20.4727 Y5.2775
G01 X20.4926 Y5.3042
G01 X20.5071 Y5.3282
G01 X20.5104 Y5.3344
G01 X20.5230 Y5.3615
G01 X20.5330 Y5.3896
G01 X20.5403 Y5.4185
G01 X20.5451 Y5.4497
G01 X20.5459 Y5.4609
G01 X21.9541 Y5.4609
G01 X21.9549 Y5.4497
G01 X21.9597 Y5.4185
G01 X21.9670 Y5.3896
G01 X21.9784 Y5.3581
G01 X21.9912 Y5.3313
G01 X22.0074 Y5.3042
G01 X22.0262 Y5.2788
G01 X22.0462 Y5.2567
G01 X22.0708 Y5.2342
G01 X22.0962 Y5.2154
G01 X22.1233 Y5.1992
G01 X22.1486 Y5.1871
G01 X22.1551 Y5.1844
G01 X22.1782 Y5.1761
G01 X22.1850 Y5.1741
G01 X22.2122 Y5.1673
G01 X22.2452 Y5.1625
G01 X22.2750 Y5.1611
G01 X22.9750 Y5.1611
G01 X23.0083 Y5.1629
G01 X23.0378 Y5.1673
G01 X23.0684 Y5.1750
G01 X23.0983 Y5.1857
G01 X23.1267 Y5.1992
G01 X23.1538 Y5.2154
G01 X23.1792 Y5.2342
G01 X23.2026 Y5.2554
G01 X23.2238 Y5.2788
G01 X23.2426 Y5.3042
G01 X23.2571 Y5.3282
G01 X23.2604 Y5.3344
G01 X23.2724 Y5.3598
G01 X23.2830 Y5.3896
G01 X23.2899 Y5.4168
G01 X23.2913 Y5.4237
G01 X23.2955 Y5.4532
G01 X23.2969 Y5.4830
G01 X23.2969 Y6.3830
G01 X23.2953 Y6.4145
G01 X23.2913 Y6.4423
G01 X23.2899 Y6.4492
G01 X23.2830 Y6.4764
G01 X23.2736 Y6.5029
G01 X23.2709 Y6.5094
G01 X23.2588 Y6.5347
G01 X23.2445 Y6.5588
G01 X23.2406 Y6.5647
G01 X23.2238 Y6.5872
G01 X23.2050 Y6.6080
G01 X23.2000 Y6.6130
G01 X23.1792 Y6.6318
G01 X23.1538 Y6.6506
G01 X23.1298 Y6.6651
G01 X23.1236 Y6.6684
G01 X23.0982 Y6.6803
G01 X23.0684 Y6.6910
G01 X23.0378 Y6.6987
G01 X23.0065 Y6.7033
G01 X22.9768 Y6.7048
G01 X22.2750 Y6.7048
G01 X22.2435 Y6.7033
G01 X22.2157 Y6.6993
G01 X22.2088 Y6.6979
G01 X22.1816 Y6.6910
G01 X22.1518 Y6.6803
G01 X22.1233 Y6.6668
G01 X22.0992 Y6.6525
G01 X22.0933 Y6.6486
G01 X22.0736 Y6.6340
G01 X22.0682 Y6.6295
G01 X22.0474 Y6.6106
G01 X22.0273 Y6.5885
G01 X22.0074 Y6.5618
G01 X21.9929 Y6.5378
G01 X21.9896 Y6.5316
G01 X21.9770 Y6.5045
G01 X21.9670 Y6.4764
G01 X21.9597 Y6.4475
G01 X21.9549 Y6.4163
G01 X21.9541 Y6.4050
G01 X20.5459 Y6.4050
G01 X20.5451 Y6.4163
G01 X20.5413 Y6.4423
G01 X20.5399 Y6.4492
G01 X20.5325 Y6.4781
G01 X20.5230 Y6.5046
G01 X20.5200 Y6.5112
G01 X20.5200 Y8.1798
G01 X20.5178 Y8.2243
G01 X20.5110 Y8.2701
G01 X20.4997 Y8.3150
G01 X20.4848 Y8.3571
G01 X20.4643 Y8.4005
G01 X20.4405 Y8.4403
G01 X20.4129 Y8.4775
G01 X20.3830 Y8.5105
G01 X19.3976 Y9.4960
G01 X19.3967 Y9.5107
G01 X19.3882 Y9.5676
G01 X19.3731 Y9.6285
G01 X19.3525 Y9.6860
G01 X19.3264 Y9.7411
G01 X19.2950 Y9.7935
G01 X19.2587 Y9.8425
G01 X19.2177 Y9.8877
G01 X19.1725 Y9.9287
G01 X19.1235 Y9.9650
G01 X19.0742 Y9.9947
G01 X19.0680 Y9.9980
G01 X19.0160 Y10.0225
G01 X18.9585 Y10.0431
G01 X18.9028 Y10.0571
G01 X18.8958 Y10.0585
G01 X18.8390 Y10.0669
G01 X18.7780 Y10.0698
G01 X18.7206 Y10.0671
G01 X18.7135 Y10.0664
G01 X18.6567 Y10.0579
G01 X18.6009 Y10.0440
G01 X18.5941 Y10.0420
G01 X18.5400 Y10.0225
G01 X18.4880 Y9.9980
G01 X18.4818 Y9.9947
G01 X18.4325 Y9.9650
G01 X18.3863 Y9.9309
G01 X18.3808 Y9.9264
G01 X18.3383 Y9.8877
G01 X18.2996 Y9.8452
G01 X18.2951 Y9.8397
G01 X18.2630 Y9.7964
G01 X18.2591 Y9.7905
G01 X18.2296 Y9.7411
G01 X18.2049 Y9.6892
G01 X18.2022 Y9.6827
G01 X18.1829 Y9.6285
G01 X18.1681 Y9.5693
G01 X18.1596 Y9.5125
G01 X18.1589 Y9.5054
G01 X18.1562 Y9.4462
G00 Z2.0000
G00 X23.7442 Y10.9702
G01 F30.00
G01 Z-0.0600
G01 F60.00
G01 X23.7471 Y10.9110
G01 X23.7561 Y10.8507
G01 X23.7709 Y10.7915
G01 X23.7915 Y10.7340
G01 X23.8176 Y10.6789
G01 X23.8490 Y10.6265
G01 X23.8853 Y10.5775
G01 X23.9263 Y10.5323
G01 X23.9715 Y10.4913
G01 X24.0205 Y10.4550
G01 X24.0729 Y10.4236
G01 X24.1248 Y10.3989
G01 X24.1313 Y10.3962
G01 X24.1855 Y10.3769
G01 X24.2412 Y10.3629
G01 X24.2482 Y10.3615
G01 X24.3015 Y10.3536
G01 X24.3180 Y10.3524
G01 X29.1122 Y5.5582
G01 X29.1465 Y5.5271
G01 X29.1809 Y5.5015
G01 X29.1867 Y5.4976
G01 X29.2250 Y5.4749
G01 X29.2621 Y5.4573
G01 X29.2686 Y5.4546
G01 X29.3090 Y5.4403
G01 X29.3505 Y5.4298
G01 X29.3574 Y5.4284
G01 X29.3997 Y5.4222
G01 X29.4460 Y5.4200
G01 X40.4265 Y5.4199
G01 X42.8186 Y3.0278
G01 X42.6802 Y3.0278
G01 X42.6715 Y3.0271
G01 X42.6611 Y3.0248
G01 X42.6513 Y3.0210
G01 X42.6421 Y3.0157
G01 X42.6337 Y3.0092
G01 X42.6265 Y3.0016
G01 X42.6204 Y2.9929
G01 X42.6156 Y2.9835
G01 X42.6123 Y2.9735
G01 X42.6105 Y2.9630
G01 X42.6102 Y2.9560
G01 X42.6102 Y0.9560
G01 X42.6105 Y0.9490
G01 X42.6112 Y0.9437
G01 X42.6128 Y0.9368
G01 X42.6150 Y0.9301
G01 X42.6170 Y0.9253
G01 X42.6204 Y0.9191
G01 X42.6233 Y0.9146
G01 X42.6276 Y0.9091
G01 X42.6325 Y0.9040
G01 X42.6392 Y0.8983
G01 X42.6451 Y0.8944
G01 X42.6513 Y0.8910
G01 X42.6578 Y0.8884
G01 X42.6663 Y0.8859
G01 X42.6732 Y0.8847
G01 X42.6802 Y0.8842
G01 X44.1820 Y0.8842
G01 X44.1925 Y0.8849
G01 X44.2012 Y0.8868
G01 X44.2095 Y0.8896
G01 X44.2189 Y0.8944
G01 X44.2276 Y0.9005
G01 X44.2340 Y0.9065
G01 X44.2407 Y0.9146
G01 X44.2462 Y0.9237
G01 X44.2490 Y0.9301
G01 X44.2517 Y0.9385
G01 X44.2533 Y0.9472
G01 X44.2538 Y0.9560
G01 X44.2538 Y2.9560
G01 X44.2531 Y2.9665
G01 X44.2512 Y2.9752
G01 X44.2477 Y2.9851
G01 X44.2427 Y2.9944
G01 X44.2386 Y3.0002
G01 X44.2328 Y3.0068
G01 X44.2276 Y3.0115
G01 X44.2204 Y3.0167
G01 X44.2127 Y3.0210
G01 X44.2062 Y3.0236
G01 X44.1977 Y3.0261
G01 X44.1890 Y3.0275
G01 X44.1820 Y3.0278
G01 X43.9040 Y3.0278
G01 X43.9040 Y3.0838
G01 X43.9018 Y3.1283
G01 X43.8950 Y3.1741
G01 X43.8847 Y3.2156
G01 X43.8826 Y3.2224
G01 X43.8681 Y3.2627
G01 X43.8499 Y3.3014
G01 X43.8466 Y3.3076
G01 X43.8264 Y3.3413
G01 X43.8225 Y3.3471
G01 X43.7969 Y3.3815
G01 X43.7670 Y3.4145
G01 X40.9558 Y6.2258
G01 X40.9215 Y6.2569
G01 X40.8871 Y6.2825
G01 X40.8813 Y6.2864
G01 X40.8430 Y6.3091
G01 X40.8059 Y6.3267
G01 X40.7994 Y6.3294
G01 X40.7590 Y6.3437
G01 X40.7175 Y6.3542
G01 X40.7106 Y6.3556
G01 X40.6683 Y6.3618
G01 X40.6220 Y6.3640
G01 X29.6415 Y6.3641
G01 X24.9856 Y11.0200
G01 X24.9847 Y11.0347
G01 X24.9762 Y11.0916
G01 X24.9611 Y11.1525
G01 X24.9405 Y11.2100
G01 X24.9144 Y11.2651
G01 X24.8830 Y11.3175
G01 X24.8467 Y11.3665
G01 X24.8057 Y11.4117
G01 X24.7591 Y11.4538
G01 X24.7115 Y11.4890
G01 X24.6622 Y11.5187
G01 X24.6560 Y11.5220
G01 X24.6040 Y11.5465
G01 X24.5465 Y11.5671
G01 X24.4908 Y11.5811
G01 X24.4838 Y11.5825
G01 X24.4270 Y11.5909
G01 X24.3660 Y11.5938
G01 X24.3086 Y11.5911
G01 X24.3015 Y11.5904
G01 X24.2447 Y11.5819
G01 X24.1889 Y11.5680
G01 X24.1821 Y11.5660
G01 X24.1280 Y11.5465
G01 X24.0760 Y11.5220
G01 X24.0698 Y11.5187
G01 X24.0205 Y11.4890
G01 X23.9743 Y11.4549
G01 X23.9688 Y11.4504
G01 X23.9263 Y11.4117
G01 X23.8876 Y11.3692
G01 X23.8831 Y11.3637
G01 X23.8510 Y11.3204
G01 X23.8471 Y11.3145
G01 X23.8176 Y11.2651
G01 X23.7929 Y11.2132
G01 X23.7902 Y11.2067
G01 X23.7709 Y11.1525
G01 X23.7561 Y11.0933
G01 X23.7476 Y11.0365
G01 X23.7469 Y11.0294
G01 X23.7442 Y10.9702
G00 Z2.0000
G00 X26.2842 Y10.9702
G01 F30.00
G01 Z-0.0600
G01 F60.00
G01 X26.2871 Y10.9110
G01 X26.2961 Y10.8507
G01 X26.3109 Y10.7915
G01 X26.3315 Y10.7340
G01 X26.3576 Y10.6789
G01 X26.3890 Y10.6265
G01 X26.4253 Y10.5775
G01 X26.4663 Y10.5323
G01 X26.5115 Y10.4913
G01 X26.5605 Y10.4550
G01 X26.6129 Y10.4236
G01 X26.6648 Y10.3989
G01 X26.6713 Y10.3962
G01 X26.7255 Y10.3769
G01 X26.7812 Y10.3629
G01 X26.7882 Y10.3615
G01 X26.8415 Y10.3536
G01 X26.8580 Y10.3524
G01 X30.1282 Y7.0822
G01 X30.1599 Y7.0534
G01 X30.1653 Y7.0489
G01 X30.1997 Y7.0235
G01 X30.2364 Y7.0014
G01 X30.2426 Y6.9981
G01 X30.2814 Y6.9799
G01 X30.3267 Y6.9638
G01 X30.3699 Y6.9530
G01 X30.4122 Y6.9467
G01 X30.4192 Y6.9460
G01 X30.4620 Y6.9440
G01 X41.1885 Y6.9439
G01 X44.9599 Y3.1725
G01 X44.9599 Y3.0278
G01 X44.6820 Y3.0278
G01 X44.6767 Y3.0277
G01 X44.6697 Y3.0268
G01 X44.6628 Y3.0252
G01 X44.6578 Y3.0236
G01 X44.6481 Y3.0194
G01 X44.6392 Y3.0137
G01 X44.6312 Y3.0068
G01 X44.6243 Y2.9988
G01 X44.6204 Y2.9929
G01 X44.6178 Y2.9883
G01 X44.6138 Y2.9785
G01 X44.6119 Y2.9717
G01 X44.6109 Y2.9665
G01 X44.6102 Y2.9560
G01 X44.6102 Y0.9560
G01 X44.6105 Y0.9490
G01 X44.6112 Y0.9437
G01 X44.6128 Y0.9368
G01 X44.6144 Y0.9318
G01 X44.6170 Y0.9253
G01 X44.6195 Y0.9206
G01 X44.6223 Y0.9161
G01 X44.6265 Y0.9104
G01 X44.6312 Y0.9052
G01 X44.6364 Y0.9005
G01 X44.6421 Y0.8963
G01 X44.6497 Y0.8918
G01 X44.6561 Y0.8890
G01 X44.6645 Y0.8863
G01 X44.6715 Y0.8849
G01 X44.6802 Y0.8842
G01 X46.1820 Y0.8842
G01 X46.1925 Y0.8849
G01 X46.2012 Y0.8868
G01 X46.2095 Y0.8896
G01 X46.2189 Y0.8944
G01 X46.2276 Y0.9005
G01 X46.2340 Y0.9065
G01 X46.2407 Y0.9146
G01 X46.2462 Y0.9237
G01 X46.2490 Y0.9301
G01 X46.2517 Y0.9385
G01 X46.2533 Y0.9472
G01 X46.2538 Y0.9560
G01 X46.2538 Y2.9560
G01 X46.2531 Y2.9665
G01 X46.2508 Y2.9769
G01 X46.2470 Y2.9867
G01 X46.2436 Y2.9929
G01 X46.2407 Y2.9974
G01 X46.2340 Y3.0055
G01 X46.2289 Y3.0104
G01 X46.2248 Y3.0137
G01 X46.2159 Y3.0194
G01 X46.2062 Y3.0236
G01 X46.1995 Y3.0257
G01 X46.1943 Y3.0268
G01 X46.1890 Y3.0275
G01 X46.1820 Y3.0278
G01 X45.9040 Y3.0278
G01 X45.9040 Y3.3680
G01 X45.9016 Y3.4160
G01 X45.8956 Y3.4566
G01 X45.8942 Y3.4635
G01 X45.8837 Y3.5050
G01 X45.8694 Y3.5454
G01 X45.8667 Y3.5519
G01 X45.8483 Y3.5905
G01 X45.8245 Y3.6303
G01 X45.7969 Y3.6675
G01 X45.7658 Y3.7018
G01 X41.7178 Y7.7498
G01 X41.6835 Y7.7809
G01 X41.6491 Y7.8065
G01 X41.6433 Y7.8104
G01 X41.6050 Y7.8331
G01 X41.5679 Y7.8507
G01 X41.5614 Y7.8534
G01 X41.5210 Y7.8677
G01 X41.4795 Y7.8782
G01 X41.4726 Y7.8796
G01 X41.4303 Y7.8858
G01 X41.3840 Y7.8880
G01 X30.6575 Y7.8881
G01 X27.5256 Y11.0200
G01 X27.5247 Y11.0347
G01 X27.5162 Y11.0916
G01 X27.5011 Y11.1525
G01 X27.4805 Y11.2100
G01 X27.4536 Y11.2667
G01 X27.4230 Y11.3175
G01 X27.3889 Y11.3637
G01 X27.3844 Y11.3692
G01 X27.3457 Y11.4117
G01 X27.3032 Y11.4504
G01 X27.2977 Y11.4549
G01 X27.2529 Y11.4881
G01 X27.2022 Y11.5187
G01 X27.1960 Y11.5220
G01 X27.1440 Y11.5465
G01 X27.0899 Y11.5660
G01 X27.0831 Y11.5680
G01 X27.0273 Y11.5819
G01 X26.9705 Y11.5904
G01 X26.9634 Y11.5911
G01 X26.9060 Y11.5938
G01 X26.8486 Y11.5911
G01 X26.8415 Y11.5904
G01 X26.7847 Y11.5819
G01 X26.7289 Y11.5680
G01 X26.7221 Y11.5660
G01 X26.6680 Y11.5465
G01 X26.6129 Y11.5204
G01 X26.5635 Y11.4909
G01 X26.5576 Y11.4870
G01 X26.5115 Y11.4527
G01 X26.4663 Y11.4117
G01 X26.4276 Y11.3692
G01 X26.4231 Y11.3637
G01 X26.3890 Y11.3175
G01 X26.3593 Y11.2682
G01 X26.3560 Y11.2620
G01 X26.3315 Y11.2100
G01 X26.3120 Y11.1559
G01 X26.3100 Y11.1491
G01 X26.2961 Y11.0933
G01 X26.2876 Y11.0365
G01 X26.2869 Y11.0294
G01 X26.2842 Y10.9702
G00 Z2.0000
G00 X28.8242 Y10.9685
G01 F30.00
G01 Z-0.0600
G01 F60.00
G01 X28.8271 Y10.9110
G01 X28.8361 Y10.8507
G01 X28.8509 Y10.7915
G01 X28.8715 Y10.7340
G01 X28.8976 Y10.6789
G01 X28.9290 Y10.6265
G01 X28.9653 Y10.5775
G01 X29.0075 Y10.5311
G01 X29.0515 Y10.4913
G01 X29.1005 Y10.4550
G01 X29.1529 Y10.4236
G01 X29.2064 Y10.3982
G01 X29.2655 Y10.3769
G01 X29.3212 Y10.3629
G01 X29.3282 Y10.3615
G01 X29.3815 Y10.3536
G01 X29.3980 Y10.3524
G01 X31.3995 Y8.3510
G01 X31.4325 Y8.3211
G01 X31.4669 Y8.2955
G01 X31.4727 Y8.2916
G01 X31.5095 Y8.2697
G01 X31.5514 Y8.2499
G01 X31.5916 Y8.2354
G01 X31.5984 Y8.2333
G01 X31.6399 Y8.2230
G01 X31.6857 Y8.2162
G01 X31.7320 Y8.2140
G01 X42.3625 Y8.2139
G01 X46.9599 Y3.6165
G01 X46.9599 Y3.0278
G01 X46.6820 Y3.0278
G01 X46.6767 Y3.0277
G01 X46.6697 Y3.0268
G01 X46.6628 Y3.0252
G01 X46.6578 Y3.0236
G01 X46.6481 Y3.0194
G01 X46.6421 Y3.0157
G01 X46.6378 Y3.0126
G01 X46.6300 Y3.0055
G01 X46.6254 Y3.0002
G01 X46.6223 Y2.9959
G01 X46.6170 Y2.9867
G01 X46.6144 Y2.9802
G01 X46.6128 Y2.9752
G01 X46.6107 Y2.9648
G01 X46.6102 Y2.9560
G01 X46.6102 Y0.9560
G01 X46.6105 Y0.9490
G01 X46.6112 Y0.9437
G01 X46.6128 Y0.9368
G01 X46.6144 Y0.9318
G01 X46.6170 Y0.9253
G01 X46.6195 Y0.9206
G01 X46.6223 Y0.9161
G01 X46.6265 Y0.9104
G01 X46.6312 Y0.9052
G01 X46.6364 Y0.9005
G01 X46.6421 Y0.8963
G01 X46.6497 Y0.8918
G01 X46.6561 Y0.8890
G01 X46.6645 Y0.8863
G01 X46.6715 Y0.8849
G01 X46.6802 Y0.8842
G01 X48.1820 Y0.8842
G01 X48.1925 Y0.8849
G01 X48.2012 Y0.8868
G01 X48.2095 Y0.8896
G01 X48.2189 Y0.8944
G01 X48.2276 Y0.9005
G01 X48.2340 Y0.9065
G01 X48.2407 Y0.9146
G01 X48.2462 Y0.9237
G01 X48.2490 Y0.9301
G01 X48.2517 Y0.9385
G01 X48.2533 Y0.9472
G01 X48.2538 Y0.9560
G01 X48.2538 Y2.9560
G01 X48.2533 Y2.9648
G01 X48.2512 Y2.9752
G01 X48.2496 Y2.9802
G01 X48.2470 Y2.9867
G01 X48.2436 Y2.9929
G01 X48.2407 Y2.9974
G01 X48.2340 Y3.0055
G01 X48.2289 Y3.0104
G01 X48.2248 Y3.0137
G01 X48.2159 Y3.0194
G01 X48.2062 Y3.0236
G01 X48.1995 Y3.0257
G01 X48.1943 Y3.0268
G01 X48.1890 Y3.0275
G01 X48.1820 Y3.0278
G01 X47.9040 Y3.0278
G01 X47.9040 Y3.8120
G01 X47.9019 Y3.8565
G01 X47.8950 Y3.9041
G01 X47.8847 Y3.9456
G01 X47.8826 Y3.9524
G01 X47.8681 Y3.9927
G01 X47.8499 Y4.0314
G01 X47.8466 Y4.0376
G01 X47.8245 Y4.0743
G01 X47.7969 Y4.1115
G01 X47.7658 Y4.1458
G01 X42.8918 Y9.0198
G01 X42.8575 Y9.0509
G01 X42.8231 Y9.0765
G01 X42.8173 Y9.0804
G01 X42.7790 Y9.1031
G01 X42.7419 Y9.1207
G01 X42.7354 Y9.1234
G01 X42.6950 Y9.1377
G01 X42.6535 Y9.1482
G01 X42.6466 Y9.1496
G01 X42.6043 Y9.1558
G01 X42.5580 Y9.1580
G01 X31.9275 Y9.1581
G01 X30.0656 Y11.0200
G01 X30.0647 Y11.0347
G01 X30.0559 Y11.0933
G01 X30.0405 Y11.1542
G01 X30.0205 Y11.2100
G01 X29.9960 Y11.2620
G01 X29.9927 Y11.2682
G01 X29.9640 Y11.3160
G01 X29.9267 Y11.3665
G01 X29.8881 Y11.4092
G01 X29.8832 Y11.4141
G01 X29.8432 Y11.4504
G01 X29.8377 Y11.4549
G01 X29.7915 Y11.4890
G01 X29.7422 Y11.5187
G01 X29.7360 Y11.5220
G01 X29.6840 Y11.5465
G01 X29.6299 Y11.5660
G01 X29.6231 Y11.5680
G01 X29.5673 Y11.5819
G01 X29.5105 Y11.5904
G01 X29.5034 Y11.5911
G01 X29.4460 Y11.5938
G01 X29.3886 Y11.5911
G01 X29.3815 Y11.5904
G01 X29.3247 Y11.5819
G01 X29.2689 Y11.5680
G01 X29.2621 Y11.5660
G01 X29.2080 Y11.5465
G01 X29.1560 Y11.5220
G01 X29.1498 Y11.5187
G01 X29.1005 Y11.4890
G01 X29.0543 Y11.4549
G01 X29.0488 Y11.4504
G01 X29.0063 Y11.4117
G01 X28.9676 Y11.3692
G01 X28.9631 Y11.3637
G01 X28.9290 Y11.3175
G01 X28.8993 Y11.2682
G01 X28.8960 Y11.2620
G01 X28.8729 Y11.2132
G01 X28.8702 Y11.2067
G01 X28.8509 Y11.1525
G01 X28.8369 Y11.0968
G01 X28.8355 Y11.0898
G01 X28.8271 Y11.0330
G01 X28.8242 Y10.9755
G01 X28.8242 Y10.9685
G00 Z2.0000
G00 X31.3642 Y11.4868
G01 F30.00
G01 Z-0.0600
G01 F60.00
G01 X31.4047 Y11.4111
G01 X31.4591 Y11.3446
G01 X31.5256 Y11.2902
G01 X31.6013 Y11.2497
G01 X31.6835 Y11.2247
G01 X31.7781 Y11.2154
G01 X32.1253 Y11.2178
G01 X32.1681 Y11.2606
G01 X32.1681 Y11.5827
G01 X32.0172 Y11.5827
G01 X31.9875 Y11.5842
G01 X31.9579 Y11.5885
G01 X31.9256 Y11.5965
G01 X31.8958 Y11.6071
G01 X31.8673 Y11.6207
G01 X31.8387 Y11.6379
G01 X31.8176 Y11.6535
G01 X31.8122 Y11.6580
G01 X31.7914 Y11.6769
G01 X31.7725 Y11.6977
G01 X31.7680 Y11.7031
G01 X31.7514 Y11.7257
G01 X31.7343 Y11.7543
G01 X31.7231 Y11.7781
G01 X31.7204 Y11.7846
G01 X31.7110 Y11.8111
G01 X31.7037 Y11.8400
G01 X31.6985 Y11.8747
G01 X31.6972 Y11.9027
G01 X31.6972 Y11.9161
G01 X31.3751 Y11.9161
G01 X31.3321 Y11.8730
G01 X31.3299 Y11.6633
G01 X31.3392 Y11.5690
G01 X31.3642 Y11.4868
G00 Z2.0000
G00 X32.9725 Y11.5827
G01 F30.00
G01 Z-0.0600
G01 F60.00
G01 X32.8199 Y11.5827
G01 X32.8199 Y11.2606
G01 X32.8627 Y11.2178
G01 X33.2099 Y11.2154
G01 X33.3045 Y11.2247
G01 X33.3867 Y11.2497
G01 X33.4624 Y11.2902
G01 X33.5289 Y11.3446
G01 X33.5833 Y11.4111
G01 X33.6238 Y11.4868
G01 X33.6488 Y11.5690
G01 X33.6581 Y11.6633
G01 X33.6559 Y11.8730
G01 X33.6129 Y11.9161
G01 X33.2908 Y11.9161
G01 X33.2908 Y11.9027
G01 X33.2895 Y11.8747
G01 X33.2850 Y11.8434
G01 X33.2770 Y11.8111
G01 X33.2670 Y11.7830
G01 X33.2528 Y11.7528
G01 X33.2366 Y11.7257
G01 X33.2178 Y11.7003
G01 X33.1978 Y11.6782
G01 X33.1732 Y11.6557
G01 X33.1478 Y11.6369
G01 X33.1207 Y11.6207
G01 X33.0923 Y11.6072
G01 X33.0624 Y11.5965
G01 X33.0318 Y11.5888
G01 X33.0005 Y11.5842
G01 X32.9725 Y11.5827
G00 Z2.0000
