(G-CODE GENERATED BY FLATCAM v8.994 - www.flatcam.org - Version Date: 2020/11/7)

(Name: lora_digirepeater_micro-B_Cu.gbr_ncc_cnc)
(Type: G-code from Geometry)
(Units: MM)

(Created on Thursday, 09 March 2023 at 18:24)

(This preprocessor is the default preprocessor used by FlatCAM.)
(It is made to work with MACH3 compatible motion controllers.)

(TOOL DIAMETER: 0.2322 mm)
(Feedrate_XY: 60.0 mm/min)
(Feedrate_Z: 30.0 mm/min)
(Feedrate rapids 1500.0 mm/min)

(Z_Cut: -0.0601 mm)
(Z_Move: 2.0 mm)
(Z Start: None mm)
(Z End: 15.0 mm)
(X,Y End: None mm)
(Steps per circle: 64)
(Preprocessor Geometry: default)

(X range:   -0.0900 ...   59.8619  mm)
(Y range:    0.0660 ...   20.0220  mm)

(Spindle Speed: 10000.0 RPM)
G21
G90
G94

G01 F60.00

M5
G00 Z15.0000
G00 X0.0000 Y0.0000
T3
M6    
(MSG, Change to Tool Dia = 0.2322)
M0
G00 Z15.0000

M03 S10000.0
G01 F60.00
G00 X0.1842 Y0.3847
G01 F30.00
G01 Z-0.0601
G01 F60.00
G01 X0.0443 Y1.2542
G01 X-0.0900 Y2.2429
G01 X0.6778 Y2.6280
G01 X0.6531 Y2.8103
G01 X0.4932 Y4.2516
G01 X0.3688 Y5.6963
G01 X0.2799 Y7.1437
G01 X0.2265 Y8.5928
G01 X0.2087 Y10.0427
G01 X0.2265 Y11.4927
G01 X0.2799 Y12.9418
G01 X0.3688 Y14.3892
G01 X0.4932 Y15.8339
G01 X0.6531 Y17.2752
G01 X0.6778 Y17.4575
G01 X-0.0900 Y17.8425
G01 X0.0443 Y18.8313
G01 X0.1847 Y19.7038
G01 X0.3748 Y19.8621
G01 X0.2051 Y18.8075
G01 X0.0078 Y17.3547
G01 X-0.0900 Y16.4731
G01 X0.6778 Y16.0239
G01 X0.6550 Y15.8180
G01 X0.5309 Y14.3772
G01 X0.4423 Y12.9338
G01 X0.3890 Y11.4887
G01 X0.3713 Y10.0427
G01 X0.3890 Y8.5967
G01 X0.4423 Y7.1516
G01 X0.5309 Y5.7083
G01 X0.6550 Y4.2675
G01 X0.6778 Y4.0616
G01 X-0.0900 Y3.6123
G01 X0.0078 Y2.7307
G01 X0.2051 Y1.2780
G01 X0.3743 Y0.2262
G01 X0.5537 Y0.1349
G01 X0.3659 Y1.3019
G01 X0.1691 Y2.7506
G01 X0.0080 Y4.2038
G01 X-0.0900 Y5.3410
G01 X0.6778 Y5.9675
G01 X0.6046 Y7.1596
G01 X0.5515 Y8.6007
G01 X0.5338 Y10.0427
G01 X0.5515 Y11.4847
G01 X0.6046 Y12.9259
G01 X0.6778 Y14.1180
G01 X-0.0900 Y14.7444
G01 X0.0080 Y15.8817
G01 X0.1691 Y17.3348
G01 X0.3659 Y18.7836
G01 X0.5541 Y19.9533
G01 X0.7269 Y20.0041
G01 X0.5267 Y18.7598
G01 X0.3304 Y17.3150
G01 X0.1697 Y15.8658
G01 X0.0446 Y14.4131
G01 X-0.0448 Y12.9578
G01 X-0.0900 Y11.7310
G00 Z2.0000
G00 X2.0505 Y11.9955
G01 F30.00
G01 Z-0.0601
G01 F60.00
G01 X2.0619 Y12.0241
G01 X2.0863 Y12.0810
G01 X2.1101 Y12.1330
G00 Z2.0000
G00 X2.3179 Y11.7830
G01 F30.00
G01 Z-0.0601
G01 F60.00
G01 X2.3060 Y11.7483
G01 X2.2897 Y11.6970
G01 X2.2747 Y11.6452
G01 X2.2610 Y11.5932
G01 X2.2485 Y11.5408
G01 X2.2374 Y11.4881
G01 X2.2275 Y11.4351
G01 X2.2190 Y11.3820
G01 X2.2117 Y11.3286
G01 X2.2058 Y11.2751
G01 X2.2012 Y11.2214
G01 X2.1979 Y11.1677
G01 X2.1959 Y11.1139
G01 X2.1952 Y11.0600
G01 X2.1959 Y11.0061
G01 X2.1979 Y10.9523
G01 X2.2012 Y10.8986
G01 X2.2058 Y10.8449
G01 X2.2117 Y10.7914
G01 X2.2190 Y10.7380
G01 X2.2275 Y10.6849
G01 X2.2374 Y10.6319
G01 X2.2485 Y10.5792
G01 X2.2610 Y10.5268
G01 X2.2747 Y10.4748
G01 X2.2897 Y10.4230
G01 X2.3060 Y10.3717
G01 X2.3179 Y10.3370
G01 X2.3179 Y10.2100
G01 X2.3179 Y11.9100
G01 X2.3185 Y11.9214
G01 X2.3201 Y11.9326
G01 X2.3221 Y11.9410
G01 X2.3247 Y11.9491
G01 X2.3279 Y11.9570
G01 X2.3316 Y11.9647
G01 X2.3359 Y11.9721
G01 X2.3407 Y11.9792
G01 X2.3461 Y11.9858
G01 X2.3519 Y11.9921
G01 X2.3582 Y11.9979
G01 X2.3648 Y12.0033
G01 X2.3719 Y12.0081
G01 X2.3793 Y12.0124
G01 X2.3870 Y12.0161
G01 X2.3949 Y12.0193
G01 X2.4030 Y12.0219
G01 X2.4114 Y12.0239
G01 X2.4226 Y12.0255
G01 X2.4340 Y12.0261
G01 X2.7677 Y12.0261
G01 X2.7677 Y12.5840
G01 X2.7702 Y12.6346
G01 X2.7776 Y12.6847
G01 X2.7884 Y12.7284
G01 X2.7917 Y12.7393
G01 X2.8070 Y12.7816
G01 X2.8261 Y12.8223
G01 X2.8315 Y12.8323
G01 X2.8532 Y12.8685
G01 X2.8580 Y12.8755
G01 X2.8849 Y12.9115
G01 X2.9189 Y12.9491
G01 X3.6374 Y13.6675
G01 X3.6467 Y13.7299
G01 X3.6611 Y13.7879
G01 X3.6644 Y13.7988
G01 X3.6846 Y13.8549
G01 X3.7100 Y13.9089
G01 X3.7154 Y13.9190
G01 X3.7431 Y13.9653
G01 X3.7494 Y13.9747
G01 X3.7851 Y14.0226
G01 X3.8290 Y14.0710
G01 X3.8774 Y14.1149
G01 X3.9253 Y14.1506
G01 X3.9323 Y14.1554
G01 X3.9860 Y14.1874
G01 X4.0451 Y14.2154
G01 X4.1066 Y14.2374
G01 X4.1645 Y14.2521
G01 X4.1757 Y14.2543
G01 X4.2291 Y14.2622
G01 X4.2404 Y14.2633
G01 X4.3000 Y14.2661
G01 X4.3653 Y14.2629
G01 X4.4299 Y14.2533
G01 X4.4934 Y14.2374
G01 X4.5549 Y14.2154
G01 X4.6089 Y14.1900
G01 X4.6190 Y14.1846
G01 X4.6653 Y14.1569
G01 X4.6747 Y14.1506
G01 X4.7226 Y14.1149
G01 X4.7669 Y14.0749
G01 X4.7730 Y14.0690
G01 X4.8149 Y14.0226
G01 X4.8506 Y13.9747
G01 X4.8569 Y13.9653
G01 X4.8846 Y13.9190
G01 X4.8900 Y13.9089
G01 X4.9154 Y13.8549
G01 X4.9374 Y13.7934
G01 X4.9533 Y13.7299
G01 X4.9622 Y13.6709
G01 X4.9633 Y13.6596
G01 X4.9660 Y13.6057
G01 X4.9660 Y13.5943
G01 X4.9629 Y13.5347
G01 X4.9533 Y13.4701
G01 X4.9374 Y13.4066
G01 X4.9174 Y13.3504
G01 X4.9131 Y13.3399
G01 X4.8900 Y13.2911
G01 X4.8861 Y13.2835
G01 X4.8569 Y13.2347
G01 X4.8506 Y13.2253
G01 X4.8149 Y13.1774
G01 X4.7749 Y13.1331
G01 X4.7669 Y13.1251
G01 X4.7226 Y13.0851
G01 X4.6701 Y13.0462
G01 X4.6140 Y13.0126
G01 X4.5601 Y12.9869
G01 X4.5496 Y12.9826
G01 X4.4934 Y12.9626
G01 X4.4355 Y12.9479
G01 X4.4243 Y12.9457
G01 X4.3675 Y12.9374
G01 X3.8003 Y12.3701
G01 X3.8003 Y12.0261
G01 X4.1340 Y12.0261
G01 X4.1454 Y12.0255
G01 X4.1566 Y12.0239
G01 X4.1650 Y12.0219
G01 X4.1731 Y12.0193
G01 X4.1810 Y12.0161
G01 X4.1887 Y12.0124
G01 X4.1961 Y12.0081
G01 X4.2032 Y12.0033
G01 X4.2098 Y11.9979
G01 X4.2161 Y11.9921
G01 X4.2219 Y11.9858
G01 X4.2273 Y11.9792
G01 X4.2321 Y11.9721
G01 X4.2364 Y11.9647
G01 X4.2401 Y11.9570
G01 X4.2433 Y11.9491
G01 X4.2459 Y11.9410
G01 X4.2479 Y11.9326
G01 X4.2495 Y11.9214
G01 X4.2501 Y11.9100
G01 X4.2501 Y10.2100
G01 X4.2498 Y10.2015
G01 X4.2488 Y10.1930
G01 X4.2473 Y10.1846
G01 X4.2451 Y10.1763
G01 X4.2423 Y10.1682
G01 X4.2390 Y10.1604
G01 X4.2321 Y10.1479
G01 X4.2237 Y10.1363
G01 X4.2141 Y10.1259
G01 X4.2032 Y10.1167
G01 X4.1912 Y10.1090
G01 X4.1784 Y10.1027
G01 X4.1650 Y10.0981
G01 X4.1510 Y10.0952
G01 X4.1368 Y10.0939
G01 X2.4312 Y10.0939
G01 X2.4198 Y10.0948
G01 X2.4086 Y10.0967
G01 X2.4003 Y10.0989
G01 X2.3896 Y10.1027
G01 X2.3793 Y10.1076
G01 X2.3695 Y10.1135
G01 X2.3603 Y10.1203
G01 X2.3519 Y10.1279
G01 X2.3443 Y10.1363
G01 X2.3375 Y10.1455
G01 X2.3316 Y10.1553
G01 X2.3267 Y10.1656
G01 X2.3229 Y10.1763
G01 X2.3201 Y10.1874
G01 X2.3185 Y10.1986
G01 X2.3179 Y10.2100
G00 Z2.0000
G00 X2.4190 Y12.0251
G01 F30.00
G01 Z-0.0601
G01 F60.00
G01 X2.4295 Y12.0466
G01 X2.4543 Y12.0944
G01 X2.4803 Y12.1416
G01 X2.5074 Y12.1881
G01 X2.5357 Y12.2339
G01 X2.5650 Y12.2791
G01 X2.5955 Y12.3235
G01 X2.6270 Y12.3671
G01 X2.6596 Y12.4100
G01 X2.6933 Y12.4520
G01 X2.7280 Y12.4933
G01 X2.7677 Y12.5380
G00 Z2.0000
G00 X2.7677 Y12.2836
G01 F30.00
G01 Z-0.0601
G01 F60.00
G01 X2.7576 Y12.2703
G01 X2.7284 Y12.2299
G01 X2.7002 Y12.1888
G01 X2.6730 Y12.1470
G01 X2.6468 Y12.1045
G01 X2.6217 Y12.0614
G01 X2.6023 Y12.0261
G00 Z2.0000
G00 X2.4047 Y12.3307
G01 F30.00
G01 Z-0.0601
G01 F60.00
G01 X2.3680 Y12.2717
G01 X2.3389 Y12.2217
G01 X2.3110 Y12.1710
G01 X2.2843 Y12.1197
G01 X2.2590 Y12.0677
G01 X2.2349 Y12.0151
G01 X2.2121 Y11.9619
G01 X2.1906 Y11.9082
G01 X2.1704 Y11.8540
G01 X2.1516 Y11.7993
G01 X2.1342 Y11.7442
G01 X2.1180 Y11.6886
G01 X2.1033 Y11.6327
G01 X2.0899 Y11.5764
G01 X2.0780 Y11.5198
G01 X2.0674 Y11.4629
G01 X2.0582 Y11.4058
G01 X2.0504 Y11.3485
G01 X2.0440 Y11.2910
G01 X2.0391 Y11.2337
G01 X2.0391 Y10.8863
G01 X2.0440 Y10.8290
G01 X2.0504 Y10.7715
G01 X2.0582 Y10.7142
G01 X2.0674 Y10.6571
G01 X2.0780 Y10.6002
G01 X2.0899 Y10.5436
G01 X2.1033 Y10.4873
G01 X2.1180 Y10.4314
G01 X2.1342 Y10.3758
G01 X2.1516 Y10.3207
G01 X2.1704 Y10.2660
G01 X2.1906 Y10.2118
G01 X2.2121 Y10.1581
G01 X2.2349 Y10.1049
G01 X2.2590 Y10.0523
G01 X2.2843 Y10.0003
G01 X2.3110 Y9.9490
G01 X2.3389 Y9.8983
G01 X2.3680 Y9.8483
G01 X2.3948 Y9.8048
G01 X2.1101 Y9.9870
G01 X2.0863 Y10.0390
G01 X2.0619 Y10.0959
G01 X2.0505 Y10.1245
G00 Z2.0000
G00 X2.4190 Y10.0949
G01 F30.00
G01 Z-0.0601
G01 F60.00
G01 X2.4295 Y10.0734
G01 X2.4543 Y10.0256
G01 X2.4803 Y9.9784
G01 X2.5074 Y9.9319
G01 X2.5357 Y9.8861
G01 X2.5650 Y9.8409
G01 X2.5955 Y9.7965
G01 X2.6270 Y9.7529
G01 X2.6596 Y9.7100
G01 X2.6933 Y9.6680
G01 X2.7280 Y9.6267
G01 X2.7636 Y9.5864
G01 X2.8003 Y9.5469
G01 X2.8379 Y9.5084
G01 X2.8765 Y9.4708
G01 X2.9159 Y9.4341
G01 X2.9327 Y9.4193
G00 Z2.0000
G00 X2.6023 Y10.0939
G01 F30.00
G01 Z-0.0601
G01 F60.00
G01 X2.6217 Y10.0586
G01 X2.6468 Y10.0155
G01 X2.6730 Y9.9730
G01 X2.7002 Y9.9312
G01 X2.7284 Y9.8901
G01 X2.7576 Y9.8497
G01 X2.7878 Y9.8100
G01 X2.8189 Y9.7711
G01 X2.8510 Y9.7329
G01 X2.8841 Y9.6956
G01 X2.9180 Y9.6590
G01 X2.9528 Y9.6233
G01 X2.9885 Y9.5885
G01 X3.0251 Y9.5546
G01 X3.0624 Y9.5215
G01 X3.1006 Y9.4894
G01 X3.1227 Y9.4717
G00 Z2.0000
G00 X3.3912 Y9.4797
G01 F30.00
G01 Z-0.0601
G01 F60.00
G01 X3.3510 Y9.5058
G01 X3.3132 Y9.5318
G01 X3.2760 Y9.5586
G01 X3.2395 Y9.5864
G01 X3.2037 Y9.6151
G01 X3.1686 Y9.6446
G01 X3.1342 Y9.6750
G01 X3.1006 Y9.7062
G01 X3.0678 Y9.7383
G01 X3.0357 Y9.7711
G01 X3.0045 Y9.8047
G01 X2.9741 Y9.8391
G01 X2.9446 Y9.8742
G01 X2.9159 Y9.9100
G01 X2.8881 Y9.9465
G01 X2.8613 Y9.9837
G01 X2.8353 Y10.0215
G01 X2.8103 Y10.0600
G01 X2.7894 Y10.0939
G00 Z2.0000
G00 X2.9828 Y10.0939
G01 F30.00
G01 Z-0.0601
G01 F60.00
G01 X2.9942 Y10.0773
G01 X3.0187 Y10.0433
G01 X3.0441 Y10.0100
G01 X3.0702 Y9.9773
G01 X3.0972 Y9.9452
G01 X3.1249 Y9.9139
G01 X3.1535 Y9.8832
G01 X3.1827 Y9.8532
G01 X3.2127 Y9.8239
G01 X3.2434 Y9.7954
G01 X3.2748 Y9.7677
G01 X3.3068 Y9.7407
G01 X3.3395 Y9.7146
G01 X3.3728 Y9.6892
G01 X3.4068 Y9.6647
G01 X3.4413 Y9.6410
G01 X3.4764 Y9.6181
G01 X3.5121 Y9.5961
G01 X3.5483 Y9.5750
G01 X3.5850 Y9.5549
G01 X3.6222 Y9.5356
G01 X3.6598 Y9.5172
G01 X3.6979 Y9.4997
G01 X3.7364 Y9.4832
G01 X3.7753 Y9.4677
G01 X3.8145 Y9.4531
G01 X3.8542 Y9.4395
G01 X3.8941 Y9.4268
G01 X3.9343 Y9.4152
G01 X3.9748 Y9.4045
G01 X4.0156 Y9.3948
G01 X4.0565 Y9.3861
G01 X4.0977 Y9.3785
G01 X4.1391 Y9.3718
G01 X4.1906 Y9.3651
G01 X4.3230 Y9.1921
G01 X4.2978 Y9.1930
G01 X4.2520 Y9.1959
G01 X4.2063 Y9.1998
G01 X4.1607 Y9.2048
G01 X4.1152 Y9.2110
G01 X4.0699 Y9.2183
G01 X4.0248 Y9.2267
G01 X3.9800 Y9.2362
G01 X3.9353 Y9.2468
G01 X3.9125 Y9.2528
G00 Z2.0000
G00 X4.0913 Y9.0502
G01 F30.00
G01 Z-0.0601
G01 F60.00
G01 X4.1408 Y9.0435
G01 X4.1904 Y9.0380
G01 X4.2400 Y9.0338
G01 X4.2898 Y9.0307
G01 X4.3396 Y9.0289
G01 X4.3895 Y9.0283
G01 X4.4094 Y9.0285
G00 Z2.0000
G00 X4.0585 Y9.5518
G01 F30.00
G01 Z-0.0601
G01 F60.00
G01 X4.0143 Y9.5621
G01 X3.9777 Y9.5718
G01 X3.9413 Y9.5824
G01 X3.9051 Y9.5938
G01 X3.8693 Y9.6061
G01 X3.8338 Y9.6193
G01 X3.7986 Y9.6334
G01 X3.7638 Y9.6483
G01 X3.7293 Y9.6641
G01 X3.6952 Y9.6807
G01 X3.6616 Y9.6982
G01 X3.6284 Y9.7165
G01 X3.5957 Y9.7356
G01 X3.5634 Y9.7554
G01 X3.5316 Y9.7761
G01 X3.5004 Y9.7975
G01 X3.4697 Y9.8197
G01 X3.4395 Y9.8427
G01 X3.4099 Y9.8664
G01 X3.3809 Y9.8908
G01 X3.3525 Y9.9159
G01 X3.3248 Y9.9417
G01 X3.2976 Y9.9681
G01 X3.2712 Y9.9953
G01 X3.2454 Y10.0230
G01 X3.2203 Y10.0514
G01 X3.1959 Y10.0804
G01 X3.1851 Y10.0939
G00 Z2.0000
G00 X3.4020 Y10.0939
G01 F30.00
G01 Z-0.0601
G01 F60.00
G01 X3.4126 Y10.0831
G01 X3.4368 Y10.0594
G01 X3.4617 Y10.0363
G01 X3.4871 Y10.0138
G01 X3.5130 Y9.9920
G01 X3.5395 Y9.9708
G01 X3.5665 Y9.9503
G01 X3.5940 Y9.9304
G01 X3.6219 Y9.9112
G01 X3.6504 Y9.8928
G01 X3.6792 Y9.8750
G01 X3.7085 Y9.8579
G01 X3.7382 Y9.8415
G01 X3.7683 Y9.8259
G01 X3.7988 Y9.8111
G01 X3.8296 Y9.7969
G01 X3.8608 Y9.7836
G01 X3.8923 Y9.7710
G01 X3.9241 Y9.7592
G01 X3.9561 Y9.7481
G01 X3.9884 Y9.7379
G01 X4.0210 Y9.7285
G01 X4.0538 Y9.7198
G01 X4.0842 Y9.7126
G00 Z2.0000
G00 X4.2829 Y9.8457
G01 F30.00
G01 Z-0.0601
G01 F60.00
G01 X4.2403 Y9.8501
G01 X4.2106 Y9.8541
G01 X4.1811 Y9.8589
G01 X4.1517 Y9.8644
G01 X4.1224 Y9.8706
G01 X4.0933 Y9.8775
G01 X4.0644 Y9.8851
G01 X4.0356 Y9.8934
G01 X4.0071 Y9.9025
G01 X3.9788 Y9.9122
G01 X3.9508 Y9.9226
G01 X3.9230 Y9.9337
G01 X3.8955 Y9.9455
G01 X3.8683 Y9.9580
G01 X3.8414 Y9.9711
G01 X3.8148 Y9.9849
G01 X3.7886 Y9.9993
G01 X3.7628 Y10.0144
G01 X3.7373 Y10.0301
G01 X3.7122 Y10.0464
G01 X3.6876 Y10.0633
G01 X3.6633 Y10.0808
G01 X3.6462 Y10.0939
G00 Z2.0000
G00 X3.9619 Y10.0939
G01 F30.00
G01 Z-0.0601
G01 F60.00
G01 X3.9852 Y10.0839
G01 X4.0093 Y10.0743
G01 X4.0336 Y10.0652
G01 X4.0581 Y10.0568
G01 X4.0828 Y10.0490
G01 X4.1077 Y10.0418
G01 X4.1328 Y10.0352
G01 X4.1580 Y10.0292
G01 X4.1834 Y10.0238
G01 X4.2089 Y10.0190
G01 X4.2345 Y10.0149
G01 X4.2602 Y10.0114
G01 X4.2859 Y10.0086
G01 X4.3118 Y10.0064
G01 X4.3377 Y10.0048
G01 X4.3636 Y10.0038
G01 X4.3895 Y10.0035
G01 X4.4154 Y10.0038
G01 X4.4413 Y10.0048
G01 X4.4696 Y10.0066
G01 X4.5244 Y10.1763
G01 X4.4989 Y10.1728
G01 X4.4771 Y10.1703
G01 X4.4553 Y10.1685
G01 X4.4334 Y10.1671
G01 X4.4114 Y10.1663
G01 X4.3895 Y10.1660
G01 X4.3676 Y10.1663
G01 X4.3456 Y10.1671
G01 X4.3237 Y10.1685
G01 X4.3019 Y10.1703
G01 X4.2801 Y10.1728
G01 X4.2455 Y10.1778
G00 Z2.0000
G00 X4.2501 Y10.3420
G01 F30.00
G01 Z-0.0601
G01 F60.00
G01 X4.2822 Y10.3365
G01 X4.3178 Y10.3321
G01 X4.3536 Y10.3295
G01 X4.3895 Y10.3286
G01 X4.4254 Y10.3295
G01 X4.4612 Y10.3321
G01 X4.4968 Y10.3365
G01 X4.5289 Y10.3420
G01 X4.5289 Y10.5085
G01 X4.5005 Y10.5020
G01 X4.4730 Y10.4973
G01 X4.4591 Y10.4954
G01 X4.4453 Y10.4938
G01 X4.4174 Y10.4918
G01 X4.3895 Y10.4911
G01 X4.3616 Y10.4918
G01 X4.3337 Y10.4938
G01 X4.3199 Y10.4954
G01 X4.3060 Y10.4973
G01 X4.2785 Y10.5020
G01 X4.2501 Y10.5085
G00 Z2.0000
G00 X4.2501 Y10.6783
G01 F30.00
G01 Z-0.0601
G01 F60.00
G01 X4.2620 Y10.6742
G01 X4.2811 Y10.6684
G01 X4.3005 Y10.6635
G01 X4.3200 Y10.6596
G01 X4.3398 Y10.6567
G01 X4.3596 Y10.6548
G01 X4.3895 Y10.6537
G01 X4.4194 Y10.6548
G01 X4.4392 Y10.6567
G01 X4.4590 Y10.6596
G01 X4.4785 Y10.6635
G01 X4.4979 Y10.6684
G01 X4.5170 Y10.6742
G01 X4.5289 Y10.6783
G01 X4.5289 Y10.8600
G01 X4.5199 Y10.8540
G01 X4.5097 Y10.8479
G01 X4.4937 Y10.8396
G01 X4.4773 Y10.8325
G01 X4.4603 Y10.8267
G01 X4.4429 Y10.8221
G01 X4.4253 Y10.8188
G01 X4.4074 Y10.8169
G01 X4.3895 Y10.8162
G01 X4.3716 Y10.8169
G01 X4.3537 Y10.8188
G01 X4.3361 Y10.8221
G01 X4.3187 Y10.8267
G01 X4.3018 Y10.8325
G01 X4.2853 Y10.8396
G01 X4.2693 Y10.8479
G01 X4.2591 Y10.8540
G01 X4.2501 Y10.8600
G01 X4.4708 Y11.0600
G01 X4.4699 Y11.0481
G01 X4.4673 Y11.0364
G01 X4.4653 Y11.0308
G01 X4.4621 Y11.0235
G01 X4.4559 Y11.0132
G01 X4.4523 Y11.0084
G01 X4.4470 Y11.0025
G01 X4.4411 Y10.9972
G01 X4.4347 Y10.9924
G01 X4.4296 Y10.9893
G01 X4.4224 Y10.9857
G01 X4.4169 Y10.9835
G01 X4.4093 Y10.9812
G01 X4.4014 Y10.9796
G01 X4.3955 Y10.9790
G01 X4.3895 Y10.9787
G01 X4.3855 Y10.9788
G01 X4.3835 Y10.9790
G01 X4.3815 Y10.9791
G01 X4.3736 Y10.9803
G01 X4.3659 Y10.9822
G01 X4.3603 Y10.9842
G01 X4.3530 Y10.9874
G01 X4.3460 Y10.9913
G01 X4.3411 Y10.9947
G01 X4.3349 Y10.9998
G01 X4.3293 Y11.0054
G01 X4.3242 Y11.0116
G01 X4.3208 Y11.0165
G01 X4.3169 Y11.0235
G01 X4.3144 Y11.0289
G01 X4.3117 Y11.0364
G01 X4.3102 Y11.0422
G01 X4.3088 Y11.0501
G01 X4.3083 Y11.0560
G01 X4.3083 Y11.0620
G01 X4.3088 Y11.0699
G01 X4.3098 Y11.0759
G01 X4.3117 Y11.0836
G01 X4.3137 Y11.0892
G01 X4.3169 Y11.0965
G01 X4.3208 Y11.1035
G01 X4.3254 Y11.1100
G01 X4.3306 Y11.1160
G01 X4.3349 Y11.1202
G01 X4.3395 Y11.1241
G01 X4.3460 Y11.1287
G01 X4.3530 Y11.1326
G01 X4.3603 Y11.1358
G01 X4.3678 Y11.1383
G01 X4.3736 Y11.1397
G01 X4.3815 Y11.1409
G01 X4.3875 Y11.1412
G01 X4.3935 Y11.1412
G01 X4.4014 Y11.1404
G01 X4.4093 Y11.1388
G01 X4.4150 Y11.1372
G01 X4.4224 Y11.1343
G01 X4.4296 Y11.1307
G01 X4.4347 Y11.1276
G01 X4.4411 Y11.1228
G01 X4.4470 Y11.1175
G01 X4.4510 Y11.1131
G01 X4.4559 Y11.1068
G01 X4.4602 Y11.1001
G01 X4.4638 Y11.0929
G01 X4.4660 Y11.0874
G01 X4.4683 Y11.0797
G01 X4.4696 Y11.0739
G01 X4.4704 Y11.0680
G01 X4.4708 Y11.0600
G01 X4.5289 Y11.2600
G01 X4.5199 Y11.2660
G01 X4.5097 Y11.2721
G01 X4.4937 Y11.2804
G01 X4.4773 Y11.2875
G01 X4.4603 Y11.2933
G01 X4.4429 Y11.2979
G01 X4.4253 Y11.3012
G01 X4.4074 Y11.3031
G01 X4.3895 Y11.3038
G01 X4.3716 Y11.3031
G01 X4.3537 Y11.3012
G01 X4.3361 Y11.2979
G01 X4.3187 Y11.2933
G01 X4.3018 Y11.2875
G01 X4.2853 Y11.2804
G01 X4.2693 Y11.2721
G01 X4.2591 Y11.2660
G01 X4.2501 Y11.2600
G01 X4.2501 Y11.4417
G01 X4.2620 Y11.4458
G01 X4.2811 Y11.4516
G01 X4.3005 Y11.4565
G01 X4.3200 Y11.4604
G01 X4.3398 Y11.4633
G01 X4.3596 Y11.4652
G01 X4.3895 Y11.4664
G01 X4.4194 Y11.4652
G01 X4.4392 Y11.4633
G01 X4.4590 Y11.4604
G01 X4.4785 Y11.4565
G01 X4.4979 Y11.4516
G01 X4.5170 Y11.4458
G01 X4.5289 Y11.4417
G01 X4.5289 Y11.6115
G01 X4.5005 Y11.6180
G01 X4.4868 Y11.6205
G01 X4.4591 Y11.6246
G01 X4.4453 Y11.6262
G01 X4.4174 Y11.6282
G01 X4.3895 Y11.6289
G01 X4.3616 Y11.6282
G01 X4.3337 Y11.6262
G01 X4.3199 Y11.6246
G01 X4.2922 Y11.6205
G01 X4.2785 Y11.6180
G01 X4.2501 Y11.6115
G00 Z2.0000
G00 X4.2501 Y11.7780
G01 F30.00
G01 Z-0.0601
G01 F60.00
G01 X4.2822 Y11.7835
G01 X4.3178 Y11.7879
G01 X4.3536 Y11.7905
G01 X4.3895 Y11.7914
G01 X4.4254 Y11.7905
G01 X4.4612 Y11.7879
G01 X4.4968 Y11.7835
G01 X4.5289 Y11.7780
G01 X4.5244 Y11.9437
G01 X4.4989 Y11.9472
G01 X4.4771 Y11.9497
G01 X4.4553 Y11.9515
G01 X4.4334 Y11.9529
G01 X4.4114 Y11.9537
G01 X4.3895 Y11.9540
G01 X4.3676 Y11.9537
G01 X4.3456 Y11.9529
G01 X4.3237 Y11.9515
G01 X4.3019 Y11.9497
G01 X4.2801 Y11.9472
G01 X4.2455 Y11.9422
G00 Z2.0000
G00 X4.4696 Y12.1134
G01 F30.00
G01 Z-0.0601
G01 F60.00
G01 X4.4413 Y12.1152
G01 X4.4154 Y12.1162
G01 X4.3895 Y12.1165
G01 X4.3636 Y12.1162
G01 X4.3377 Y12.1152
G01 X4.3118 Y12.1136
G01 X4.2859 Y12.1114
G01 X4.2602 Y12.1086
G01 X4.2345 Y12.1051
G01 X4.2089 Y12.1010
G01 X4.1834 Y12.0962
G01 X4.1580 Y12.0908
G01 X4.1328 Y12.0848
G01 X4.1077 Y12.0782
G01 X4.0828 Y12.0710
G01 X4.0581 Y12.0632
G01 X4.0336 Y12.0548
G01 X4.0093 Y12.0457
G01 X3.9852 Y12.0361
G01 X3.9619 Y12.0261
G01 X3.8003 Y12.1271
G01 X3.8148 Y12.1351
G01 X3.8414 Y12.1489
G01 X3.8683 Y12.1620
G01 X3.8955 Y12.1745
G01 X3.9230 Y12.1863
G01 X3.9508 Y12.1974
G01 X3.9788 Y12.2078
G01 X4.0071 Y12.2175
G01 X4.0356 Y12.2266
G01 X4.0644 Y12.2349
G01 X4.0933 Y12.2425
G01 X4.1224 Y12.2494
G01 X4.1517 Y12.2556
G01 X4.1811 Y12.2611
G01 X4.2106 Y12.2659
G01 X4.2403 Y12.2699
G01 X4.2700 Y12.2732
G01 X4.2998 Y12.2757
G01 X4.3356 Y12.2778
G00 Z2.0000
G00 X4.3144 Y12.4395
G01 F30.00
G01 Z-0.0601
G01 F60.00
G01 X4.2879 Y12.4378
G01 X4.2541 Y12.4349
G01 X4.2204 Y12.4312
G01 X4.1868 Y12.4266
G01 X4.1533 Y12.4212
G01 X4.1200 Y12.4150
G01 X4.0868 Y12.4080
G01 X4.0538 Y12.4002
G01 X4.0210 Y12.3915
G01 X3.9884 Y12.3821
G01 X3.9561 Y12.3719
G01 X3.9241 Y12.3608
G01 X3.8923 Y12.3490
G01 X3.8608 Y12.3364
G01 X3.8296 Y12.3231
G01 X3.8003 Y12.3096
G01 X3.9786 Y12.5484
G01 X4.0143 Y12.5579
G01 X4.0512 Y12.5666
G01 X4.0883 Y12.5745
G01 X4.1255 Y12.5814
G01 X4.1629 Y12.5874
G01 X4.2005 Y12.5925
G01 X4.2382 Y12.5967
G01 X4.2759 Y12.5999
G01 X4.3137 Y12.6023
G01 X4.3516 Y12.6037
G01 X4.3895 Y12.6041
G01 X4.4235 Y12.6037
G01 X4.1844 Y12.7543
G01 X4.2222 Y12.7585
G01 X4.2640 Y12.7620
G01 X4.3058 Y12.7646
G01 X4.3476 Y12.7662
G01 X4.3895 Y12.7667
G01 X4.4314 Y12.7662
G01 X4.4732 Y12.7646
G01 X4.5151 Y12.7620
G01 X4.5568 Y12.7585
G01 X4.5984 Y12.7538
G01 X4.6399 Y12.7482
G01 X4.6864 Y12.7406
G01 X4.8894 Y12.8611
G01 X4.8437 Y12.8732
G01 X4.7991 Y12.8838
G01 X4.7542 Y12.8933
G01 X4.7091 Y12.9017
G01 X4.6638 Y12.9090
G01 X4.6183 Y12.9152
G01 X4.5727 Y12.9202
G01 X4.5270 Y12.9241
G01 X4.4812 Y12.9270
G01 X4.4354 Y12.9286
G01 X4.3895 Y12.9292
G01 X4.3590 Y12.9288
G00 Z2.0000
G00 X4.6995 Y13.0678
G01 F30.00
G01 Z-0.0601
G01 F60.00
G01 X4.7369 Y13.0618
G01 X4.7859 Y13.0527
G01 X4.8347 Y13.0424
G01 X4.8832 Y13.0309
G01 X4.9314 Y13.0182
G01 X4.9793 Y13.0043
G01 X5.0225 Y12.9906
G01 X5.1184 Y13.1296
G01 X5.0778 Y13.1435
G01 X5.0265 Y13.1598
G01 X4.9747 Y13.1748
G01 X4.9227 Y13.1885
G01 X4.8703 Y13.2010
G01 X4.8377 Y13.2079
G00 Z2.0000
G00 X4.9196 Y13.3563
G01 F30.00
G01 Z-0.0601
G01 F60.00
G01 X4.9622 Y13.3462
G01 X5.0181 Y13.3315
G01 X5.0737 Y13.3153
G01 X5.1288 Y13.2979
G01 X5.1861 Y13.2781
G01 X5.2276 Y13.4358
G01 X5.1798 Y13.4522
G01 X5.1208 Y13.4709
G01 X5.0615 Y13.4881
G01 X5.0017 Y13.5039
G01 X4.9599 Y13.5138
G00 Z2.0000
G00 X4.9608 Y13.6802
G01 F30.00
G01 Z-0.0601
G01 F60.00
G01 X4.9771 Y13.6767
G01 X5.0412 Y13.6615
G01 X5.1048 Y13.6448
G01 X5.1680 Y13.6264
G01 X5.2418 Y13.6027
G01 X5.2247 Y13.7790
G01 X5.1482 Y13.8014
G01 X5.0806 Y13.8192
G01 X5.0127 Y13.8353
G01 X4.9444 Y13.8498
G01 X4.9153 Y13.8552
G00 Z2.0000
G00 X4.8006 Y14.0385
G01 F30.00
G01 Z-0.0601
G01 F60.00
G01 X4.8307 Y14.0344
G01 X4.9036 Y14.0227
G01 X4.9761 Y14.0092
G01 X5.0483 Y13.9939
G01 X5.1201 Y13.9769
G01 X5.1686 Y13.9641
G01 X5.0602 Y14.1575
G01 X5.0078 Y14.1686
G01 X4.9314 Y14.1829
G01 X4.8546 Y14.1952
G01 X4.7775 Y14.2057
G01 X4.7002 Y14.2143
G01 X4.6227 Y14.2209
G01 X4.5450 Y14.2257
G01 X4.5244 Y14.2265
G01 X4.8601 Y14.3585
G01 X4.7974 Y14.3670
G01 X4.7161 Y14.3760
G01 X4.6346 Y14.3830
G01 X4.5530 Y14.3881
G01 X4.4713 Y14.3911
G01 X4.3895 Y14.3921
G01 X4.3077 Y14.3911
G01 X4.2260 Y14.3881
G01 X4.1444 Y14.3830
G01 X4.0629 Y14.3760
G01 X3.9816 Y14.3670
G01 X3.9006 Y14.3560
G01 X3.8198 Y14.3430
G01 X3.7394 Y14.3280
G01 X3.6844 Y14.3164
G01 X3.5033 Y14.1029
G01 X3.5442 Y14.1147
G01 X3.6194 Y14.1345
G01 X3.6951 Y14.1525
G01 X3.7712 Y14.1686
G01 X3.8476 Y14.1829
G01 X3.9244 Y14.1952
G01 X4.0015 Y14.2057
G01 X4.0312 Y14.2090
G00 Z2.0000
G00 X3.7698 Y14.0022
G01 F30.00
G01 Z-0.0601
G01 F60.00
G01 X3.7307 Y13.9939
G01 X3.6589 Y13.9769
G01 X3.5875 Y13.9581
G01 X3.5166 Y13.9375
G01 X3.4463 Y13.9152
G01 X3.4053 Y13.9011
G01 X3.6689 Y13.8114
G01 X3.6309 Y13.8014
G01 X3.5638 Y13.7820
G01 X3.4973 Y13.7609
G01 X3.4312 Y13.7382
G01 X3.3658 Y13.7139
G01 X3.3010 Y13.6879
G01 X3.2434 Y13.6633
G01 X3.3025 Y13.3327
G01 X3.2568 Y13.3104
G01 X3.2019 Y13.2819
G01 X3.1477 Y13.2521
G01 X3.0943 Y13.2209
G01 X3.0416 Y13.1885
G01 X2.9898 Y13.1548
G01 X2.9388 Y13.1198
G01 X2.8887 Y13.0836
G01 X2.8395 Y13.0461
G01 X2.7912 Y13.0075
G01 X2.7439 Y12.9677
G01 X2.6976 Y12.9267
G01 X2.6523 Y12.8846
G01 X2.6080 Y12.8415
G01 X2.5649 Y12.7972
G01 X2.5228 Y12.7519
G01 X2.5026 Y12.7291
G00 Z2.0000
G00 X2.4796 Y12.4406
G01 F30.00
G01 Z-0.0601
G01 F60.00
G01 X2.4965 Y12.4640
G01 X2.5315 Y12.5100
G01 X2.5677 Y12.5552
G01 X2.6049 Y12.5994
G01 X2.6432 Y12.6428
G01 X2.6826 Y12.6851
G01 X2.7230 Y12.7265
G01 X2.7644 Y12.7669
G01 X2.8068 Y12.8063
G01 X2.8271 Y12.8242
G01 X2.8006 Y13.2204
G01 X2.8452 Y13.2527
G01 X2.8995 Y13.2899
G01 X2.9547 Y13.3258
G01 X3.0107 Y13.3604
G01 X3.0676 Y13.3935
G01 X3.1253 Y13.4252
G01 X3.1837 Y13.4555
G01 X3.2428 Y13.4844
G01 X3.3027 Y13.5118
G01 X3.3632 Y13.5378
G01 X3.4243 Y13.5622
G01 X3.4860 Y13.5851
G01 X3.5482 Y13.6065
G01 X3.5894 Y13.6196
G00 Z2.0000
G00 X3.5380 Y16.7479
G01 F30.00
G01 Z-0.0601
G01 F60.00
G01 X3.5071 Y16.4691
G01 X3.6706 Y16.4691
G01 X3.7016 Y16.7479
G00 Z2.0000
G00 X3.3745 Y16.7479
G01 F30.00
G01 Z-0.0601
G01 F60.00
G01 X3.3436 Y16.4691
G01 X3.1809 Y16.4767
G01 X3.2116 Y16.7531
G00 Z2.0000
G00 X3.1299 Y16.8640
G01 F30.00
G01 Z-0.0601
G01 F60.00
G01 X3.1305 Y16.8526
G01 X3.1321 Y16.8414
G01 X3.1349 Y16.8303
G01 X3.1387 Y16.8196
G01 X3.1436 Y16.8093
G01 X3.1495 Y16.7995
G01 X3.1563 Y16.7903
G01 X3.1639 Y16.7819
G01 X3.1723 Y16.7743
G01 X3.1815 Y16.7675
G01 X3.1913 Y16.7616
G01 X3.2016 Y16.7567
G01 X3.2123 Y16.7529
G01 X3.2234 Y16.7501
G01 X3.2346 Y16.7485
G01 X3.2460 Y16.7479
G01 X4.8517 Y16.7480
G01 X4.8630 Y16.7492
G01 X4.8742 Y16.7514
G01 X4.8851 Y16.7547
G01 X4.8930 Y16.7579
G01 X4.9007 Y16.7616
G01 X4.9105 Y16.7675
G01 X4.9197 Y16.7743
G01 X4.9261 Y16.7799
G01 X4.9339 Y16.7882
G01 X4.9393 Y16.7948
G01 X4.9456 Y16.8043
G01 X4.9510 Y16.8144
G01 X4.9543 Y16.8222
G01 X4.9579 Y16.8330
G01 X4.9599 Y16.8414
G01 X4.9615 Y16.8526
G01 X4.9621 Y16.8640
G01 X4.9621 Y18.4668
G01 X4.9612 Y18.4782
G01 X4.9593 Y18.4894
G01 X4.9562 Y18.5004
G01 X4.9521 Y18.5110
G01 X4.9470 Y18.5212
G01 X4.9409 Y18.5309
G01 X4.9339 Y18.5398
G01 X4.9281 Y18.5461
G01 X4.9197 Y18.5537
G01 X4.9105 Y18.5605
G01 X4.9007 Y18.5664
G01 X4.8904 Y18.5713
G01 X4.8797 Y18.5751
G01 X4.8686 Y18.5779
G01 X4.8602 Y18.5792
G01 X4.8488 Y18.5801
G01 X3.2460 Y18.5801
G01 X3.2375 Y18.5798
G01 X3.2290 Y18.5788
G01 X3.2178 Y18.5766
G01 X3.2096 Y18.5742
G01 X3.1990 Y18.5701
G01 X3.1913 Y18.5664
G01 X3.1815 Y18.5605
G01 X3.1723 Y18.5537
G01 X3.1639 Y18.5461
G01 X3.1581 Y18.5398
G01 X3.1511 Y18.5309
G01 X3.1464 Y18.5237
G01 X3.1410 Y18.5136
G01 X3.1377 Y18.5058
G01 X3.1341 Y18.4950
G01 X3.1316 Y18.4838
G01 X3.1302 Y18.4725
G01 X3.1299 Y18.4640
G01 X3.1299 Y16.8640
G01 X2.8807 Y16.7185
G01 X2.9115 Y16.9966
G01 X3.0992 Y18.3782
G01 X3.3206 Y19.7547
G01 X3.3704 Y20.0220
G01 X3.5357 Y20.0220
G01 X3.4808 Y19.7269
G01 X3.2963 Y18.5801
G00 Z2.0000
G00 X3.4609 Y18.5801
G01 F30.00
G01 Z-0.0601
G01 F60.00
G01 X3.6409 Y19.6991
G01 X3.7010 Y20.0220
G01 X3.8664 Y20.0220
G01 X3.8011 Y19.6713
G01 X3.6255 Y18.5801
G00 Z2.0000
G00 X3.7901 Y18.5801
G01 F30.00
G01 Z-0.0601
G01 F60.00
G01 X3.9612 Y19.6435
G01 X4.0317 Y20.0220
G01 X4.1970 Y20.0220
G01 X4.1214 Y19.6157
G01 X3.9547 Y18.5801
G01 X4.1194 Y18.5801
G01 X4.2815 Y19.5880
G01 X4.3623 Y20.0220
G01 X4.5277 Y20.0220
G01 X4.4417 Y19.5602
G01 X4.2840 Y18.5801
G01 X4.4486 Y18.5801
G01 X4.6018 Y19.5324
G01 X4.6930 Y20.0220
G01 X4.8583 Y20.0220
G01 X4.7620 Y19.5046
G01 X4.6132 Y18.5801
G01 X4.7778 Y18.5801
G01 X4.9221 Y19.4768
G01 X5.0236 Y20.0220
G01 X5.1889 Y20.0220
G01 X5.0823 Y19.4490
G01 X4.9356 Y18.5378
G00 Z2.0000
G00 X4.9621 Y17.6029
G01 F30.00
G01 Z-0.0601
G01 F60.00
G01 X5.0285 Y18.0920
G01 X5.2424 Y19.4212
G01 X5.3543 Y20.0220
G01 X3.2051 Y20.0220
G01 X3.1605 Y19.7825
G01 X3.0677 Y19.2057
G00 Z2.0000
G00 X2.9109 Y19.2542
G01 F30.00
G01 Z-0.0601
G01 F60.00
G01 X3.0004 Y19.8103
G01 X3.0398 Y20.0220
G01 X2.8744 Y20.0220
G01 X2.8402 Y19.8381
G01 X2.7463 Y19.2542
G00 Z2.0000
G00 X2.5816 Y19.2542
G01 F30.00
G01 Z-0.0601
G01 F60.00
G01 X2.6801 Y19.8658
G01 X2.7091 Y20.0220
G01 X2.5438 Y20.0220
G01 X2.5199 Y19.8936
G01 X2.4170 Y19.2542
G00 Z2.0000
G00 X2.2524 Y19.2542
G01 F30.00
G01 Z-0.0601
G01 F60.00
G01 X2.3598 Y19.9214
G01 X2.3785 Y20.0220
G01 X2.2132 Y20.0220
G01 X2.1996 Y19.9492
G01 X2.0878 Y19.2542
G00 Z2.0000
G00 X1.9232 Y19.2542
G01 F30.00
G01 Z-0.0601
G01 F60.00
G01 X2.0395 Y19.9770
G01 X2.0478 Y20.0220
G01 X1.8825 Y20.0220
G01 X1.8793 Y20.0048
G01 X1.7585 Y19.2542
G00 Z2.0000
G00 X1.5939 Y19.2542
G01 F30.00
G01 Z-0.0601
G01 F60.00
G01 X1.7175 Y20.0220
G01 X1.5529 Y20.0220
G01 X1.4293 Y19.2542
G00 Z2.0000
G00 X1.2647 Y19.2542
G01 F30.00
G01 Z-0.0601
G01 F60.00
G01 X1.3882 Y20.0220
G01 X1.2236 Y20.0220
G01 X1.1001 Y19.2542
G00 Z2.0000
G00 X0.9355 Y19.2542
G01 F30.00
G01 Z-0.0601
G01 F60.00
G01 X1.0590 Y20.0220
G01 X0.8943 Y20.0217
G01 X0.7612 Y19.1941
G00 Z2.0000
G00 X0.6778 Y18.6651
G01 F30.00
G01 Z-0.0601
G01 F60.00
G01 X0.4918 Y17.2951
G01 X0.3315 Y15.8498
G01 X0.2067 Y14.4011
G01 X0.1176 Y12.9498
G01 X0.0640 Y11.4967
G01 X0.0462 Y10.0427
G01 X0.0640 Y8.5888
G01 X0.1176 Y7.1357
G01 X0.2067 Y5.6843
G01 X0.3315 Y4.2356
G01 X0.4918 Y2.7904
G01 X0.6778 Y1.4203
G01 X-0.0900 Y1.0657
G01 X-0.0421 Y0.7683
G00 Z2.0000
G00 X0.6786 Y1.0588
G01 F30.00
G01 Z-0.0601
G01 F60.00
G01 X0.6793 Y1.0503
G01 X0.6820 Y1.0324
G01 X0.6868 Y1.0119
G01 X0.6901 Y1.0010
G01 X0.6953 Y0.9866
G01 X0.6987 Y0.9787
G01 X0.7065 Y0.9624
G01 X0.7188 Y0.9419
G01 X0.7330 Y0.9227
G01 X0.7491 Y0.9051
G01 X0.7667 Y0.8890
G01 X0.7859 Y0.8748
G01 X0.8064 Y0.8625
G01 X0.8227 Y0.8547
G01 X0.8306 Y0.8513
G01 X0.8450 Y0.8461
G01 X0.8559 Y0.8428
G01 X0.8764 Y0.8380
G01 X0.8943 Y0.8353
G01 X0.9028 Y0.8346
G01 X0.9210 Y0.8338
G01 X3.5510 Y0.8339
G01 X3.5719 Y0.8350
G01 X3.5899 Y0.8375
G01 X3.6011 Y0.8398
G01 X3.6214 Y0.8452
G01 X3.6412 Y0.8523
G01 X3.6602 Y0.8612
G01 X3.6784 Y0.8718
G01 X3.6879 Y0.8781
G01 X3.7024 Y0.8890
G01 X3.7201 Y0.9051
G01 X3.7361 Y0.9227
G01 X3.7503 Y0.9419
G01 X3.7626 Y0.9624
G01 X3.7728 Y0.9839
G01 X3.7808 Y1.0064
G01 X3.7854 Y1.0240
G01 X3.7871 Y1.0324
G01 X3.7894 Y1.0475
G01 X3.7905 Y1.0588
G01 X3.7912 Y1.0798
G01 X3.7898 Y1.1037
G01 X3.7866 Y1.1244
G01 X3.7808 Y1.1476
G01 X3.7728 Y1.1701
G01 X3.7639 Y1.1891
G01 X3.7533 Y1.2073
G01 X3.7487 Y1.2144
G01 X3.7361 Y1.2313
G01 X3.7240 Y1.2448
G01 X3.7180 Y1.2509
G01 X3.7024 Y1.2650
G01 X3.6879 Y1.2759
G01 X3.6808 Y1.2807
G01 X3.6627 Y1.2915
G01 X3.6438 Y1.3005
G01 X3.4815 Y1.3678
G01 X3.2862 Y1.4982
G01 X3.1202 Y1.6642
G01 X2.9898 Y1.8595
G01 X2.9000 Y2.0764
G01 X2.8542 Y2.3066
G01 X2.8542 Y2.5414
G01 X2.9000 Y2.7716
G01 X2.9898 Y2.9885
G01 X3.1202 Y3.1838
G01 X3.2862 Y3.3498
G01 X3.4815 Y3.4802
G01 X3.6984 Y3.5700
G01 X3.9286 Y3.6158
G01 X4.1634 Y3.6158
G01 X4.3936 Y3.5700
G01 X4.6105 Y3.4802
G01 X4.8058 Y3.3498
G01 X4.9718 Y3.1838
G01 X5.1147 Y2.9698
G01 X5.1272 Y2.9528
G01 X5.1327 Y2.9463
G01 X5.1450 Y2.9329
G01 X5.1627 Y2.9169
G01 X5.1818 Y2.9027
G01 X5.2023 Y2.8904
G01 X5.2239 Y2.8802
G01 X5.2463 Y2.8722
G01 X5.2695 Y2.8664
G01 X5.2874 Y2.8636
G01 X5.2959 Y2.8626
G01 X5.3112 Y2.8618
G01 X5.3226 Y2.8618
G01 X5.3436 Y2.8632
G01 X5.3671 Y2.8670
G01 X5.3875 Y2.8722
G01 X5.4100 Y2.8802
G01 X5.4315 Y2.8904
G01 X5.4472 Y2.8996
G01 X5.4544 Y2.9043
G01 X5.4690 Y2.9151
G01 X5.4868 Y2.9309
G01 X5.5030 Y2.9484
G01 X5.5119 Y2.9598
G01 X5.5234 Y2.9632
G01 X5.7322 Y2.7543
G01 X5.7093 Y2.6899
G01 X5.6875 Y2.6027
G01 X5.6743 Y2.5138
G01 X5.6699 Y2.4240
G01 X5.6743 Y2.3342
G01 X5.6875 Y2.2453
G01 X5.7093 Y2.1581
G01 X5.7322 Y2.0937
G01 X5.5234 Y1.8848
G01 X5.5179 Y1.8865
G01 X5.5117 Y1.8950
G01 X5.4998 Y1.9093
G01 X5.4827 Y1.9266
G01 X5.4662 Y1.9403
G01 X5.4567 Y1.9472
G01 X5.4386 Y1.9586
G01 X5.4168 Y1.9695
G01 X5.3968 Y1.9773
G01 X5.3790 Y1.9825
G01 X5.3705 Y1.9846
G01 X5.3493 Y1.9882
G01 X5.3250 Y1.9901
G01 X5.3006 Y1.9895
G01 X5.2764 Y1.9864
G01 X5.2527 Y1.9810
G01 X5.2296 Y1.9732
G01 X5.2074 Y1.9631
G01 X5.1888 Y1.9524
G01 X5.1688 Y1.9384
G01 X5.1526 Y1.9244
G01 X5.1443 Y1.9162
G01 X5.1337 Y1.9047
G01 X5.1282 Y1.8979
G01 X5.1172 Y1.8829
G01 X5.1090 Y1.8696
G01 X4.9718 Y1.6642
G01 X4.8058 Y1.4982
G01 X4.6105 Y1.3678
G01 X4.4508 Y1.3017
G01 X4.4318 Y1.2928
G01 X4.4136 Y1.2822
G01 X4.4064 Y1.2776
G01 X4.3896 Y1.2650
G01 X4.3761 Y1.2529
G01 X4.3700 Y1.2469
G01 X4.3578 Y1.2334
G01 X4.3524 Y1.2268
G01 X4.3417 Y1.2121
G01 X4.3322 Y1.1966
G01 X4.3281 Y1.1891
G01 X4.3204 Y1.1727
G01 X4.3172 Y1.1647
G01 X4.3121 Y1.1503
G01 X4.3097 Y1.1421
G01 X4.3054 Y1.1244
G01 X4.3026 Y1.1065
G01 X4.3017 Y1.0980
G01 X4.3008 Y1.0798
G01 X4.3009 Y1.0713
G01 X4.3019 Y1.0532
G01 X4.3044 Y1.0352
G01 X4.3060 Y1.0268
G01 X4.3104 Y1.0092
G01 X4.3130 Y1.0010
G01 X4.3182 Y0.9866
G01 X4.3215 Y0.9787
G01 X4.3294 Y0.9624
G01 X4.3387 Y0.9467
G01 X4.3433 Y0.9396
G01 X4.3541 Y0.9250
G01 X4.3596 Y0.9184
G01 X4.3719 Y0.9051
G01 X4.3853 Y0.8928
G01 X4.3919 Y0.8873
G01 X4.4064 Y0.8764
G01 X4.4136 Y0.8718
G01 X4.4293 Y0.8625
G01 X4.4456 Y0.8547
G01 X4.4535 Y0.8513
G01 X4.4733 Y0.8443
G01 X4.4937 Y0.8391
G01 X4.5021 Y0.8375
G01 X4.5201 Y0.8350
G01 X4.5410 Y0.8339
G01 X6.0911 Y0.8338
G01 X6.1117 Y0.8347
G01 X6.1200 Y0.8356
G01 X6.1377 Y0.8384
G01 X6.1578 Y0.8432
G01 X6.1826 Y0.8517
G01 X6.2039 Y0.8616
G01 X6.2241 Y0.8735
G01 X6.2409 Y0.8855
G01 X6.2607 Y0.9028
G01 X6.2748 Y0.9178
G01 X6.2893 Y0.9362
G01 X6.3005 Y0.9536
G01 X6.3047 Y0.9609
G01 X6.3114 Y0.9743
G01 X6.3159 Y0.9846
G01 X6.3230 Y1.0040
G01 X6.3277 Y1.0212
G01 X6.3295 Y1.0294
G01 X6.3327 Y1.0498
G01 X6.3342 Y1.0732
G01 X6.3334 Y1.0967
G01 X6.3313 Y1.1144
G01 X6.3298 Y1.1227
G01 X6.3259 Y1.1401
G01 X6.3187 Y1.1624
G01 X6.3094 Y1.1840
G01 X6.2996 Y1.2021
G01 X6.2881 Y1.2193
G01 X6.2814 Y1.2282
G01 X6.2679 Y1.2439
G01 X6.2510 Y1.2601
G01 X6.2371 Y1.2714
G01 X6.2303 Y1.2763
G01 X6.2153 Y1.2860
G01 X6.1971 Y1.2958
G01 X6.1729 Y1.3060
G01 X6.0685 Y1.3433
G01 X6.0491 Y1.3537
G01 X6.0468 Y1.3614
G01 X6.2557 Y1.5702
G01 X6.3201 Y1.5473
G01 X6.4073 Y1.5255
G01 X6.4962 Y1.5123
G01 X6.5860 Y1.5079
G01 X6.6758 Y1.5123
G01 X6.7647 Y1.5255
G01 X6.8519 Y1.5473
G01 X6.9163 Y1.5702
G01 X7.1252 Y1.3614
G01 X7.1249 Y1.3605
G01 X6.9852 Y1.2942
G01 X6.9689 Y1.2853
G01 X6.9535 Y1.2751
G01 X6.9465 Y1.2700
G01 X6.9322 Y1.2582
G01 X6.9169 Y1.2432
G01 X6.9092 Y1.2345
G01 X6.8977 Y1.2200
G01 X6.8844 Y1.1997
G01 X6.8744 Y1.1808
G01 X6.8709 Y1.1728
G01 X6.8642 Y1.1556
G01 X6.8575 Y1.1322
G01 X6.8532 Y1.1083
G01 X6.8513 Y1.0840
G01 X6.8518 Y1.0598
G01 X6.8539 Y1.0414
G01 X6.8559 Y1.0299
G01 X6.8609 Y1.0091
G01 X6.8677 Y0.9889
G01 X6.8777 Y0.9667
G01 X6.8897 Y0.9456
G01 X6.9039 Y0.9258
G01 X6.9199 Y0.9076
G01 X6.9334 Y0.8949
G01 X6.9400 Y0.8892
G01 X6.9524 Y0.8797
G01 X6.9619 Y0.8731
G01 X6.9803 Y0.8622
G01 X7.0024 Y0.8519
G01 X7.0225 Y0.8447
G01 X7.0460 Y0.8387
G01 X7.0701 Y0.8351
G01 X7.0943 Y0.8338
G01 X8.6281 Y0.8338
G01 X8.6519 Y0.8350
G01 X8.6756 Y0.8385
G01 X8.6987 Y0.8443
G01 X8.7159 Y0.8503
G01 X8.7238 Y0.8535
G01 X8.7402 Y0.8612
G01 X8.7477 Y0.8654
G01 X8.7632 Y0.8748
G01 X8.7779 Y0.8855
G01 X8.7846 Y0.8909
G01 X8.7980 Y0.9031
G01 X8.8040 Y0.9092
G01 X8.8161 Y0.9227
G01 X8.8287 Y0.9396
G01 X8.8333 Y0.9467
G01 X8.8426 Y0.9624
G01 X8.8505 Y0.9787
G01 X8.8538 Y0.9866
G01 X8.8599 Y1.0037
G01 X8.8623 Y1.0119
G01 X8.8666 Y1.0296
G01 X8.8698 Y1.0503
G01 X8.8705 Y1.0588
G01 X8.8713 Y1.0770
G01 X8.8705 Y1.0952
G01 X8.8698 Y1.1037
G01 X8.8671 Y1.1216
G01 X8.8654 Y1.1300
G01 X8.8608 Y1.1476
G01 X8.8538 Y1.1674
G01 X8.8505 Y1.1753
G01 X8.8426 Y1.1916
G01 X8.8333 Y1.2073
G01 X8.8287 Y1.2144
G01 X8.8161 Y1.2313
G01 X8.8040 Y1.2448
G01 X8.7980 Y1.2509
G01 X8.7824 Y1.2650
G01 X8.7679 Y1.2759
G01 X8.7584 Y1.2822
G01 X8.7402 Y1.2928
G01 X8.7212 Y1.3017
G01 X8.5615 Y1.3678
G01 X8.3662 Y1.4982
G01 X8.2002 Y1.6642
G01 X8.0573 Y1.8782
G01 X8.0466 Y1.8929
G01 X8.0412 Y1.8996
G01 X8.0310 Y1.9109
G01 X8.0229 Y1.9190
G01 X8.0071 Y1.9329
G01 X7.9878 Y1.9469
G01 X7.9697 Y1.9576
G01 X7.9481 Y1.9678
G01 X7.9257 Y1.9758
G01 X7.9025 Y1.9816
G01 X7.8789 Y1.9851
G01 X7.8551 Y1.9863
G01 X7.8313 Y1.9851
G01 X7.8104 Y1.9821
G01 X7.8021 Y1.9804
G01 X7.7845 Y1.9758
G01 X7.7647 Y1.9688
G01 X7.7430 Y1.9589
G01 X7.7248 Y1.9484
G01 X7.7176 Y1.9437
G01 X7.7030 Y1.9329
G01 X7.6852 Y1.9171
G01 X7.6690 Y1.8996
G01 X7.6601 Y1.8882
G01 X7.6486 Y1.8848
G01 X7.4398 Y2.0937
G01 X7.4627 Y2.1581
G01 X7.4845 Y2.2453
G01 X7.4977 Y2.3342
G01 X7.5021 Y2.4240
G01 X7.4977 Y2.5138
G01 X7.4845 Y2.6027
G01 X7.4627 Y2.6899
G01 X7.4398 Y2.7543
G01 X7.6486 Y2.9632
G01 X7.6541 Y2.9615
G01 X7.6603 Y2.9530
G01 X7.6722 Y2.9387
G01 X7.6893 Y2.9214
G01 X7.7058 Y2.9077
G01 X7.7153 Y2.9008
G01 X7.7309 Y2.8908
G01 X7.7526 Y2.8796
G01 X7.7752 Y2.8707
G01 X7.7987 Y2.8640
G01 X7.8227 Y2.8598
G01 X7.8470 Y2.8579
G01 X7.8714 Y2.8585
G01 X7.8898 Y2.8607
G01 X7.9013 Y2.8627
G01 X7.9165 Y2.8663
G01 X7.9249 Y2.8687
G01 X7.9451 Y2.8759
G01 X7.9672 Y2.8862
G01 X7.9857 Y2.8971
G01 X8.0055 Y2.9114
G01 X8.0237 Y2.9276
G01 X8.0364 Y2.9412
G01 X8.0420 Y2.9478
G01 X8.0548 Y2.9651
G01 X8.0630 Y2.9784
G01 X8.2002 Y3.1838
G01 X8.3662 Y3.3498
G01 X8.5615 Y3.4802
G01 X8.7784 Y3.5700
G01 X9.0086 Y3.6158
G01 X9.2434 Y3.6158
G01 X9.4736 Y3.5700
G01 X9.6905 Y3.4802
G01 X9.8858 Y3.3498
G01 X10.0518 Y3.1838
G01 X10.1938 Y2.9711
G01 X10.2045 Y2.9565
G01 X10.2118 Y2.9477
G01 X10.2261 Y2.9323
G01 X10.2417 Y2.9183
G01 X10.2609 Y2.9041
G01 X10.2814 Y2.8918
G01 X10.2977 Y2.8839
G01 X10.3056 Y2.8805
G01 X10.3254 Y2.8735
G01 X10.3486 Y2.8677
G01 X10.3693 Y2.8646
G01 X10.3903 Y2.8632
G01 X10.4017 Y2.8632
G01 X10.4198 Y2.8642
G01 X10.4434 Y2.8677
G01 X10.4666 Y2.8735
G01 X10.4837 Y2.8795
G01 X10.4943 Y2.8839
G01 X10.5131 Y2.8932
G01 X10.5311 Y2.9041
G01 X10.5480 Y2.9165
G01 X10.5638 Y2.9304
G01 X10.5719 Y2.9384
G01 X10.5840 Y2.9520
G01 X10.5966 Y2.9688
G01 X10.7402 Y3.1838
G01 X10.8049 Y3.2485
G01 X10.8190 Y3.2641
G01 X10.8332 Y3.2833
G01 X10.8441 Y3.3013
G01 X10.8480 Y3.3089
G01 X10.8557 Y3.3253
G01 X10.8619 Y3.3424
G01 X10.8645 Y3.3505
G01 X10.8689 Y3.3682
G01 X10.8705 Y3.3766
G01 X10.8730 Y3.3946
G01 X10.8742 Y3.4184
G01 X10.8742 Y4.3800
G01 X10.8734 Y4.3982
G01 X10.8723 Y4.4095
G01 X10.8689 Y4.4303
G01 X10.8637 Y4.4506
G01 X10.8567 Y4.4704
G01 X10.8533 Y4.4783
G01 X10.8455 Y4.4947
G01 X10.8314 Y4.5179
G01 X10.7604 Y4.6893
G01 X10.7242 Y4.8712
G01 X10.7242 Y5.0568
G01 X10.7604 Y5.2387
G01 X10.8314 Y5.4101
G01 X10.9344 Y5.5644
G01 X11.0656 Y5.6956
G01 X11.2199 Y5.7986
G01 X11.3913 Y5.8696
G01 X11.5732 Y5.9058
G01 X11.7588 Y5.9058
G01 X11.9407 Y5.8696
G01 X12.1121 Y5.7986
G01 X12.2664 Y5.6956
G01 X12.3976 Y5.5644
G01 X12.5006 Y5.4101
G01 X12.5716 Y5.2387
G01 X12.6078 Y5.0568
G01 X12.6078 Y4.8712
G01 X12.5716 Y4.6893
G01 X12.5006 Y4.5179
G01 X12.4865 Y4.4947
G01 X12.4787 Y4.4783
G01 X12.4753 Y4.4704
G01 X12.4683 Y4.4506
G01 X12.4625 Y4.4275
G01 X12.4590 Y4.4039
G01 X12.4580 Y4.3857
G01 X12.4580 Y3.4127
G01 X12.4590 Y3.3946
G01 X12.4615 Y3.3766
G01 X12.4631 Y3.3682
G01 X12.4683 Y3.3478
G01 X12.4753 Y3.3280
G01 X12.4787 Y3.3201
G01 X12.4865 Y3.3038
G01 X12.4988 Y3.2833
G01 X12.5130 Y3.2641
G01 X12.5271 Y3.2485
G01 X12.5918 Y3.1838
G01 X12.7354 Y2.9688
G01 X12.7480 Y2.9520
G01 X12.7601 Y2.9384
G01 X12.7661 Y2.9323
G01 X12.7817 Y2.9183
G01 X12.8009 Y2.9041
G01 X12.8214 Y2.8918
G01 X12.8429 Y2.8816
G01 X12.8654 Y2.8735
G01 X12.8886 Y2.8677
G01 X12.9122 Y2.8642
G01 X12.9360 Y2.8631
G01 X12.9598 Y2.8642
G01 X12.9834 Y2.8677
G01 X13.0066 Y2.8735
G01 X13.0291 Y2.8816
G01 X13.0506 Y2.8918
G01 X13.0711 Y2.9041
G01 X13.0903 Y2.9183
G01 X13.1059 Y2.9323
G01 X13.1119 Y2.9384
G01 X13.1240 Y2.9520
G01 X13.1366 Y2.9688
G01 X13.2802 Y3.1838
G01 X13.3449 Y3.2485
G01 X13.3590 Y3.2641
G01 X13.3699 Y3.2786
G01 X13.3762 Y3.2881
G01 X13.3868 Y3.3063
G01 X13.3957 Y3.3253
G01 X13.4028 Y3.3451
G01 X13.4082 Y3.3654
G01 X13.4105 Y3.3766
G01 X13.4130 Y3.3946
G01 X13.4141 Y3.4155
G01 X13.4142 Y5.9292
G01 X13.4132 Y5.9502
G01 X13.4103 Y5.9800
G01 X13.4256 Y6.1352
G01 X13.4709 Y6.2845
G01 X13.5444 Y6.4220
G01 X13.6434 Y6.5426
G01 X13.6665 Y6.5617
G01 X13.6820 Y6.5759
G01 X17.8072 Y10.7010
G01 X17.8212 Y10.7167
G01 X17.8354 Y10.7358
G01 X17.8477 Y10.7563
G01 X17.8556 Y10.7727
G01 X17.8589 Y10.7805
G01 X17.8659 Y10.8004
G01 X17.8724 Y10.8267
G01 X17.9434 Y10.9981
G01 X18.0464 Y11.1524
G01 X18.1776 Y11.2836
G01 X18.3319 Y11.3866
G01 X18.5033 Y11.4576
G01 X18.6897 Y11.4947
G01 X18.7111 Y11.4975
G01 X18.7223 Y11.4998
G01 X18.7399 Y11.5043
G01 X18.7623 Y11.5123
G01 X18.7839 Y11.5225
G01 X18.7996 Y11.5318
G01 X18.8067 Y11.5364
G01 X18.8236 Y11.5490
G01 X18.8371 Y11.5611
G01 X18.8432 Y11.5671
G01 X18.8573 Y11.5827
G01 X18.8682 Y11.5972
G01 X18.8730 Y11.6043
G01 X18.8824 Y11.6199
G01 X18.8863 Y11.6275
G01 X18.8939 Y11.6439
G01 X18.9011 Y11.6637
G01 X18.9035 Y11.6719
G01 X18.9078 Y11.6896
G01 X18.9106 Y11.7075
G01 X18.9115 Y11.7160
G01 X18.9124 Y11.7342
G01 X18.9123 Y11.7427
G01 X18.9113 Y11.7608
G01 X18.9078 Y11.7844
G01 X18.9020 Y11.8076
G01 X18.8939 Y11.8301
G01 X18.8837 Y11.8516
G01 X18.8715 Y11.8721
G01 X18.8573 Y11.8913
G01 X18.8412 Y11.9089
G01 X14.3492 Y16.4009
G01 X14.3337 Y16.4151
G01 X14.3271 Y16.4205
G01 X14.3124 Y16.4312
G01 X14.2944 Y16.4421
G01 X14.2868 Y16.4460
G01 X14.2703 Y16.4537
G01 X14.2533 Y16.4599
G01 X14.2451 Y16.4625
G01 X14.2275 Y16.4669
G01 X14.2040 Y16.4707
G01 X14.1830 Y16.4720
G01 X14.0886 Y16.4722
G01 X13.8584 Y16.5180
G01 X13.6415 Y16.6078
G01 X13.4462 Y16.7382
G01 X13.2802 Y16.9042
G01 X13.1373 Y17.1182
G01 X13.1266 Y17.1329
G01 X13.1212 Y17.1396
G01 X13.1110 Y17.1509
G01 X13.1029 Y17.1590
G01 X13.0871 Y17.1729
G01 X13.0678 Y17.1869
G01 X13.0497 Y17.1976
G01 X13.0281 Y17.2078
G01 X13.0057 Y17.2158
G01 X12.9825 Y17.2216
G01 X12.9589 Y17.2251
G01 X12.9351 Y17.2263
G01 X12.9113 Y17.2251
G01 X12.8904 Y17.2221
G01 X12.8821 Y17.2204
G01 X12.8645 Y17.2158
G01 X12.8447 Y17.2088
G01 X12.8230 Y17.1989
G01 X12.8048 Y17.1884
G01 X12.7976 Y17.1837
G01 X12.7830 Y17.1729
G01 X12.7652 Y17.1571
G01 X12.7490 Y17.1396
G01 X12.7401 Y17.1282
G01 X12.7286 Y17.1248
G01 X12.5198 Y17.3337
G01 X12.5427 Y17.3981
G01 X12.5645 Y17.4853
G01 X12.5777 Y17.5742
G01 X12.5821 Y17.6640
G01 X12.5777 Y17.7538
G01 X12.5645 Y17.8427
G01 X12.5427 Y17.9299
G01 X12.5198 Y17.9943
G01 X12.7286 Y18.2032
G01 X12.7341 Y18.2015
G01 X12.7403 Y18.1930
G01 X12.7522 Y18.1787
G01 X12.7693 Y18.1614
G01 X12.7858 Y18.1477
G01 X12.7953 Y18.1408
G01 X12.8134 Y18.1294
G01 X12.8352 Y18.1185
G01 X12.8552 Y18.1107
G01 X12.8730 Y18.1055
G01 X12.8815 Y18.1034
G01 X12.9027 Y18.0998
G01 X12.9270 Y18.0979
G01 X12.9514 Y18.0985
G01 X12.9756 Y18.1016
G01 X12.9993 Y18.1070
G01 X13.0224 Y18.1148
G01 X13.0446 Y18.1249
G01 X13.0632 Y18.1356
G01 X13.0832 Y18.1496
G01 X13.0994 Y18.1636
G01 X13.1077 Y18.1718
G01 X13.1183 Y18.1833
G01 X13.1238 Y18.1901
G01 X13.1348 Y18.2051
G01 X13.1430 Y18.2184
G01 X13.2802 Y18.4238
G01 X13.4462 Y18.5898
G01 X13.6415 Y18.7202
G01 X13.8012 Y18.7863
G01 X13.8202 Y18.7952
G01 X13.8384 Y18.8058
G01 X13.8456 Y18.8104
G01 X13.8624 Y18.8230
G01 X13.8759 Y18.8351
G01 X13.8820 Y18.8411
G01 X13.8942 Y18.8546
G01 X13.8996 Y18.8612
G01 X13.9103 Y18.8759
G01 X13.9226 Y18.8964
G01 X13.9305 Y18.9127
G01 X13.9338 Y18.9206
G01 X13.9399 Y18.9377
G01 X13.9423 Y18.9459
G01 X13.9466 Y18.9636
G01 X13.9494 Y18.9815
G01 X13.9503 Y18.9900
G01 X13.9512 Y19.0082
G01 X13.9503 Y19.0320
G01 X13.9494 Y19.0405
G01 X13.9466 Y19.0584
G01 X13.9408 Y19.0816
G01 X13.9328 Y19.1041
G01 X13.9251 Y19.1205
G01 X13.9212 Y19.1281
G01 X13.9087 Y19.1484
G01 X13.8979 Y19.1630
G01 X13.8924 Y19.1696
G01 X13.8820 Y19.1809
G01 X13.8759 Y19.1869
G01 X13.8624 Y19.1990
G01 X13.8479 Y19.2099
G01 X13.8384 Y19.2162
G01 X13.8202 Y19.2268
G01 X13.8012 Y19.2357
G01 X13.7814 Y19.2428
G01 X13.7611 Y19.2482
G01 X13.7499 Y19.2505
G01 X13.7319 Y19.2530
G01 X13.7110 Y19.2541
G01 X12.1609 Y19.2542
G01 X12.1403 Y19.2533
G01 X12.1320 Y19.2524
G01 X12.1143 Y19.2496
G01 X12.0942 Y19.2448
G01 X12.0694 Y19.2363
G01 X12.0481 Y19.2264
G01 X12.0279 Y19.2145
G01 X12.0111 Y19.2025
G01 X11.9913 Y19.1852
G01 X11.9772 Y19.1702
G01 X11.9627 Y19.1518
G01 X11.9515 Y19.1344
G01 X11.9473 Y19.1271
G01 X11.9406 Y19.1137
G01 X11.9361 Y19.1034
G01 X11.9290 Y19.0840
G01 X11.9243 Y19.0668
G01 X11.9225 Y19.0586
G01 X11.9193 Y19.0382
G01 X11.9178 Y19.0148
G01 X11.9186 Y18.9913
G01 X11.9207 Y18.9736
G01 X11.9222 Y18.9653
G01 X11.9261 Y18.9479
G01 X11.9333 Y18.9256
G01 X11.9426 Y18.9040
G01 X11.9524 Y18.8859
G01 X11.9639 Y18.8687
G01 X11.9706 Y18.8598
G01 X11.9841 Y18.8441
G01 X12.0010 Y18.8279
G01 X12.0149 Y18.8166
G01 X12.0217 Y18.8117
G01 X12.0367 Y18.8020
G01 X12.0549 Y18.7922
G01 X12.0791 Y18.7820
G01 X12.1835 Y18.7447
G01 X12.2029 Y18.7343
G01 X12.2052 Y18.7266
G01 X11.9963 Y18.5178
G01 X11.9319 Y18.5407
G01 X11.8447 Y18.5625
G01 X11.7558 Y18.5757
G01 X11.6660 Y18.5801
G01 X11.5762 Y18.5757
G01 X11.4873 Y18.5625
G01 X11.4001 Y18.5407
G01 X11.3357 Y18.5178
G01 X11.1268 Y18.7266
G01 X11.1271 Y18.7275
G01 X11.2668 Y18.7938
G01 X11.2806 Y18.8012
G01 X11.2880 Y18.8058
G01 X11.3032 Y18.8162
G01 X11.3176 Y18.8279
G01 X11.3261 Y18.8358
G01 X11.3409 Y18.8512
G01 X11.3543 Y18.8680
G01 X11.3661 Y18.8858
G01 X11.3762 Y18.9047
G01 X11.3811 Y18.9152
G01 X11.3878 Y18.9324
G01 X11.3938 Y18.9530
G01 X11.3984 Y18.9769
G01 X11.4004 Y18.9982
G01 X11.4008 Y19.0069
G01 X11.4005 Y19.0225
G01 X11.3996 Y19.0340
G01 X11.3973 Y19.0524
G01 X11.3919 Y19.0761
G01 X11.3843 Y19.0991
G01 X11.3743 Y19.1213
G01 X11.3623 Y19.1424
G01 X11.3499 Y19.1599
G01 X11.3360 Y19.1762
G01 X11.3279 Y19.1845
G01 X11.3143 Y19.1970
G01 X11.2949 Y19.2117
G01 X11.2742 Y19.2244
G01 X11.2523 Y19.2350
G01 X11.2295 Y19.2433
G01 X11.2060 Y19.2493
G01 X11.1819 Y19.2529
G01 X11.1577 Y19.2542
G01 X9.6209 Y19.2542
G01 X9.6003 Y19.2533
G01 X9.5920 Y19.2524
G01 X9.5743 Y19.2496
G01 X9.5515 Y19.2440
G01 X9.5294 Y19.2363
G01 X9.5131 Y19.2289
G01 X9.5032 Y19.2237
G01 X9.4856 Y19.2130
G01 X9.4689 Y19.2008
G01 X9.4534 Y19.1872
G01 X9.4391 Y19.1723
G01 X9.4318 Y19.1637
G01 X9.4211 Y19.1495
G01 X9.4087 Y19.1296
G01 X9.3982 Y19.1086
G01 X9.3908 Y19.0893
G01 X9.3850 Y19.0695
G01 X9.3825 Y19.0586
G01 X9.3800 Y19.0437
G01 X9.3791 Y19.0354
G01 X9.3779 Y19.0176
G01 X9.3781 Y18.9997
G01 X9.3786 Y18.9913
G01 X9.3807 Y18.9736
G01 X9.3861 Y18.9479
G01 X9.3943 Y18.9230
G01 X9.4014 Y18.9066
G01 X9.4051 Y18.8991
G01 X9.4139 Y18.8835
G01 X9.4239 Y18.8687
G01 X9.4288 Y18.8619
G01 X9.4385 Y18.8504
G01 X9.4441 Y18.8441
G01 X9.4568 Y18.8316
G01 X9.4727 Y18.8184
G01 X9.4817 Y18.8117
G01 X9.4943 Y18.8035
G01 X9.5016 Y18.7992
G01 X9.5174 Y18.7910
G01 X9.5364 Y18.7830
G01 X9.6435 Y18.7447
G01 X9.6629 Y18.7343
G01 X9.6652 Y18.7266
G01 X9.4563 Y18.5178
G01 X9.3919 Y18.5407
G01 X9.3047 Y18.5625
G01 X9.2158 Y18.5757
G01 X9.1260 Y18.5801
G01 X9.0362 Y18.5757
G01 X8.9473 Y18.5625
G01 X8.8601 Y18.5407
G01 X8.7957 Y18.5178
G01 X8.5868 Y18.7266
G01 X8.5871 Y18.7275
G01 X8.7268 Y18.7938
G01 X8.7431 Y18.8027
G01 X8.7585 Y18.8129
G01 X8.7655 Y18.8180
G01 X8.7798 Y18.8298
G01 X8.7951 Y18.8448
G01 X8.8028 Y18.8535
G01 X8.8143 Y18.8680
G01 X8.8276 Y18.8883
G01 X8.8376 Y18.9072
G01 X8.8411 Y18.9152
G01 X8.8478 Y18.9324
G01 X8.8545 Y18.9558
G01 X8.8588 Y18.9797
G01 X8.8607 Y19.0040
G01 X8.8602 Y19.0282
G01 X8.8581 Y19.0466
G01 X8.8561 Y19.0581
G01 X8.8511 Y19.0789
G01 X8.8443 Y19.0991
G01 X8.8343 Y19.1213
G01 X8.8223 Y19.1424
G01 X8.8081 Y19.1622
G01 X8.7921 Y19.1804
G01 X8.7786 Y19.1931
G01 X8.7720 Y19.1988
G01 X8.7596 Y19.2083
G01 X8.7501 Y19.2149
G01 X8.7317 Y19.2258
G01 X8.7096 Y19.2361
G01 X8.6895 Y19.2433
G01 X8.6660 Y19.2493
G01 X8.6419 Y19.2529
G01 X8.6177 Y19.2542
G01 X7.0839 Y19.2542
G01 X7.0601 Y19.2530
G01 X7.0364 Y19.2495
G01 X7.0133 Y19.2437
G01 X6.9935 Y19.2367
G01 X6.9856 Y19.2333
G01 X6.9693 Y19.2255
G01 X6.9512 Y19.2147
G01 X6.9441 Y19.2099
G01 X6.9296 Y19.1990
G01 X6.9161 Y19.1869
G01 X6.9100 Y19.1809
G01 X6.8959 Y19.1653
G01 X6.8850 Y19.1508
G01 X6.8802 Y19.1437
G01 X6.8708 Y19.1281
G01 X6.8669 Y19.1205
G01 X6.8592 Y19.1041
G01 X6.8530 Y19.0870
G01 X6.8504 Y19.0788
G01 X6.8454 Y19.0584
G01 X6.8422 Y19.0377
G01 X6.8415 Y19.0292
G01 X6.8407 Y19.0110
G01 X6.8415 Y18.9928
G01 X6.8422 Y18.9843
G01 X6.8449 Y18.9664
G01 X6.8466 Y18.9580
G01 X6.8512 Y18.9404
G01 X6.8582 Y18.9206
G01 X6.8615 Y18.9127
G01 X6.8694 Y18.8964
G01 X6.8787 Y18.8807
G01 X6.8833 Y18.8736
G01 X6.8959 Y18.8567
G01 X6.9080 Y18.8432
G01 X6.9140 Y18.8371
G01 X6.9296 Y18.8230
G01 X6.9441 Y18.8121
G01 X6.9536 Y18.8058
G01 X6.9718 Y18.7952
G01 X6.9908 Y18.7863
G01 X7.1505 Y18.7202
G01 X7.3458 Y18.5898
G01 X7.5118 Y18.4238
G01 X7.6547 Y18.2098
G01 X7.6654 Y18.1951
G01 X7.6708 Y18.1884
G01 X7.6810 Y18.1771
G01 X7.6891 Y18.1690
G01 X7.7049 Y18.1551
G01 X7.7242 Y18.1411
G01 X7.7423 Y18.1304
G01 X7.7639 Y18.1202
G01 X7.7863 Y18.1122
G01 X7.8095 Y18.1064
G01 X7.8331 Y18.1029
G01 X7.8569 Y18.1017
G01 X7.8807 Y18.1029
G01 X7.9016 Y18.1059
G01 X7.9099 Y18.1076
G01 X7.9275 Y18.1122
G01 X7.9473 Y18.1192
G01 X7.9690 Y18.1291
G01 X7.9872 Y18.1396
G01 X7.9944 Y18.1443
G01 X8.0090 Y18.1551
G01 X8.0268 Y18.1709
G01 X8.0430 Y18.1884
G01 X8.0519 Y18.1998
G01 X8.0634 Y18.2032
G01 X8.2722 Y17.9943
G01 X8.2493 Y17.9299
G01 X8.2275 Y17.8427
G01 X8.2143 Y17.7538
G01 X8.2099 Y17.6640
G01 X8.2143 Y17.5742
G01 X8.2275 Y17.4853
G01 X8.2493 Y17.3981
G01 X8.2722 Y17.3337
G01 X8.0634 Y17.1248
G01 X8.0579 Y17.1265
G01 X8.0517 Y17.1350
G01 X8.0398 Y17.1493
G01 X8.0227 Y17.1666
G01 X8.0062 Y17.1803
G01 X7.9967 Y17.1872
G01 X7.9811 Y17.1972
G01 X7.9594 Y17.2084
G01 X7.9368 Y17.2173
G01 X7.9133 Y17.2240
G01 X7.8893 Y17.2282
G01 X7.8650 Y17.2301
G01 X7.8406 Y17.2295
G01 X7.8222 Y17.2273
G01 X7.8107 Y17.2253
G01 X7.7955 Y17.2217
G01 X7.7871 Y17.2193
G01 X7.7669 Y17.2121
G01 X7.7448 Y17.2018
G01 X7.7263 Y17.1909
G01 X7.7065 Y17.1766
G01 X7.6883 Y17.1604
G01 X7.6756 Y17.1468
G01 X7.6700 Y17.1402
G01 X7.6572 Y17.1229
G01 X7.6490 Y17.1096
G01 X7.5118 Y16.9042
G01 X7.3458 Y16.7382
G01 X7.1505 Y16.6078
G01 X6.9336 Y16.5180
G01 X6.7034 Y16.4722
G01 X6.4686 Y16.4722
G01 X6.2384 Y16.5180
G01 X6.0215 Y16.6078
G01 X5.8262 Y16.7382
G01 X5.6425 Y16.9219
G01 X5.6269 Y16.9359
G01 X5.6101 Y16.9485
G01 X5.5922 Y16.9596
G01 X5.5822 Y16.9650
G01 X5.5657 Y16.9726
G01 X5.5432 Y16.9807
G01 X5.5201 Y16.9865
G01 X5.5021 Y16.9893
G01 X5.4936 Y16.9902
G01 X5.4726 Y16.9911
G01 X5.4488 Y16.9900
G01 X5.4252 Y16.9865
G01 X5.4020 Y16.9807
G01 X5.3796 Y16.9726
G01 X5.3580 Y16.9624
G01 X5.3375 Y16.9501
G01 X5.3184 Y16.9359
G01 X5.3027 Y16.9219
G01 X5.2968 Y16.9158
G01 X5.2847 Y16.9022
G01 X5.2705 Y16.8830
G01 X5.2582 Y16.8626
G01 X5.2491 Y16.8436
G01 X5.2459 Y16.8357
G01 X5.2399 Y16.8185
G01 X5.2354 Y16.8009
G01 X5.2334 Y16.7913
G01 X5.2098 Y16.7133
G01 X5.1734 Y16.6453
G01 X5.1244 Y16.5856
G01 X5.0647 Y16.5366
G01 X4.9967 Y16.5002
G01 X4.9228 Y16.4778
G01 X4.8341 Y16.4691
G01 X3.2579 Y16.4691
G01 X3.1692 Y16.4778
G01 X3.0953 Y16.5002
G01 X3.0273 Y16.5366
G01 X2.9676 Y16.5856
G01 X2.9186 Y16.6453
G01 X2.8822 Y16.7133
G01 X2.8598 Y16.7872
G01 X2.8511 Y16.8759
G01 X2.8511 Y18.4521
G01 X2.8598 Y18.5408
G01 X2.8822 Y18.6147
G01 X2.9186 Y18.6827
G01 X2.9676 Y18.7424
G01 X3.0273 Y18.7914
G01 X3.0419 Y18.7994
G01 X3.0598 Y18.8104
G01 X3.0766 Y18.8230
G01 X3.0901 Y18.8351
G01 X3.0962 Y18.8411
G01 X3.1121 Y18.8590
G01 X3.1229 Y18.8736
G01 X3.1275 Y18.8807
G01 X3.1354 Y18.8939
G01 X3.1393 Y18.9015
G01 X3.1470 Y18.9179
G01 X3.1532 Y18.9350
G01 X3.1558 Y18.9432
G01 X3.1608 Y18.9636
G01 X3.1636 Y18.9815
G01 X3.1645 Y18.9900
G01 X3.1655 Y19.0110
G01 X3.1647 Y19.0292
G01 X3.1640 Y19.0377
G01 X3.1608 Y19.0584
G01 X3.1558 Y19.0789
G01 X3.1532 Y19.0870
G01 X3.1470 Y19.1041
G01 X3.1381 Y19.1231
G01 X3.1339 Y19.1306
G01 X3.1245 Y19.1461
G01 X3.1121 Y19.1630
G01 X3.1066 Y19.1696
G01 X3.0962 Y19.1809
G01 X3.0901 Y19.1869
G01 X3.0766 Y19.1990
G01 X3.0621 Y19.2099
G01 X3.0550 Y19.2147
G01 X3.0394 Y19.2241
G01 X3.0206 Y19.2333
G01 X3.0127 Y19.2367
G01 X2.9956 Y19.2428
G01 X2.9725 Y19.2489
G01 X2.9490 Y19.2527
G01 X2.9280 Y19.2540
G01 X0.9210 Y19.2542
G01 X0.9028 Y19.2534
G01 X0.8943 Y19.2527
G01 X0.8764 Y19.2500
G01 X0.8680 Y19.2482
G01 X0.8504 Y19.2437
G01 X0.8333 Y19.2377
G01 X0.8253 Y19.2345
G01 X0.8064 Y19.2255
G01 X0.7907 Y19.2162
G01 X0.7836 Y19.2116
G01 X0.7690 Y19.2007
G01 X0.7624 Y19.1952
G01 X0.7511 Y19.1849
G01 X0.7451 Y19.1788
G01 X0.7330 Y19.1653
G01 X0.7221 Y19.1508
G01 X0.7158 Y19.1413
G01 X0.7052 Y19.1231
G01 X0.6963 Y19.1041
G01 X0.6883 Y19.0816
G01 X0.6825 Y19.0584
G01 X0.6797 Y19.0405
G01 X0.6788 Y19.0320
G01 X0.6778 Y19.0110
G01 X0.6778 Y1.0770
G01 X0.6786 Y1.0588
G00 Z2.0000
G00 X0.7607 Y0.8943
G01 F30.00
G01 Z-0.0601
G01 F60.00
G01 X0.8939 Y0.0663
G01 X0.7265 Y0.0840
G01 X0.5267 Y1.3257
G01 X0.3304 Y2.7705
G01 X0.1697 Y4.2197
G01 X0.0446 Y5.6724
G01 X-0.0448 Y7.1277
G01 X-0.0900 Y8.3545
G00 Z2.0000
G00 X0.9350 Y0.8338
G01 F30.00
G01 Z-0.0601
G01 F60.00
G01 X1.0586 Y0.0660
G00 Z2.0000
G00 X0.8993 Y0.0660
G01 F30.00
G01 Z-0.0601
G01 F60.00
G01 X0.8218 Y0.0698
G01 X0.7236 Y0.0844
G01 X0.6272 Y0.1085
G01 X0.5337 Y0.1420
G01 X0.4439 Y0.1845
G01 X0.3587 Y0.2355
G01 X0.2790 Y0.2947
G01 X0.2054 Y0.3614
G01 X0.1387 Y0.4350
G01 X0.0795 Y0.5147
G01 X0.0285 Y0.5999
G01 X-0.0140 Y0.6897
G01 X-0.0475 Y0.7832
G01 X-0.0716 Y0.8796
G01 X-0.0862 Y0.9778
G01 X-0.0900 Y1.0553
G01 X-0.0900 Y19.0327
G01 X-0.0862 Y19.1102
G01 X-0.0716 Y19.2084
G01 X-0.0475 Y19.3048
G01 X-0.0140 Y19.3983
G01 X0.0285 Y19.4881
G01 X0.0795 Y19.5733
G01 X0.1387 Y19.6530
G01 X0.2054 Y19.7266
G01 X0.2790 Y19.7933
G01 X0.3587 Y19.8525
G01 X0.4439 Y19.9035
G01 X0.5337 Y19.9460
G01 X0.6272 Y19.9795
G01 X0.7236 Y20.0036
G01 X0.8218 Y20.0182
G01 X0.8993 Y20.0220
G01 X58.5007 Y20.0220
G01 X58.5782 Y20.0182
G01 X58.6764 Y20.0036
G01 X58.7728 Y19.9795
G01 X58.8663 Y19.9460
G01 X58.9561 Y19.9035
G01 X59.0413 Y19.8525
G01 X59.1210 Y19.7933
G01 X59.1946 Y19.7266
G01 X59.2613 Y19.6530
G01 X59.3205 Y19.5733
G01 X59.3715 Y19.4881
G01 X59.4140 Y19.3983
G01 X59.4475 Y19.3048
G01 X59.4716 Y19.2084
G01 X59.4849 Y19.1184
G01 X59.8619 Y13.5740
G01 X59.8619 Y6.5140
G01 X59.4849 Y0.9696
G01 X59.4716 Y0.8796
G01 X59.4475 Y0.7832
G01 X59.4140 Y0.6897
G01 X59.3715 Y0.5999
G01 X59.3205 Y0.5147
G01 X59.2613 Y0.4350
G01 X59.1946 Y0.3614
G01 X59.1210 Y0.2947
G01 X59.0413 Y0.2355
G01 X58.9561 Y0.1845
G01 X58.8663 Y0.1420
G01 X58.7728 Y0.1085
G01 X58.6764 Y0.0844
G01 X58.5782 Y0.0698
G01 X58.5007 Y0.0660
G01 X0.8993 Y0.0660
G00 Z2.0000
G00 X1.2232 Y0.0660
G01 F30.00
G01 Z-0.0601
G01 F60.00
G01 X1.0997 Y0.8338
G01 X1.2643 Y0.8338
G01 X1.3878 Y0.0660
G01 X1.5524 Y0.0660
G01 X1.4289 Y0.8338
G00 Z2.0000
G00 X1.5935 Y0.8338
G01 F30.00
G01 Z-0.0601
G01 F60.00
G01 X1.7171 Y0.0660
G01 X1.8820 Y0.0660
G01 X1.8793 Y0.0807
G01 X1.7581 Y0.8338
G01 X1.9228 Y0.8338
G01 X2.0395 Y0.1085
G01 X2.0474 Y0.0660
G01 X2.2127 Y0.0660
G01 X2.1996 Y0.1363
G01 X2.0874 Y0.8338
G00 Z2.0000
G00 X2.2520 Y0.8338
G01 F30.00
G01 Z-0.0601
G01 F60.00
G01 X2.3598 Y0.1640
G01 X2.3780 Y0.0660
G01 X2.5433 Y0.0660
G01 X2.5199 Y0.1918
G01 X2.4166 Y0.8338
G01 X2.5812 Y0.8338
G01 X2.6801 Y0.2196
G01 X2.7087 Y0.0660
G00 Z2.0000
G00 X2.8740 Y0.0660
G01 F30.00
G01 Z-0.0601
G01 F60.00
G01 X2.8402 Y0.2474
G01 X2.7458 Y0.8338
G00 Z2.0000
G00 X2.9105 Y0.8338
G01 F30.00
G01 Z-0.0601
G01 F60.00
G01 X3.0004 Y0.2752
G01 X3.0393 Y0.0660
G01 X3.2046 Y0.0660
G01 X3.1605 Y0.3030
G01 X3.0751 Y0.8338
G01 X3.2397 Y0.8338
G01 X3.3206 Y0.3308
G01 X3.3699 Y0.0660
G01 X3.5353 Y0.0660
G01 X3.4808 Y0.3586
G01 X3.4043 Y0.8338
G00 Z2.0000
G00 X3.5688 Y0.8347
G01 F30.00
G01 Z-0.0601
G01 F60.00
G01 X3.6409 Y0.3864
G01 X3.7006 Y0.0660
G01 X3.8659 Y0.0660
G01 X3.8011 Y0.4141
G01 X3.7218 Y0.9069
G00 Z2.0000
G00 X3.6597 Y1.2930
G01 F30.00
G01 Z-0.0601
G01 F60.00
G01 X3.6070 Y1.6202
G00 Z2.0000
G00 X3.7835 Y1.5464
G01 F30.00
G01 Z-0.0601
G01 F60.00
G01 X3.9612 Y0.4419
G01 X4.0312 Y0.0660
G01 X4.1965 Y0.0660
G01 X4.1214 Y0.4697
G01 X3.9536 Y1.5126
G00 Z2.0000
G00 X4.1184 Y1.5113
G01 F30.00
G01 Z-0.0601
G01 F60.00
G01 X4.2815 Y0.4975
G01 X4.3619 Y0.0660
G01 X4.5272 Y0.0660
G01 X4.4417 Y0.5253
G01 X4.3821 Y0.8957
G00 Z2.0000
G00 X4.5566 Y0.8338
G01 F30.00
G01 Z-0.0601
G01 F60.00
G01 X4.6018 Y0.5531
G01 X4.6925 Y0.0660
G01 X4.8578 Y0.0660
G01 X4.7620 Y0.5809
G01 X4.7213 Y0.8338
G00 Z2.0000
G00 X4.8859 Y0.8338
G01 F30.00
G01 Z-0.0601
G01 F60.00
G01 X4.9221 Y0.6087
G01 X5.0231 Y0.0660
G01 X5.1885 Y0.0660
G01 X5.0823 Y0.6364
G01 X5.0505 Y0.8338
G00 Z2.0000
G00 X5.2151 Y0.8338
G01 F30.00
G01 Z-0.0601
G01 F60.00
G01 X5.2424 Y0.6642
G01 X5.3538 Y0.0660
G01 X5.5191 Y0.0660
G01 X5.4026 Y0.6920
G01 X5.3797 Y0.8338
G00 Z2.0000
G00 X5.5444 Y0.8338
G01 F30.00
G01 Z-0.0601
G01 F60.00
G01 X5.5627 Y0.7198
G01 X5.6844 Y0.0660
G00 Z2.0000
G00 X5.8497 Y0.0660
G01 F30.00
G01 Z-0.0601
G01 F60.00
G01 X5.7229 Y0.7476
G01 X5.7090 Y0.8338
G00 Z2.0000
G00 X5.8736 Y0.8338
G01 F30.00
G01 Z-0.0601
G01 F60.00
G01 X5.8830 Y0.7754
G01 X6.0151 Y0.0660
G01 X6.1804 Y0.0660
G01 X6.0431 Y0.8032
G01 X6.0382 Y0.8338
G00 Z2.0000
G00 X6.1988 Y0.8591
G01 F30.00
G01 Z-0.0601
G01 F60.00
G01 X6.2033 Y0.8310
G01 X6.3457 Y0.0660
G01 X6.5110 Y0.0660
G01 X6.3634 Y0.8588
G01 X6.3327 Y1.0499
G00 Z2.0000
G00 X6.3120 Y1.1783
G01 F30.00
G01 Z-0.0601
G01 F60.00
G01 X6.2499 Y1.5644
G00 Z2.0000
G00 X6.4211 Y1.5233
G01 F30.00
G01 Z-0.0601
G01 F60.00
G01 X6.5236 Y0.8865
G01 X6.6764 Y0.0660
G00 Z2.0000
G00 X6.8417 Y0.0660
G01 F30.00
G01 Z-0.0601
G01 F60.00
G01 X6.6837 Y0.9143
G01 X6.5882 Y1.5079
G00 Z2.0000
G00 X6.7504 Y1.5232
G01 F30.00
G01 Z-0.0601
G01 F60.00
G01 X6.8439 Y0.9421
G01 X7.0070 Y0.0660
G01 X7.1723 Y0.0660
G01 X7.0276 Y0.8432
G00 Z2.0000
G00 X7.1947 Y0.8338
G01 F30.00
G01 Z-0.0601
G01 F60.00
G01 X7.3376 Y0.0660
G01 X7.5030 Y0.0660
G01 X7.3600 Y0.8338
G00 Z2.0000
G00 X7.5253 Y0.8338
G01 F30.00
G01 Z-0.0601
G01 F60.00
G01 X7.6683 Y0.0660
G01 X7.8336 Y0.0660
G01 X7.6906 Y0.8338
G00 Z2.0000
G00 X7.8560 Y0.8338
G01 F30.00
G01 Z-0.0601
G01 F60.00
G01 X7.9989 Y0.0660
G01 X8.1642 Y0.0660
G01 X8.0213 Y0.8338
G00 Z2.0000
G00 X8.1866 Y0.8338
G01 F30.00
G01 Z-0.0601
G01 F60.00
G01 X8.3296 Y0.0660
G01 X8.4949 Y0.0660
G01 X8.3519 Y0.8338
G00 Z2.0000
G00 X8.5172 Y0.8338
G01 F30.00
G01 Z-0.0601
G01 F60.00
G01 X8.6602 Y0.0660
G01 X8.8255 Y0.0660
G01 X8.6815 Y0.8398
G00 Z2.0000
G00 X8.8283 Y0.9390
G01 F30.00
G01 Z-0.0601
G01 F60.00
G01 X8.9908 Y0.0660
G01 X9.1563 Y0.0660
G01 X8.9258 Y1.3034
G01 X8.8877 Y1.5403
G00 Z2.0000
G00 X9.0570 Y1.5112
G01 F30.00
G01 Z-0.0601
G01 F60.00
G01 X9.0859 Y1.3311
G01 X9.3149 Y0.1017
G01 X9.3224 Y0.0660
G01 X9.4885 Y0.0660
G01 X9.4743 Y0.1334
G01 X9.2461 Y1.3589
G01 X9.2213 Y1.5130
G00 Z2.0000
G00 X9.3809 Y1.5444
G01 F30.00
G01 Z-0.0601
G01 F60.00
G01 X9.4062 Y1.3867
G01 X9.6337 Y0.1651
G01 X9.6547 Y0.0660
G01 X9.8208 Y0.0660
G01 X9.7931 Y0.1968
G01 X9.5664 Y1.4145
G01 X9.5357 Y1.6054
G00 Z2.0000
G00 X9.6852 Y1.6994
G01 F30.00
G01 Z-0.0601
G01 F60.00
G01 X9.7265 Y1.4423
G01 X9.9525 Y0.2285
G01 X9.9869 Y0.0660
G01 X10.1530 Y0.0660
G01 X10.1119 Y0.2602
G01 X9.8867 Y1.4701
G01 X9.8279 Y1.8357
G00 Z2.0000
G00 X9.9589 Y2.0445
G01 F30.00
G01 Z-0.0601
G01 F60.00
G01 X10.0468 Y1.4979
G01 X10.2714 Y0.2919
G01 X10.3192 Y0.0660
G01 X10.4853 Y0.0660
G01 X10.4308 Y0.3236
G01 X10.2070 Y1.5257
G01 X10.0127 Y2.7328
G01 X9.9357 Y3.2998
G01 X9.7529 Y3.4386
G01 X9.8077 Y3.0345
G00 Z2.0000
G00 X9.6221 Y3.1936
G01 F30.00
G01 Z-0.0601
G01 F60.00
G01 X9.5768 Y3.5273
G01 X9.4051 Y3.5837
G01 X9.4462 Y3.2814
G00 Z2.0000
G00 X9.2760 Y3.3269
G01 F30.00
G01 Z-0.0601
G01 F60.00
G01 X9.2367 Y3.6158
G01 X9.0727 Y3.6158
G01 X9.1102 Y3.3395
G00 Z2.0000
G00 X8.9485 Y3.3227
G01 F30.00
G01 Z-0.0601
G01 F60.00
G01 X8.9113 Y3.5965
G01 X8.7524 Y3.5593
G01 X8.7908 Y3.2760
G00 Z2.0000
G00 X8.6374 Y3.1981
G01 F30.00
G01 Z-0.0601
G01 F60.00
G01 X8.5971 Y3.4949
G01 X8.4456 Y3.4028
G01 X8.4891 Y3.0819
G00 Z2.0000
G00 X8.3488 Y2.9074
G01 F30.00
G01 Z-0.0601
G01 F60.00
G01 X8.2980 Y3.2815
G01 X8.1562 Y3.1179
G01 X8.2268 Y2.5985
G00 Z2.0000
G00 X8.0187 Y2.9230
G01 F30.00
G01 Z-0.0601
G01 F60.00
G01 X8.0834 Y2.4466
G01 X8.2110 Y1.6535
G01 X8.4047 Y1.4725
G01 X8.3223 Y1.9849
G01 X8.0006 Y1.9377
G01 X7.9226 Y2.4228
G01 X7.8634 Y2.8582
G00 Z2.0000
G00 X7.6911 Y2.9198
G01 F30.00
G01 Z-0.0601
G01 F60.00
G01 X7.7618 Y2.3989
G01 X7.8284 Y1.9848
G00 Z2.0000
G00 X7.6762 Y1.9077
G01 F30.00
G01 Z-0.0601
G01 F60.00
G01 X7.6010 Y2.3751
G01 X7.5364 Y2.8509
G00 Z2.0000
G00 X7.4680 Y2.1788
G01 F30.00
G01 Z-0.0601
G01 F60.00
G01 X7.4897 Y2.0438
G00 Z2.0000
G00 X6.9079 Y1.5672
G01 F30.00
G01 Z-0.0601
G01 F60.00
G01 X6.9548 Y1.2760
G00 Z2.0000
G00 X7.1072 Y1.3521
G01 F30.00
G01 Z-0.0601
G01 F60.00
G01 X7.1019 Y1.3846
G01 X6.1241 Y1.3234
G01 X6.1081 Y1.4226
G00 Z2.0000
G00 X5.5376 Y1.8991
G01 F30.00
G01 Z-0.0601
G01 F60.00
G01 X5.5109 Y2.0651
G01 X5.4006 Y2.8767
G00 Z2.0000
G00 X5.2368 Y2.8754
G01 F30.00
G01 Z-0.0601
G01 F60.00
G01 X5.3501 Y2.0412
G01 X5.3589 Y1.9867
G00 Z2.0000
G00 X5.1988 Y1.9583
G01 F30.00
G01 Z-0.0601
G01 F60.00
G01 X5.1893 Y2.0174
G01 X5.0460 Y3.0727
G01 X4.8504 Y3.3051
G01 X5.0285 Y1.9935
G01 X5.0602 Y1.7966
G01 X4.9245 Y1.6170
G01 X4.8677 Y1.9697
G01 X4.8623 Y2.0096
G00 Z2.0000
G00 X4.7282 Y1.8140
G01 F30.00
G01 Z-0.0601
G01 F60.00
G01 X4.7816 Y1.4821
G01 X4.6329 Y1.3828
G01 X4.5845 Y1.6840
G00 Z2.0000
G00 X4.4341 Y1.5952
G01 F30.00
G01 Z-0.0601
G01 F60.00
G01 X4.4795 Y1.3135
G00 Z2.0000
G00 X4.3334 Y1.1984
G01 F30.00
G01 Z-0.0601
G01 F60.00
G01 X4.2786 Y1.5389
G00 Z2.0000
G00 X3.4831 Y1.3671
G01 F30.00
G01 Z-0.0601
G01 F60.00
G01 X3.4206 Y1.7557
G01 X3.2988 Y1.4899
G01 X3.2599 Y1.7312
G01 X3.2191 Y2.0320
G01 X3.1016 Y1.6921
G01 X3.0992 Y1.7073
G01 X2.9411 Y2.8710
G01 X3.0725 Y3.1122
G01 X3.1443 Y2.5823
G00 Z2.0000
G00 X3.2651 Y2.9011
G01 F30.00
G01 Z-0.0601
G01 F60.00
G01 X3.2342 Y3.1287
G01 X3.2173 Y3.2808
G01 X3.3672 Y3.4038
G01 X3.3955 Y3.1486
G01 X3.4050 Y3.0781
G00 Z2.0000
G00 X3.5537 Y3.1959
G01 F30.00
G01 Z-0.0601
G01 F60.00
G01 X3.5204 Y3.4963
G01 X3.6768 Y3.5611
G01 X3.7085 Y3.2752
G00 Z2.0000
G00 X3.8668 Y3.3224
G01 F30.00
G01 Z-0.0601
G01 F60.00
G01 X3.8363 Y3.5975
G01 X3.9978 Y3.6158
G01 X4.0284 Y3.3394
G00 Z2.0000
G00 X4.1933 Y3.3273
G01 F30.00
G01 Z-0.0601
G01 F60.00
G01 X4.1613 Y3.6158
G01 X4.3284 Y3.5830
G01 X4.3617 Y3.2830
G00 Z2.0000
G00 X4.5371 Y3.1966
G01 F30.00
G01 Z-0.0601
G01 F60.00
G01 X4.5247 Y3.2878
G01 X4.4982 Y3.5267
G01 X4.6714 Y3.4395
G01 X4.6860 Y3.3077
G01 X4.7223 Y3.0405
G00 Z2.0000
G00 X4.9581 Y2.5081
G01 F30.00
G01 Z-0.0601
G01 F60.00
G01 X4.9570 Y2.5194
G01 X4.9445 Y2.6027
G01 X4.9227 Y2.6899
G01 X4.8924 Y2.7746
G01 X4.8539 Y2.8558
G01 X4.8077 Y2.9330
G01 X4.7542 Y3.0052
G01 X4.6938 Y3.0718
G01 X4.6272 Y3.1322
G01 X4.5550 Y3.1857
G01 X4.4778 Y3.2319
G01 X4.3966 Y3.2704
G01 X4.3119 Y3.3007
G01 X4.2247 Y3.3225
G01 X4.1358 Y3.3357
G01 X4.0460 Y3.3401
G01 X3.9562 Y3.3357
G01 X3.8673 Y3.3225
G01 X3.7801 Y3.3007
G01 X3.6954 Y3.2704
G01 X3.6142 Y3.2319
G01 X3.5370 Y3.1857
G01 X3.4648 Y3.1322
G01 X3.3982 Y3.0718
G01 X3.3378 Y3.0052
G01 X3.2843 Y2.9330
G01 X3.2381 Y2.8558
G01 X3.1996 Y2.7746
G01 X3.1693 Y2.6899
G01 X3.1475 Y2.6027
G01 X3.1343 Y2.5138
G01 X3.1299 Y2.4240
G01 X3.1343 Y2.3342
G01 X3.1475 Y2.2453
G01 X3.1693 Y2.1581
G01 X3.1996 Y2.0734
G01 X3.2355 Y1.9972
G01 X3.2409 Y1.9872
G01 X3.2812 Y1.9199
G01 X3.2876 Y1.9104
G01 X3.3378 Y1.8428
G01 X3.3943 Y1.7803
G01 X3.4023 Y1.7723
G01 X3.4648 Y1.7158
G01 X3.5324 Y1.6656
G01 X3.5419 Y1.6592
G01 X3.6142 Y1.6161
G01 X3.6954 Y1.5776
G01 X3.7801 Y1.5473
G01 X3.8673 Y1.5255
G01 X3.9562 Y1.5123
G01 X4.0460 Y1.5079
G01 X4.1358 Y1.5123
G01 X4.2191 Y1.5245
G01 X4.2303 Y1.5268
G01 X4.3119 Y1.5473
G01 X4.3913 Y1.5756
G01 X4.4018 Y1.5799
G01 X4.4778 Y1.6161
G01 X4.5550 Y1.6623
G01 X4.6227 Y1.7123
G01 X4.6315 Y1.7196
G01 X4.6897 Y1.7723
G01 X4.6958 Y1.7783
G01 X4.7542 Y1.8428
G01 X4.8077 Y1.9150
G01 X4.8539 Y1.9922
G01 X4.8901 Y2.0682
G01 X4.8944 Y2.0787
G01 X4.9209 Y2.1527
G01 X4.9242 Y2.1636
G01 X4.9445 Y2.2453
G01 X4.9570 Y2.3286
G01 X4.9581 Y2.3399
G01 X4.9621 Y2.4240
G01 X4.9581 Y2.5081
G01 X5.5576 Y2.9290
G01 X5.6717 Y2.0889
G01 X5.6794 Y2.0409
G00 Z2.0000
G00 X6.2557 Y3.2778
G01 F30.00
G01 Z-0.0601
G01 F60.00
G01 X6.0468 Y3.4866
G01 X6.0471 Y3.4875
G01 X6.1824 Y3.5515
G01 X6.4101 Y3.6086
G01 X6.6446 Y3.6202
G01 X6.8768 Y3.5858
G01 X7.1035 Y3.5047
G01 X7.1229 Y3.4943
G01 X7.1252 Y3.4866
G01 X6.9163 Y3.2778
G01 X6.8519 Y3.3007
G01 X6.7647 Y3.3225
G01 X6.6758 Y3.3357
G01 X6.5860 Y3.3401
G01 X6.4962 Y3.3357
G01 X6.4073 Y3.3225
G01 X6.3201 Y3.3007
G01 X6.2557 Y3.2778
G00 Z2.0000
G00 X6.1849 Y3.3486
G01 F30.00
G01 Z-0.0601
G01 F60.00
G01 X6.1816 Y3.3735
G01 X6.1798 Y3.4034
G01 X6.1798 Y3.4233
G01 X6.1816 Y3.4532
G01 X6.1856 Y3.4828
G01 X6.1895 Y3.5024
G01 X6.1971 Y3.5313
G01 X6.2061 Y3.5575
G01 X6.4421 Y3.6102
G01 X6.4267 Y3.5980
G01 X6.4179 Y3.5900
G01 X6.4094 Y3.5815
G01 X6.3975 Y3.5680
G01 X6.3902 Y3.5586
G01 X6.3833 Y3.5488
G01 X6.3769 Y3.5387
G01 X6.3710 Y3.5283
G01 X6.3631 Y3.5122
G01 X6.3564 Y3.4955
G01 X6.3527 Y3.4841
G01 X6.3495 Y3.4726
G01 X6.3458 Y3.4551
G01 X6.3440 Y3.4432
G01 X6.3429 Y3.4313
G01 X6.3422 Y3.4134
G01 X6.3425 Y3.4014
G01 X6.3434 Y3.3895
G01 X6.3458 Y3.3717
G01 X6.3481 Y3.3600
G01 X6.3510 Y3.3483
G01 X6.3564 Y3.3312
G01 X6.3643 Y3.3119
G00 Z2.0000
G00 X6.5540 Y3.3387
G01 F30.00
G01 Z-0.0601
G01 F60.00
G01 X6.5477 Y3.3417
G01 X6.5425 Y3.3447
G01 X6.5376 Y3.3481
G01 X6.5314 Y3.3532
G01 X6.5271 Y3.3573
G01 X6.5219 Y3.3634
G01 X6.5184 Y3.3682
G01 X6.5143 Y3.3751
G01 X6.5117 Y3.3804
G01 X6.5088 Y3.3879
G01 X6.5067 Y3.3956
G01 X6.5056 Y3.4014
G01 X6.5050 Y3.4074
G01 X6.5048 Y3.4154
G01 X6.5051 Y3.4213
G01 X6.5063 Y3.4292
G01 X6.5077 Y3.4351
G01 X6.5102 Y3.4426
G01 X6.5134 Y3.4499
G01 X6.5163 Y3.4552
G01 X6.5196 Y3.4602
G01 X6.5245 Y3.4665
G01 X6.5285 Y3.4708
G01 X6.5344 Y3.4762
G01 X6.5392 Y3.4798
G01 X6.5459 Y3.4841
G01 X6.5531 Y3.4877
G01 X6.5586 Y3.4899
G01 X6.5663 Y3.4922
G01 X6.5721 Y3.4934
G01 X6.5800 Y3.4944
G01 X6.5860 Y3.4946
G01 X6.5920 Y3.4944
G01 X6.5999 Y3.4934
G01 X6.6057 Y3.4922
G01 X6.6134 Y3.4899
G01 X6.6189 Y3.4877
G01 X6.6261 Y3.4841
G01 X6.6312 Y3.4809
G01 X6.6376 Y3.4762
G01 X6.6435 Y3.4708
G01 X6.6475 Y3.4665
G01 X6.6513 Y3.4618
G01 X6.6557 Y3.4552
G01 X6.6586 Y3.4499
G01 X6.6618 Y3.4426
G01 X6.6643 Y3.4351
G01 X6.6657 Y3.4292
G01 X6.6669 Y3.4213
G01 X6.6672 Y3.4154
G01 X6.6670 Y3.4074
G01 X6.6664 Y3.4014
G01 X6.6653 Y3.3956
G01 X6.6632 Y3.3879
G01 X6.6603 Y3.3804
G01 X6.6577 Y3.3751
G01 X6.6536 Y3.3682
G01 X6.6501 Y3.3634
G01 X6.6449 Y3.3573
G01 X6.6406 Y3.3532
G01 X6.6344 Y3.3481
G01 X6.6295 Y3.3447
G01 X6.6243 Y3.3417
G01 X6.6180 Y3.3387
G00 Z2.0000
G00 X6.8077 Y3.3119
G01 F30.00
G01 Z-0.0601
G01 F60.00
G01 X6.8156 Y3.3312
G01 X6.8210 Y3.3483
G01 X6.8239 Y3.3600
G01 X6.8262 Y3.3717
G01 X6.8286 Y3.3895
G01 X6.8295 Y3.4014
G01 X6.8298 Y3.4134
G01 X6.8291 Y3.4313
G01 X6.8280 Y3.4432
G01 X6.8262 Y3.4551
G01 X6.8225 Y3.4726
G01 X6.8193 Y3.4841
G01 X6.8156 Y3.4955
G01 X6.8089 Y3.5122
G01 X6.8010 Y3.5283
G01 X6.7951 Y3.5387
G01 X6.7887 Y3.5488
G01 X6.7782 Y3.5634
G01 X6.7706 Y3.5726
G01 X6.7626 Y3.5815
G01 X6.7497 Y3.5940
G01 X6.7343 Y3.6069
G01 X6.9675 Y3.5533
G01 X6.9749 Y3.5313
G01 X6.9825 Y3.5024
G01 X6.9880 Y3.4730
G01 X6.9904 Y3.4532
G01 X6.9922 Y3.4233
G01 X6.9922 Y3.4034
G01 X6.9904 Y3.3735
G01 X6.9871 Y3.3486
G00 Z2.0000
G00 X8.5277 Y1.7312
G01 F30.00
G01 Z-0.0601
G01 F60.00
G01 X8.5880 Y1.3568
G00 Z2.0000
G00 X8.7653 Y1.2778
G01 F30.00
G01 Z-0.0601
G01 F60.00
G01 X8.7123 Y1.6074
G00 Z2.0000
G00 X10.0381 Y2.5081
G01 F30.00
G01 Z-0.0601
G01 F60.00
G01 X10.0370 Y2.5194
G01 X10.0245 Y2.6027
G01 X10.0027 Y2.6899
G01 X9.9724 Y2.7746
G01 X9.9339 Y2.8558
G01 X9.8877 Y2.9330
G01 X9.8342 Y3.0052
G01 X9.7738 Y3.0718
G01 X9.7072 Y3.1322
G01 X9.6350 Y3.1857
G01 X9.5578 Y3.2319
G01 X9.4766 Y3.2704
G01 X9.3919 Y3.3007
G01 X9.3047 Y3.3225
G01 X9.2158 Y3.3357
G01 X9.1260 Y3.3401
G01 X9.0362 Y3.3357
G01 X8.9473 Y3.3225
G01 X8.8601 Y3.3007
G01 X8.7754 Y3.2704
G01 X8.6942 Y3.2319
G01 X8.6170 Y3.1857
G01 X8.5448 Y3.1322
G01 X8.4782 Y3.0718
G01 X8.4178 Y3.0052
G01 X8.3643 Y2.9330
G01 X8.3181 Y2.8558
G01 X8.2796 Y2.7746
G01 X8.2493 Y2.6899
G01 X8.2275 Y2.6027
G01 X8.2143 Y2.5138
G01 X8.2099 Y2.4240
G01 X8.2143 Y2.3342
G01 X8.2275 Y2.2453
G01 X8.2493 Y2.1581
G01 X8.2796 Y2.0734
G01 X8.3181 Y1.9922
G01 X8.3643 Y1.9150
G01 X8.4178 Y1.8428
G01 X8.4782 Y1.7762
G01 X8.5448 Y1.7158
G01 X8.6170 Y1.6623
G01 X8.6942 Y1.6161
G01 X8.7754 Y1.5776
G01 X8.8601 Y1.5473
G01 X8.9473 Y1.5255
G01 X9.0362 Y1.5123
G01 X9.1260 Y1.5079
G01 X9.2158 Y1.5123
G01 X9.3047 Y1.5255
G01 X9.3919 Y1.5473
G01 X9.4766 Y1.5776
G01 X9.5578 Y1.6161
G01 X9.6350 Y1.6623
G01 X9.7072 Y1.7158
G01 X9.7738 Y1.7762
G01 X9.8342 Y1.8428
G01 X9.8877 Y1.9150
G01 X9.9339 Y1.9922
G01 X9.9724 Y2.0734
G01 X10.0027 Y2.1581
G01 X10.0245 Y2.2453
G01 X10.0377 Y2.3342
G01 X10.0421 Y2.4240
G01 X10.0381 Y2.5081
G00 Z2.0000
G00 X10.3215 Y2.8748
G01 F30.00
G01 Z-0.0601
G01 F60.00
G01 X10.3343 Y2.7805
G01 X10.5273 Y1.5812
G01 X10.7496 Y0.3870
G01 X10.8176 Y0.0660
G01 X10.6514 Y0.0660
G01 X10.5902 Y0.3553
G01 X10.3671 Y1.5535
G01 X10.1735 Y2.7567
G01 X10.1318 Y3.0640
G00 Z2.0000
G00 X10.4848 Y2.8799
G01 F30.00
G01 Z-0.0601
G01 F60.00
G01 X10.4951 Y2.8044
G01 X10.6874 Y1.6090
G01 X10.9090 Y0.4188
G01 X10.9837 Y0.0660
G01 X11.1498 Y0.0660
G01 X11.0684 Y0.4505
G01 X10.8476 Y1.6368
G01 X10.6559 Y2.8282
G01 X10.6300 Y3.0187
G01 X10.7678 Y3.2114
G01 X10.8166 Y2.8521
G01 X10.8267 Y2.7898
G00 Z2.0000
G00 X10.9596 Y3.0072
G01 F30.00
G01 Z-0.0601
G01 F60.00
G01 X10.8742 Y3.6362
G01 X11.1497 Y4.0228
G01 X11.1387 Y4.1036
G01 X11.0780 Y4.6510
G00 Z2.0000
G00 X11.1497 Y4.5432
G01 F30.00
G01 Z-0.0601
G01 F60.00
G01 X11.1497 Y3.1804
G01 X11.0848 Y3.1322
G01 X11.0223 Y3.0757
G01 X11.0143 Y3.0677
G01 X10.9578 Y3.0052
G01 X10.9043 Y2.9330
G01 X10.8609 Y2.8608
G01 X10.8555 Y2.8508
G01 X10.8196 Y2.7746
G01 X10.7911 Y2.6953
G01 X10.7878 Y2.6844
G01 X10.7675 Y2.6027
G01 X10.7543 Y2.5138
G01 X10.7499 Y2.4240
G01 X10.7539 Y2.3399
G01 X10.7550 Y2.3286
G01 X10.7665 Y2.2509
G01 X10.7681 Y2.2425
G01 X10.7893 Y2.1581
G01 X10.8196 Y2.0734
G01 X10.8581 Y1.9922
G01 X10.9043 Y1.9150
G01 X10.9578 Y1.8428
G01 X11.0182 Y1.7762
G01 X11.0848 Y1.7158
G01 X11.1570 Y1.6623
G01 X11.2342 Y1.6161
G01 X11.3154 Y1.5776
G01 X11.4001 Y1.5473
G01 X11.4873 Y1.5255
G01 X11.5762 Y1.5123
G01 X11.6660 Y1.5079
G01 X11.7558 Y1.5123
G01 X11.8391 Y1.5245
G01 X11.8475 Y1.5261
G01 X11.9319 Y1.5473
G01 X12.0113 Y1.5756
G01 X12.0218 Y1.5799
G01 X12.0978 Y1.6161
G01 X12.1750 Y1.6623
G01 X12.2427 Y1.7123
G01 X12.2515 Y1.7196
G01 X12.3097 Y1.7723
G01 X12.3177 Y1.7803
G01 X12.3742 Y1.8428
G01 X12.4277 Y1.9150
G01 X12.4739 Y1.9922
G01 X12.5101 Y2.0682
G01 X12.5144 Y2.0787
G01 X12.5409 Y2.1527
G01 X12.5442 Y2.1636
G01 X12.5645 Y2.2453
G01 X12.5774 Y2.3314
G01 X12.5781 Y2.3399
G01 X12.5820 Y2.4183
G01 X12.5820 Y2.4297
G01 X12.5777 Y2.5138
G01 X12.5655 Y2.5971
G01 X12.5632 Y2.6083
G01 X12.5427 Y2.6899
G01 X12.5144 Y2.7693
G01 X12.5101 Y2.7798
G01 X12.4739 Y2.8558
G01 X12.4308 Y2.9281
G01 X12.4244 Y2.9376
G01 X12.3742 Y3.0052
G01 X12.3177 Y3.0677
G01 X12.3097 Y3.0757
G01 X12.2472 Y3.1322
G01 X12.1823 Y3.1804
G01 X12.1823 Y4.5432
G01 X12.2198 Y4.5939
G01 X12.2534 Y4.6500
G01 X12.2814 Y4.7091
G01 X12.3016 Y4.7652
G01 X12.3049 Y4.7761
G01 X12.3193 Y4.8341
G01 X12.3282 Y4.8931
G01 X12.3293 Y4.9044
G01 X12.3320 Y4.9583
G01 X12.3320 Y4.9697
G01 X12.3289 Y5.0293
G01 X12.3198 Y5.0911
G01 X12.3181 Y5.0995
G01 X12.3034 Y5.1574
G01 X12.2814 Y5.2189
G01 X12.2534 Y5.2780
G01 X12.2229 Y5.3293
G01 X12.2166 Y5.3387
G01 X12.1809 Y5.3866
G01 X12.1409 Y5.4309
G01 X12.1329 Y5.4389
G01 X12.0929 Y5.4752
G01 X12.0841 Y5.4824
G01 X12.0361 Y5.5178
G01 X11.9800 Y5.5514
G01 X11.9209 Y5.5794
G01 X11.8648 Y5.5996
G01 X11.8539 Y5.6029
G01 X11.7959 Y5.6173
G01 X11.7369 Y5.6262
G01 X11.7256 Y5.6273
G01 X11.6717 Y5.6300
G01 X11.6603 Y5.6300
G01 X11.6007 Y5.6269
G01 X11.5361 Y5.6173
G01 X11.4726 Y5.6014
G01 X11.4164 Y5.5814
G01 X11.4059 Y5.5771
G01 X11.3520 Y5.5514
G01 X11.3007 Y5.5209
G01 X11.2913 Y5.5146
G01 X11.2479 Y5.4824
G01 X11.2391 Y5.4752
G01 X11.1950 Y5.4350
G01 X11.1511 Y5.3866
G01 X11.1122 Y5.3341
G01 X11.0814 Y5.2830
G01 X11.0760 Y5.2729
G01 X11.0506 Y5.2189
G01 X11.0304 Y5.1628
G01 X11.0271 Y5.1519
G01 X11.0139 Y5.0995
G01 X11.0117 Y5.0883
G01 X11.0031 Y5.0293
G01 X10.9999 Y4.9640
G01 X11.0031 Y4.8987
G01 X11.0117 Y4.8397
G01 X11.0139 Y4.8285
G01 X11.0286 Y4.7706
G01 X11.0486 Y4.7144
G01 X11.0529 Y4.7039
G01 X11.0760 Y4.6551
G01 X11.0814 Y4.6450
G01 X11.1122 Y4.5939
G01 X11.1497 Y4.5432
G01 X10.7295 Y4.8442
G01 X10.7242 Y4.8927
G01 X11.0239 Y5.1392
G01 X11.0075 Y5.2871
G01 X10.9797 Y5.6097
G01 X11.1316 Y5.7397
G01 X11.1611 Y5.3978
G00 Z2.0000
G00 X11.3130 Y5.5282
G01 F30.00
G01 Z-0.0601
G01 F60.00
G01 X11.2873 Y5.8266
G01 X11.4458 Y5.8805
G01 X11.4699 Y5.6005
G00 Z2.0000
G00 X11.6306 Y5.6285
G01 F30.00
G01 Z-0.0601
G01 F60.00
G01 X11.6067 Y5.9058
G01 X11.7700 Y5.9036
G01 X11.7947 Y5.6175
G00 Z2.0000
G00 X11.9628 Y5.5598
G01 F30.00
G01 Z-0.0601
G01 F60.00
G01 X11.9360 Y5.8706
G01 X12.1051 Y5.8016
G01 X12.1366 Y5.4354
G01 X12.2784 Y5.6836
G01 X12.3015 Y5.4146
G01 X12.4293 Y4.2628
G01 X12.4578 Y4.0524
G01 X12.1823 Y3.6658
G01 X12.2558 Y3.1245
G00 Z2.0000
G00 X12.4579 Y2.8829
G01 F30.00
G01 Z-0.0601
G01 F60.00
G01 X12.4244 Y3.0906
G01 X12.2679 Y4.2429
G01 X12.2276 Y4.6066
G01 X12.5510 Y4.6395
G01 X12.4633 Y5.4305
G01 X12.4598 Y5.4713
G00 Z2.0000
G00 X13.4142 Y5.7545
G01 F30.00
G01 Z-0.0601
G01 F60.00
G01 X13.4338 Y5.5261
G01 X13.5585 Y4.4020
G01 X13.6897 Y3.4359
G00 Z2.0000
G00 X13.6897 Y3.1804
G01 F30.00
G01 Z-0.0601
G01 F60.00
G01 X13.6248 Y3.1322
G01 X13.5582 Y3.0718
G01 X13.4978 Y3.0052
G01 X13.4443 Y2.9330
G01 X13.3981 Y2.8558
G01 X13.3596 Y2.7746
G01 X13.3293 Y2.6899
G01 X13.3075 Y2.6027
G01 X13.2943 Y2.5138
G01 X13.2899 Y2.4240
G01 X13.2943 Y2.3342
G01 X13.3075 Y2.2453
G01 X13.3293 Y2.1581
G01 X13.3596 Y2.0734
G01 X13.3981 Y1.9922
G01 X13.4443 Y1.9150
G01 X13.4978 Y1.8428
G01 X13.5582 Y1.7762
G01 X13.6248 Y1.7158
G01 X13.6970 Y1.6623
G01 X13.7742 Y1.6161
G01 X13.8554 Y1.5776
G01 X13.9401 Y1.5473
G01 X14.0273 Y1.5255
G01 X14.1162 Y1.5123
G01 X14.2060 Y1.5079
G01 X14.2958 Y1.5123
G01 X14.3847 Y1.5255
G01 X14.4719 Y1.5473
G01 X14.5566 Y1.5776
G01 X14.6378 Y1.6161
G01 X14.7150 Y1.6623
G01 X14.7827 Y1.7123
G01 X14.7915 Y1.7196
G01 X14.8538 Y1.7762
G01 X14.9104 Y1.8385
G01 X14.9177 Y1.8473
G01 X14.9677 Y1.9150
G01 X15.0139 Y1.9922
G01 X15.0501 Y2.0682
G01 X15.0544 Y2.0787
G01 X15.0827 Y2.1581
G01 X15.1032 Y2.2397
G01 X15.1055 Y2.2509
G01 X15.1177 Y2.3342
G01 X15.1221 Y2.4240
G01 X15.1181 Y2.5081
G01 X15.1170 Y2.5194
G01 X15.1045 Y2.6027
G01 X15.0842 Y2.6844
G01 X15.0809 Y2.6953
G01 X15.0524 Y2.7746
G01 X15.0139 Y2.8558
G01 X14.9677 Y2.9330
G01 X14.9177 Y3.0007
G01 X14.9104 Y3.0095
G01 X14.8577 Y3.0677
G01 X14.8497 Y3.0757
G01 X14.7872 Y3.1322
G01 X14.7223 Y3.1804
G01 X14.7223 Y5.7661
G01 X18.8455 Y9.8894
G01 X18.9079 Y9.8987
G01 X18.9714 Y9.9146
G01 X19.0329 Y9.9366
G01 X19.0920 Y9.9646
G01 X19.1481 Y9.9982
G01 X19.2006 Y10.0371
G01 X19.2490 Y10.0810
G01 X19.2929 Y10.1294
G01 X19.3318 Y10.1819
G01 X19.3654 Y10.2380
G01 X19.3934 Y10.2971
G01 X19.4154 Y10.3586
G01 X19.4313 Y10.4221
G01 X19.4409 Y10.4867
G01 X19.4441 Y10.5520
G01 X19.4413 Y10.6116
G01 X19.4402 Y10.6229
G01 X19.4313 Y10.6819
G01 X19.4169 Y10.7399
G01 X19.4136 Y10.7508
G01 X19.3954 Y10.8016
G01 X19.3911 Y10.8121
G01 X19.3654 Y10.8660
G01 X19.3349 Y10.9173
G01 X19.3286 Y10.9267
G01 X19.2929 Y10.9746
G01 X19.2490 Y11.0230
G01 X19.2006 Y11.0669
G01 X19.1504 Y11.1042
G01 X19.1433 Y11.1089
G01 X19.0920 Y11.1394
G01 X19.0381 Y11.1651
G01 X19.0276 Y11.1694
G01 X18.9768 Y11.1876
G01 X18.9659 Y11.1909
G01 X18.9079 Y11.2053
G01 X18.8433 Y11.2149
G01 X18.7780 Y11.2181
G01 X18.7184 Y11.2153
G01 X18.7071 Y11.2142
G01 X18.6537 Y11.2063
G01 X18.6425 Y11.2041
G01 X18.5846 Y11.1894
G01 X18.5231 Y11.1674
G01 X18.4640 Y11.1394
G01 X18.4127 Y11.1089
G01 X18.4033 Y11.1026
G01 X18.3599 Y11.0704
G01 X18.3511 Y11.0632
G01 X18.3070 Y11.0230
G01 X18.2631 Y10.9746
G01 X18.2242 Y10.9221
G01 X18.1906 Y10.8660
G01 X18.1626 Y10.8069
G01 X18.1406 Y10.7454
G01 X18.1247 Y10.6819
G01 X18.1154 Y10.6195
G01 X13.8409 Y6.3451
G01 X13.8069 Y6.3075
G01 X13.7783 Y6.2692
G01 X13.7737 Y6.2620
G01 X13.7535 Y6.2283
G01 X13.7481 Y6.2183
G01 X13.7290 Y6.1776
G01 X13.7119 Y6.1299
G01 X13.7009 Y6.0863
G01 X13.6986 Y6.0751
G01 X13.6922 Y6.0306
G01 X13.6897 Y5.9828
G01 X13.6897 Y3.1804
G00 Z2.0000
G00 X13.5770 Y3.0890
G01 F30.00
G01 Z-0.0601
G01 F60.00
G01 X13.5499 Y3.2575
G01 X13.4142 Y4.2570
G01 X13.6897 Y4.6934
G01 X13.5956 Y5.5420
G01 X13.5232 Y6.3824
G01 X13.6706 Y6.5653
G01 X13.7090 Y6.1189
G00 Z2.0000
G00 X13.8518 Y6.3559
G01 F30.00
G01 Z-0.0601
G01 F60.00
G01 X13.8231 Y6.6887
G01 X13.8215 Y6.7153
G01 X13.9749 Y6.8687
G01 X13.9852 Y6.7007
G01 X14.0020 Y6.5061
G01 X14.1521 Y6.6563
G01 X14.1473 Y6.7127
G01 X14.1283 Y7.0221
G01 X14.2817 Y7.1755
G01 X14.3042 Y6.8084
G01 X14.4577 Y6.9618
G01 X14.4351 Y7.3289
G00 Z2.0000
G00 X14.5885 Y7.4823
G01 F30.00
G01 Z-0.0601
G01 F60.00
G01 X14.6111 Y7.1152
G01 X14.7645 Y7.2686
G01 X14.7419 Y7.6357
G01 X14.8953 Y7.7892
G01 X14.9179 Y7.4220
G01 X15.0713 Y7.5755
G01 X15.0532 Y7.8694
G01 X15.0505 Y7.9443
G00 Z2.0000
G00 X15.2073 Y8.1012
G01 F30.00
G01 Z-0.0601
G01 F60.00
G01 X15.2156 Y7.8774
G01 X15.2247 Y7.7289
G01 X15.3781 Y7.8823
G01 X15.3642 Y8.2580
G01 X15.5211 Y8.4149
G01 X15.5349 Y8.0391
G01 X15.6918 Y8.1959
G01 X15.6779 Y8.5717
G01 X15.8348 Y8.7286
G01 X15.8486 Y8.3528
G01 X16.0055 Y8.5096
G01 X15.9916 Y8.8855
G00 Z2.0000
G00 X16.1499 Y9.0437
G01 F30.00
G01 Z-0.0601
G01 F60.00
G01 X16.1507 Y8.9837
G01 X16.1623 Y8.6665
G01 X16.3192 Y8.8234
G01 X16.3132 Y8.9877
G01 X16.3105 Y9.2043
G00 Z2.0000
G00 X16.4711 Y9.3649
G01 F30.00
G01 Z-0.0601
G01 F60.00
G01 X16.4756 Y8.9916
G01 X16.4761 Y8.9802
G01 X16.6364 Y9.1405
G01 X16.6316 Y9.5255
G00 Z2.0000
G00 X16.7922 Y9.6860
G01 F30.00
G01 Z-0.0601
G01 F60.00
G01 X16.7969 Y9.3011
G01 X16.9575 Y9.4617
G01 X16.9528 Y9.8466
G01 X17.1133 Y10.0072
G01 X17.1181 Y9.6222
G01 X17.2786 Y9.7828
G01 X17.2754 Y10.0427
G01 X17.2770 Y10.1708
G00 Z2.0000
G00 X17.4416 Y10.3354
G01 F30.00
G01 Z-0.0601
G01 F60.00
G01 X17.4380 Y10.0427
G01 X17.4392 Y9.9434
G01 X17.6013 Y10.1055
G01 X17.6061 Y10.5000
G01 X17.7707 Y10.6645
G01 X17.7659 Y10.2700
G01 X17.9304 Y10.4346
G01 X17.9371 Y10.9831
G01 X18.1064 Y11.2123
G01 X18.1006 Y11.0539
G01 X18.0950 Y10.5991
G00 Z2.0000
G00 X18.2621 Y10.9733
G01 F30.00
G01 Z-0.0601
G01 F60.00
G01 X18.2630 Y11.0499
G01 X18.2740 Y11.3480
G01 X18.4397 Y11.4313
G01 X18.4282 Y11.1181
G00 Z2.0000
G00 X18.5935 Y11.1918
G01 F30.00
G01 Z-0.0601
G01 F60.00
G01 X18.6041 Y11.4777
G00 Z2.0000
G00 X18.7681 Y11.5149
G01 F30.00
G01 Z-0.0601
G01 F60.00
G01 X18.7571 Y11.2172
G00 Z2.0000
G00 X18.9192 Y11.2026
G01 F30.00
G01 Z-0.0601
G01 F60.00
G01 X18.9495 Y12.0246
G01 X18.9591 Y12.1808
G01 X19.1125 Y12.0273
G01 X19.1118 Y12.0167
G01 X19.0797 Y11.1454
G00 Z2.0000
G00 X19.2382 Y11.0329
G01 F30.00
G01 Z-0.0601
G01 F60.00
G01 X19.2691 Y11.8707
G01 X19.4260 Y11.7139
G01 X19.4005 Y11.0220
G01 X19.3977 Y10.7953
G01 X19.7186 Y10.4529
G01 X19.7255 Y11.0140
G01 X19.7397 Y11.4002
G01 X19.5828 Y11.5570
G01 X19.5630 Y11.0180
G01 X19.5510 Y10.0427
G01 X19.5514 Y10.0141
G01 X19.3910 Y9.8331
G01 X19.3885 Y10.0427
G01 X19.3915 Y10.2929
G00 Z2.0000
G00 X19.2261 Y10.0601
G01 F30.00
G01 Z-0.0601
G01 F60.00
G01 X19.2259 Y10.0427
G01 X19.2299 Y9.7212
G01 X19.0682 Y9.6528
G01 X19.0645 Y9.9514
G00 Z2.0000
G00 X18.9026 Y9.8978
G01 F30.00
G01 Z-0.0601
G01 F60.00
G01 X18.9068 Y9.5609
G00 Z2.0000
G00 X18.7462 Y9.4004
G01 F30.00
G01 Z-0.0601
G01 F60.00
G01 X18.7415 Y9.7853
G01 X18.5809 Y9.6247
G01 X18.5856 Y9.2398
G00 Z2.0000
G00 X18.4250 Y9.0792
G01 F30.00
G01 Z-0.0601
G01 F60.00
G01 X18.4203 Y9.4642
G01 X18.2598 Y9.3036
G01 X18.2630 Y9.0355
G01 X18.2672 Y8.9214
G01 X18.1104 Y8.7646
G01 X18.1006 Y9.0315
G01 X18.0992 Y9.1430
G01 X17.9397 Y8.9835
G01 X17.9535 Y8.6077
G01 X17.7967 Y8.4508
G01 X17.7828 Y8.8267
G01 X17.6260 Y8.6698
G01 X17.6398 Y8.2940
G01 X17.4829 Y8.1371
G01 X17.4691 Y8.5129
G01 X17.3122 Y8.3561
G01 X17.3261 Y7.9803
G00 Z2.0000
G00 X17.1727 Y7.8269
G01 F30.00
G01 Z-0.0601
G01 F60.00
G01 X17.1637 Y7.9731
G01 X17.1554 Y8.1992
G01 X16.9985 Y8.0424
G01 X17.0014 Y7.9651
G01 X17.0193 Y7.6735
G01 X16.8659 Y7.5200
G01 X16.8433 Y7.8872
G01 X16.6899 Y7.7338
G01 X16.7125 Y7.3666
G01 X16.5591 Y7.2132
G01 X16.5365 Y7.5803
G01 X16.3831 Y7.4269
G01 X16.4056 Y7.0598
G00 Z2.0000
G00 X16.2522 Y6.9064
G01 F30.00
G01 Z-0.0601
G01 F60.00
G01 X16.2297 Y7.2735
G01 X16.0763 Y7.1201
G01 X16.0925 Y6.8561
G01 X16.1012 Y6.7553
G00 Z2.0000
G00 X15.9510 Y6.6052
G01 F30.00
G01 Z-0.0601
G01 F60.00
G01 X15.9304 Y6.8442
G01 X15.9229 Y6.9667
G01 X15.7699 Y6.8137
G01 X15.8008 Y6.4550
G00 Z2.0000
G00 X15.6506 Y6.3048
G01 F30.00
G01 Z-0.0601
G01 F60.00
G01 X15.6197 Y6.6635
G01 X15.4695 Y6.5133
G01 X15.5004 Y6.1546
G00 Z2.0000
G00 X15.3502 Y6.0044
G01 F30.00
G01 Z-0.0601
G01 F60.00
G01 X15.3193 Y6.3631
G01 X15.1691 Y6.2129
G01 X15.2000 Y5.8542
G00 Z2.0000
G00 X15.0500 Y5.7017
G01 F30.00
G01 Z-0.0601
G01 F60.00
G01 X15.0189 Y6.0628
G01 X14.8687 Y5.9126
G01 X14.8896 Y5.6695
G01 X14.9978 Y4.6939
G01 X14.7223 Y4.2866
G01 X14.8362 Y3.4483
G01 X14.9060 Y3.0144
G01 X15.0228 Y3.3113
G01 X15.1715 Y2.3871
G01 X15.3727 Y1.3066
G01 X15.6003 Y0.2314
G01 X15.6396 Y0.0660
G01 X15.8066 Y0.0660
G01 X15.7589 Y0.2670
G01 X15.5321 Y1.3383
G01 X15.3317 Y2.4149
G01 X15.2321 Y3.0335
G00 Z2.0000
G00 X15.4230 Y2.8690
G01 F30.00
G01 Z-0.0601
G01 F60.00
G01 X15.4314 Y2.8672
G01 X15.4493 Y2.8646
G01 X15.4578 Y2.8638
G01 X15.4760 Y2.8631
G01 X15.4942 Y2.8638
G01 X15.5027 Y2.8646
G01 X15.5206 Y2.8672
G01 X15.5290 Y2.8690
G01 X15.5466 Y2.8735
G01 X15.5637 Y2.8795
G01 X15.5717 Y2.8827
G01 X15.5855 Y2.8892
G01 X15.5931 Y2.8932
G01 X15.6087 Y2.9025
G01 X15.6158 Y2.9073
G01 X15.6303 Y2.9183
G01 X15.6459 Y2.9323
G01 X15.6519 Y2.9384
G01 X15.6640 Y2.9520
G01 X15.6766 Y2.9688
G01 X15.8202 Y3.1838
G01 X15.9862 Y3.3498
G01 X16.1815 Y3.4802
G01 X16.3984 Y3.5700
G01 X16.6286 Y3.6158
G01 X16.8634 Y3.6158
G01 X17.0936 Y3.5700
G01 X17.3105 Y3.4802
G01 X17.5058 Y3.3498
G01 X17.6718 Y3.1838
G01 X17.8154 Y2.9688
G01 X17.8263 Y2.9542
G01 X17.8318 Y2.9477
G01 X17.8441 Y2.9343
G01 X17.8574 Y2.9220
G01 X17.8662 Y2.9148
G01 X17.8833 Y2.9025
G01 X17.9014 Y2.8918
G01 X17.9229 Y2.8816
G01 X17.9454 Y2.8735
G01 X17.9630 Y2.8690
G01 X17.9714 Y2.8672
G01 X17.9922 Y2.8642
G01 X18.0160 Y2.8631
G01 X18.0398 Y2.8642
G01 X18.0634 Y2.8677
G01 X18.0866 Y2.8735
G01 X18.1091 Y2.8816
G01 X18.1306 Y2.8918
G01 X18.1511 Y2.9041
G01 X18.1658 Y2.9148
G01 X18.1724 Y2.9201
G01 X18.1879 Y2.9343
G01 X18.2002 Y2.9477
G01 X18.2057 Y2.9542
G01 X18.2166 Y2.9688
G01 X18.3602 Y3.1838
G01 X18.5262 Y3.3498
G01 X18.7215 Y3.4802
G01 X18.9384 Y3.5700
G01 X19.1686 Y3.6158
G01 X19.4034 Y3.6158
G01 X19.6336 Y3.5700
G01 X19.8505 Y3.4802
G01 X20.0458 Y3.3498
G01 X20.2118 Y3.1838
G01 X20.3554 Y2.9688
G01 X20.3699 Y2.9498
G01 X20.3821 Y2.9363
G01 X20.3882 Y2.9304
G01 X20.4017 Y2.9183
G01 X20.4186 Y2.9057
G01 X20.4257 Y2.9010
G01 X20.4439 Y2.8905
G01 X20.4629 Y2.8816
G01 X20.4800 Y2.8753
G01 X20.4909 Y2.8720
G01 X20.5114 Y2.8672
G01 X20.5350 Y2.8640
G01 X20.5532 Y2.8631
G01 X20.5617 Y2.8632
G01 X20.5798 Y2.8642
G01 X20.5978 Y2.8668
G01 X20.6062 Y2.8683
G01 X20.6211 Y2.8720
G01 X20.6293 Y2.8744
G01 X20.6464 Y2.8805
G01 X20.6681 Y2.8905
G01 X20.6756 Y2.8946
G01 X20.6911 Y2.9041
G01 X20.7103 Y2.9183
G01 X20.7259 Y2.9323
G01 X20.7319 Y2.9384
G01 X20.7440 Y2.9520
G01 X20.7566 Y2.9688
G01 X20.9002 Y3.1838
G01 X21.0662 Y3.3498
G01 X21.2615 Y3.4802
G01 X21.4784 Y3.5700
G01 X21.7086 Y3.6158
G01 X21.9434 Y3.6158
G01 X22.1736 Y3.5700
G01 X22.3905 Y3.4802
G01 X22.5858 Y3.3498
G01 X22.7518 Y3.1838
G01 X22.8938 Y2.9711
G01 X22.9045 Y2.9565
G01 X22.9099 Y2.9498
G01 X22.9201 Y2.9384
G01 X22.9282 Y2.9304
G01 X22.9440 Y2.9165
G01 X22.9633 Y2.9025
G01 X22.9814 Y2.8918
G01 X23.0003 Y2.8827
G01 X23.0200 Y2.8753
G01 X23.0309 Y2.8720
G01 X23.0486 Y2.8677
G01 X23.0722 Y2.8642
G01 X23.0960 Y2.8631
G01 X23.1142 Y2.8638
G01 X23.1255 Y2.8649
G01 X23.1462 Y2.8683
G01 X23.1666 Y2.8735
G01 X23.1891 Y2.8816
G01 X23.2106 Y2.8918
G01 X23.2263 Y2.9010
G01 X23.2358 Y2.9073
G01 X23.2524 Y2.9201
G01 X23.2679 Y2.9343
G01 X23.2802 Y2.9477
G01 X23.2857 Y2.9542
G01 X23.2966 Y2.9688
G01 X23.4402 Y3.1838
G01 X23.5069 Y3.2506
G01 X23.5207 Y3.2664
G01 X23.5347 Y3.2857
G01 X23.5455 Y3.3038
G01 X23.5533 Y3.3201
G01 X23.5567 Y3.3280
G01 X23.5637 Y3.3478
G01 X23.5689 Y3.3682
G01 X23.5705 Y3.3766
G01 X23.5730 Y3.3946
G01 X23.5741 Y3.4155
G01 X23.5741 Y8.4469
G01 X23.5730 Y8.4679
G01 X23.5695 Y8.4915
G01 X23.5637 Y8.5146
G01 X23.5577 Y8.5318
G01 X23.5545 Y8.5397
G01 X23.5455 Y8.5587
G01 X23.5314 Y8.5819
G01 X23.4604 Y8.7533
G01 X23.4242 Y8.9352
G01 X23.4242 Y9.1208
G01 X23.4604 Y9.3027
G01 X23.5106 Y9.4239
G01 X23.5168 Y9.4410
G01 X23.5194 Y9.4492
G01 X23.5244 Y9.4696
G01 X23.5272 Y9.4875
G01 X23.5282 Y9.4960
G01 X23.5291 Y9.5170
G01 X23.5279 Y9.5408
G01 X23.5244 Y9.5644
G01 X23.5186 Y9.5876
G01 X23.5106 Y9.6101
G01 X23.5004 Y9.6316
G01 X23.4881 Y9.6521
G01 X23.4774 Y9.6668
G01 X23.4720 Y9.6734
G01 X23.4579 Y9.6889
G01 X23.4445 Y9.7012
G01 X23.4380 Y9.7067
G01 X23.4186 Y9.7207
G01 X23.4030 Y9.7301
G01 X23.3955 Y9.7340
G01 X23.3790 Y9.7417
G01 X23.3619 Y9.7479
G01 X23.3538 Y9.7505
G01 X23.3389 Y9.7542
G01 X23.3306 Y9.7560
G01 X23.3126 Y9.7587
G01 X23.2916 Y9.7600
G01 X21.3688 Y9.7602
G01 X21.3478 Y9.7592
G01 X21.3180 Y9.7563
G01 X21.1628 Y9.7716
G01 X21.0135 Y9.8169
G01 X20.8759 Y9.8904
G01 X20.7554 Y9.9894
G01 X20.7363 Y10.0125
G01 X20.7221 Y10.0280
G01 X20.1349 Y10.6152
G01 X20.1173 Y10.6313
G01 X20.1004 Y10.6439
G01 X20.0933 Y10.6485
G01 X20.0776 Y10.6577
G01 X20.0587 Y10.6668
G01 X20.0507 Y10.6700
G01 X20.0336 Y10.6760
G01 X20.0160 Y10.6805
G01 X20.0076 Y10.6823
G01 X19.9868 Y10.6853
G01 X19.9658 Y10.6864
G01 X19.9573 Y10.6863
G01 X19.9392 Y10.6853
G01 X19.9184 Y10.6823
G01 X19.9100 Y10.6805
G01 X19.8924 Y10.6760
G01 X19.8726 Y10.6690
G01 X19.8647 Y10.6656
G01 X19.8484 Y10.6577
G01 X19.8279 Y10.6455
G01 X19.8087 Y10.6313
G01 X19.7931 Y10.6172
G01 X19.7769 Y10.5997
G01 X19.7641 Y10.5830
G01 X19.7578 Y10.5736
G01 X19.7472 Y10.5554
G01 X19.7395 Y10.5390
G01 X19.7363 Y10.5310
G01 X19.7303 Y10.5139
G01 X19.7251 Y10.4935
G01 X19.7217 Y10.4728
G01 X19.7207 Y10.4637
G01 X19.6836 Y10.2773
G01 X19.6126 Y10.1059
G01 X19.5096 Y9.9516
G01 X19.3784 Y9.8204
G01 X19.2241 Y9.7174
G01 X19.0527 Y9.6464
G01 X19.0264 Y9.6399
G01 X19.0065 Y9.6329
G01 X18.9987 Y9.6296
G01 X18.9823 Y9.6217
G01 X18.9618 Y9.6094
G01 X18.9427 Y9.5952
G01 X18.9270 Y9.5812
G01 X15.0691 Y5.7232
G01 X15.0568 Y5.7099
G01 X15.0513 Y5.7033
G01 X15.0388 Y5.6864
G01 X15.0265 Y5.6659
G01 X15.0163 Y5.6443
G01 X15.0101 Y5.6273
G01 X15.0068 Y5.6164
G01 X15.0020 Y5.5959
G01 X14.9990 Y5.5751
G01 X14.9979 Y5.5541
G01 X14.9978 Y3.4184
G01 X14.9990 Y3.3946
G01 X15.0020 Y3.3738
G01 X15.0038 Y3.3654
G01 X15.0083 Y3.3478
G01 X15.0163 Y3.3253
G01 X15.0265 Y3.3038
G01 X15.0388 Y3.2833
G01 X15.0530 Y3.2641
G01 X15.0671 Y3.2485
G01 X15.1318 Y3.1838
G01 X15.2738 Y2.9711
G01 X15.2880 Y2.9520
G01 X15.3041 Y2.9343
G01 X15.3196 Y2.9201
G01 X15.3362 Y2.9073
G01 X15.3457 Y2.9010
G01 X15.3614 Y2.8918
G01 X15.3829 Y2.8816
G01 X15.4054 Y2.8735
G01 X15.4109 Y2.8720
G01 X15.4230 Y2.8690
G01 X15.4232 Y2.8689
G01 X15.4918 Y2.4427
G01 X15.6915 Y1.3701
G01 X15.9175 Y0.3027
G01 X15.9737 Y0.0660
G00 Z2.0000
G00 X16.1407 Y0.0660
G01 F30.00
G01 Z-0.0601
G01 F60.00
G01 X16.0761 Y0.3383
G01 X15.8509 Y1.4018
G01 X15.6520 Y2.4705
G01 X15.5847 Y2.8888
G00 Z2.0000
G00 X15.7248 Y3.0409
G01 F30.00
G01 Z-0.0601
G01 F60.00
G01 X15.8121 Y2.4983
G01 X15.8311 Y2.3961
G00 Z2.0000
G00 X15.8822 Y2.1216
G01 F30.00
G01 Z-0.0601
G01 F60.00
G01 X16.0104 Y1.4335
G01 X16.2347 Y0.3739
G01 X16.3078 Y0.0660
G00 Z2.0000
G00 X16.4748 Y0.0660
G01 F30.00
G01 Z-0.0601
G01 F60.00
G01 X16.3933 Y0.4095
G01 X16.1698 Y1.4652
G01 X16.1147 Y1.7611
G00 Z2.0000
G00 X16.3061 Y1.6207
G01 F30.00
G01 Z-0.0601
G01 F60.00
G01 X16.3292 Y1.4969
G01 X16.5519 Y0.4451
G01 X16.6419 Y0.0660
G01 X16.8089 Y0.0660
G01 X16.7104 Y0.4807
G01 X16.4886 Y1.5286
G01 X16.4854 Y1.5459
G00 Z2.0000
G00 X16.6582 Y1.5121
G01 F30.00
G01 Z-0.0601
G01 F60.00
G01 X16.8690 Y0.5163
G01 X16.9760 Y0.0660
G01 X17.1430 Y0.0660
G01 X17.0276 Y0.5519
G01 X16.8245 Y1.5116
G00 Z2.0000
G00 X16.9845 Y1.5403
G01 F30.00
G01 Z-0.0601
G01 F60.00
G01 X17.1862 Y0.5876
G01 X17.3101 Y0.0660
G00 Z2.0000
G00 X17.4771 Y0.0660
G01 F30.00
G01 Z-0.0601
G01 F60.00
G01 X17.3448 Y0.6232
G01 X17.1386 Y1.5973
G00 Z2.0000
G00 X17.2861 Y1.6852
G01 F30.00
G01 Z-0.0601
G01 F60.00
G01 X17.5034 Y0.6588
G01 X17.6442 Y0.0660
G01 X17.8112 Y0.0660
G01 X17.6620 Y0.6944
G01 X17.4451 Y1.7189
G01 X17.4275 Y1.8133
G00 Z2.0000
G00 X17.5580 Y2.0004
G01 F30.00
G01 Z-0.0601
G01 F60.00
G01 X17.6045 Y1.7506
G01 X17.8206 Y0.7300
G01 X17.9783 Y0.0660
G01 X18.1453 Y0.0660
G01 X17.9792 Y0.7656
G01 X17.7639 Y1.7823
G01 X17.6585 Y2.3485
G00 Z2.0000
G00 X17.6581 Y2.5081
G01 F30.00
G01 Z-0.0601
G01 F60.00
G01 X17.6570 Y2.5194
G01 X17.6445 Y2.6027
G01 X17.6227 Y2.6899
G01 X17.5924 Y2.7746
G01 X17.5539 Y2.8558
G01 X17.5077 Y2.9330
G01 X17.4542 Y3.0052
G01 X17.3938 Y3.0718
G01 X17.3272 Y3.1322
G01 X17.2550 Y3.1857
G01 X17.1778 Y3.2319
G01 X17.0966 Y3.2704
G01 X17.0119 Y3.3007
G01 X16.9247 Y3.3225
G01 X16.8358 Y3.3357
G01 X16.7460 Y3.3401
G01 X16.6562 Y3.3357
G01 X16.5673 Y3.3225
G01 X16.4801 Y3.3007
G01 X16.3954 Y3.2704
G01 X16.3142 Y3.2319
G01 X16.2370 Y3.1857
G01 X16.1648 Y3.1322
G01 X16.0982 Y3.0718
G01 X16.0378 Y3.0052
G01 X15.9843 Y2.9330
G01 X15.9381 Y2.8558
G01 X15.8996 Y2.7746
G01 X15.8693 Y2.6899
G01 X15.8475 Y2.6027
G01 X15.8343 Y2.5138
G01 X15.8299 Y2.4240
G01 X15.8343 Y2.3342
G01 X15.8475 Y2.2453
G01 X15.8693 Y2.1581
G01 X15.8996 Y2.0734
G01 X15.9381 Y1.9922
G01 X15.9843 Y1.9150
G01 X16.0378 Y1.8428
G01 X16.0982 Y1.7762
G01 X16.1648 Y1.7158
G01 X16.2370 Y1.6623
G01 X16.3142 Y1.6161
G01 X16.3954 Y1.5776
G01 X16.4801 Y1.5473
G01 X16.5673 Y1.5255
G01 X16.6562 Y1.5123
G01 X16.7460 Y1.5079
G01 X16.8358 Y1.5123
G01 X16.9247 Y1.5255
G01 X17.0119 Y1.5473
G01 X17.0966 Y1.5776
G01 X17.1778 Y1.6161
G01 X17.2550 Y1.6623
G01 X17.3272 Y1.7158
G01 X17.3938 Y1.7762
G01 X17.4542 Y1.8428
G01 X17.5077 Y1.9150
G01 X17.5539 Y1.9922
G01 X17.5924 Y2.0734
G01 X17.6227 Y2.1581
G01 X17.6445 Y2.2453
G01 X17.6577 Y2.3342
G01 X17.6621 Y2.4240
G01 X17.6581 Y2.5081
G00 Z2.0000
G00 X17.5712 Y2.8197
G01 F30.00
G01 Z-0.0601
G01 F60.00
G01 X17.4835 Y3.3646
G01 X17.2996 Y3.4847
G01 X17.3612 Y3.1015
G00 Z2.0000
G00 X17.1754 Y3.2332
G01 F30.00
G01 Z-0.0601
G01 F60.00
G01 X17.1232 Y3.5578
G01 X16.9521 Y3.5982
G01 X16.9994 Y3.3039
G00 Z2.0000
G00 X16.8296 Y3.3361
G01 F30.00
G01 Z-0.0601
G01 F60.00
G01 X16.7846 Y3.6158
G01 X16.6203 Y3.6142
G01 X16.6650 Y3.3363
G00 Z2.0000
G00 X16.5051 Y3.3071
G01 F30.00
G01 Z-0.0601
G01 F60.00
G01 X16.4608 Y3.5824
G01 X16.3044 Y3.5311
G01 X16.3498 Y3.2489
G00 Z2.0000
G00 X16.1998 Y3.1582
G01 F30.00
G01 Z-0.0601
G01 F60.00
G01 X16.1512 Y3.4600
G01 X16.0026 Y3.3607
G01 X16.0565 Y3.0259
G00 Z2.0000
G00 X15.9239 Y2.8263
G01 F30.00
G01 Z-0.0601
G01 F60.00
G01 X15.8600 Y3.2235
G00 Z2.0000
G00 X14.9978 Y3.4666
G01 F30.00
G01 Z-0.0601
G01 F60.00
G01 X14.8490 Y4.5612
G01 X14.7279 Y5.6535
G01 X14.7223 Y5.7184
G00 Z2.0000
G00 X13.3807 Y3.2956
G01 F30.00
G01 Z-0.0601
G01 F60.00
G01 X13.3891 Y3.2337
G01 X13.4389 Y2.9243
G01 X13.2418 Y3.1262
G01 X13.3187 Y2.6481
G01 X13.1080 Y2.9344
G01 X13.2498 Y2.0536
G01 X13.4597 Y0.9261
G01 X13.6418 Y0.0660
G01 X13.4756 Y0.0660
G01 X13.3003 Y0.8944
G01 X13.0896 Y2.0259
G01 X12.9548 Y2.8639
G00 Z2.0000
G00 X12.7814 Y2.9186
G01 F30.00
G01 Z-0.0601
G01 F60.00
G01 X12.9295 Y1.9981
G01 X13.1409 Y0.8627
G01 X13.3095 Y0.0660
G01 X13.1434 Y0.0660
G01 X12.9814 Y0.8310
G01 X12.7693 Y1.9703
G01 X12.5852 Y3.1144
G01 X12.5733 Y3.2022
G00 Z2.0000
G00 X12.5621 Y2.2351
G01 F30.00
G01 Z-0.0601
G01 F60.00
G01 X12.6092 Y1.9425
G01 X12.8220 Y0.7993
G01 X12.9773 Y0.0660
G01 X12.8111 Y0.0660
G01 X12.6626 Y0.7676
G01 X12.4490 Y1.9147
G01 X12.4445 Y1.9428
G00 Z2.0000
G00 X12.3101 Y1.7727
G01 F30.00
G01 Z-0.0601
G01 F60.00
G01 X12.5032 Y0.7359
G01 X12.6450 Y0.0660
G01 X12.4789 Y0.0660
G01 X12.3438 Y0.7041
G01 X12.1664 Y1.6570
G00 Z2.0000
G00 X12.0159 Y1.5774
G01 F30.00
G01 Z-0.0601
G01 F60.00
G01 X12.1844 Y0.6724
G01 X12.3127 Y0.0660
G01 X12.1466 Y0.0660
G01 X12.0249 Y0.6407
G01 X11.8595 Y1.5291
G00 Z2.0000
G00 X11.6979 Y1.5093
G01 F30.00
G01 Z-0.0601
G01 F60.00
G01 X11.8655 Y0.6090
G01 X11.9805 Y0.0660
G01 X11.8143 Y0.0660
G01 X11.7061 Y0.5773
G01 X11.5308 Y1.5189
G00 Z2.0000
G00 X11.3574 Y1.5625
G01 F30.00
G01 Z-0.0601
G01 F60.00
G01 X11.5467 Y0.5456
G01 X11.6482 Y0.0660
G01 X11.4821 Y0.0660
G01 X11.3873 Y0.5139
G01 X11.1756 Y1.6510
G00 Z2.0000
G00 X10.9836 Y1.8142
G01 F30.00
G01 Z-0.0601
G01 F60.00
G01 X11.0077 Y1.6646
G01 X11.2279 Y0.4822
G01 X11.3160 Y0.0660
G00 Z2.0000
G00 X13.8079 Y0.0660
G01 F30.00
G01 Z-0.0601
G01 F60.00
G01 X13.6191 Y0.9578
G01 X13.4394 Y1.9229
G00 Z2.0000
G00 X13.6463 Y1.6998
G01 F30.00
G01 Z-0.0601
G01 F60.00
G01 X13.7785 Y0.9895
G01 X13.9740 Y0.0660
G01 X14.1402 Y0.0660
G01 X13.9379 Y1.0212
G01 X13.8323 Y1.5884
G00 Z2.0000
G00 X14.0085 Y1.5301
G01 F30.00
G01 Z-0.0601
G01 F60.00
G01 X14.0974 Y1.0530
G01 X14.3063 Y0.0660
G01 X14.4724 Y0.0660
G01 X14.2568 Y1.0847
G01 X14.1777 Y1.5091
G00 Z2.0000
G00 X14.3412 Y1.5189
G01 F30.00
G01 Z-0.0601
G01 F60.00
G01 X14.4162 Y1.1164
G01 X14.6385 Y0.0660
G01 X14.8047 Y0.0660
G01 X14.5756 Y1.1481
G01 X14.4995 Y1.5571
G00 Z2.0000
G00 X14.6522 Y1.6245
G01 F30.00
G01 Z-0.0601
G01 F60.00
G01 X14.7350 Y1.1798
G01 X14.9660 Y0.0890
G01 X14.9714 Y0.0660
G01 X15.1384 Y0.0660
G01 X15.1245 Y0.1246
G01 X14.8944 Y1.2115
G01 X14.7986 Y1.7261
G00 Z2.0000
G00 X14.9366 Y1.8729
G01 F30.00
G01 Z-0.0601
G01 F60.00
G01 X15.0539 Y1.2432
G01 X15.2831 Y0.1602
G01 X15.3055 Y0.0660
G01 X15.4725 Y0.0660
G01 X15.4417 Y0.1958
G01 X15.2133 Y1.2749
G01 X15.0605 Y2.0957
G00 Z2.0000
G00 X17.6790 Y3.1730
G01 F30.00
G01 Z-0.0601
G01 F60.00
G01 X17.7339 Y2.8317
G01 X17.9234 Y1.8140
G01 X18.1378 Y0.8012
G01 X18.3124 Y0.0660
G01 X18.4794 Y0.0660
G01 X18.2964 Y0.8368
G01 X18.0828 Y1.8457
G01 X17.8940 Y2.8595
G01 X17.8875 Y2.8999
G00 Z2.0000
G00 X18.0580 Y2.8668
G01 F30.00
G01 Z-0.0601
G01 F60.00
G01 X18.2422 Y1.8774
G01 X18.4549 Y0.8725
G01 X18.6465 Y0.0660
G00 Z2.0000
G00 X18.8135 Y0.0660
G01 F30.00
G01 Z-0.0601
G01 F60.00
G01 X18.6135 Y0.9081
G01 X18.4016 Y1.9091
G01 X18.2143 Y2.9151
G01 X18.2076 Y2.9567
G00 Z2.0000
G00 X18.3405 Y3.1542
G01 F30.00
G01 Z-0.0601
G01 F60.00
G01 X18.3745 Y2.9429
G01 X18.4173 Y2.7127
G00 Z2.0000
G00 X18.5381 Y2.9518
G01 F30.00
G01 Z-0.0601
G01 F60.00
G01 X18.5346 Y2.9707
G01 X18.4809 Y3.3044
G01 X18.6274 Y3.4173
G01 X18.6772 Y3.1073
G00 Z2.0000
G00 X18.8246 Y3.2144
G01 F30.00
G01 Z-0.0601
G01 F60.00
G01 X18.7781 Y3.5037
G01 X18.9324 Y3.5676
G01 X18.9778 Y3.2857
G00 Z2.0000
G00 X18.8592 Y3.2345
G01 F30.00
G01 Z-0.0601
G01 F60.00
G01 X18.8492 Y3.2291
G01 X18.7770 Y3.1857
G01 X18.7048 Y3.1322
G01 X18.6382 Y3.0718
G01 X18.5778 Y3.0052
G01 X18.5243 Y2.9330
G01 X18.4781 Y2.8558
G01 X18.4396 Y2.7746
G01 X18.4093 Y2.6899
G01 X18.3875 Y2.6027
G01 X18.3743 Y2.5138
G01 X18.3699 Y2.4240
G01 X18.3743 Y2.3342
G01 X18.3875 Y2.2453
G01 X18.4093 Y2.1581
G01 X18.4396 Y2.0734
G01 X18.4781 Y1.9922
G01 X18.5243 Y1.9150
G01 X18.5778 Y1.8428
G01 X18.6382 Y1.7762
G01 X18.7048 Y1.7158
G01 X18.7770 Y1.6623
G01 X18.8542 Y1.6161
G01 X18.9354 Y1.5776
G01 X19.0201 Y1.5473
G01 X19.1073 Y1.5255
G01 X19.1962 Y1.5123
G01 X19.2860 Y1.5079
G01 X19.3758 Y1.5123
G01 X19.4647 Y1.5255
G01 X19.5519 Y1.5473
G01 X19.6366 Y1.5776
G01 X19.7178 Y1.6161
G01 X19.7950 Y1.6623
G01 X19.8672 Y1.7158
G01 X19.9338 Y1.7762
G01 X19.9942 Y1.8428
G01 X20.0477 Y1.9150
G01 X20.0939 Y1.9922
G01 X20.1324 Y2.0734
G01 X20.1627 Y2.1581
G01 X20.1845 Y2.2453
G01 X20.1977 Y2.3342
G01 X20.2021 Y2.4240
G01 X20.1977 Y2.5138
G01 X20.1845 Y2.6027
G01 X20.1627 Y2.6899
G01 X20.1324 Y2.7746
G01 X20.0939 Y2.8558
G01 X20.0477 Y2.9330
G01 X19.9942 Y3.0052
G01 X19.9338 Y3.0718
G01 X19.8672 Y3.1322
G01 X19.7950 Y3.1857
G01 X19.7178 Y3.2319
G01 X19.6366 Y3.2704
G01 X19.5519 Y3.3007
G01 X19.4647 Y3.3225
G01 X19.3758 Y3.3357
G01 X19.2860 Y3.3401
G01 X19.1962 Y3.3357
G01 X19.1073 Y3.3225
G01 X19.0201 Y3.3007
G01 X18.9354 Y3.2704
G01 X18.8592 Y3.2345
G00 Z2.0000
G00 X19.1358 Y3.3269
G01 F30.00
G01 Z-0.0601
G01 F60.00
G01 X19.0917 Y3.6005
G01 X19.2539 Y3.6158
G01 X19.2983 Y3.3396
G00 Z2.0000
G00 X19.4657 Y3.3223
G01 F30.00
G01 Z-0.0601
G01 F60.00
G01 X19.4190 Y3.6127
G01 X19.5891 Y3.5789
G01 X19.6389 Y3.2694
G00 Z2.0000
G00 X19.8207 Y3.1668
G01 F30.00
G01 Z-0.0601
G01 F60.00
G01 X19.8158 Y3.1930
G01 X19.7638 Y3.5161
G01 X19.9443 Y3.4176
G01 X19.9759 Y3.2207
G01 X20.0234 Y2.9660
G01 X20.1340 Y3.2615
G01 X20.1361 Y3.2485
G01 X20.3146 Y2.2896
G01 X20.5166 Y1.3354
G01 X20.7420 Y0.3865
G01 X20.8264 Y0.0660
G01 X20.6584 Y0.0660
G01 X20.5843 Y0.3470
G01 X20.3580 Y1.2998
G01 X20.1701 Y2.1874
G00 Z2.0000
G00 X20.0581 Y1.9320
G01 F30.00
G01 Z-0.0601
G01 F60.00
G01 X20.1994 Y1.2642
G01 X20.4267 Y0.3075
G01 X20.4903 Y0.0660
G01 X20.3222 Y0.0660
G01 X20.2690 Y0.2680
G01 X20.0409 Y1.2286
G01 X19.9264 Y1.7693
G00 Z2.0000
G00 X19.7843 Y1.6557
G01 F30.00
G01 Z-0.0601
G01 F60.00
G01 X19.8823 Y1.1930
G01 X20.1113 Y0.2285
G01 X20.1541 Y0.0660
G01 X19.9861 Y0.0660
G01 X19.9536 Y0.1890
G01 X19.7237 Y1.1574
G01 X19.6348 Y1.5769
G00 Z2.0000
G00 X19.4789 Y1.5289
G01 F30.00
G01 Z-0.0601
G01 F60.00
G01 X19.5651 Y1.1217
G01 X19.7960 Y0.1495
G01 X19.8180 Y0.0660
G01 X19.6499 Y0.0660
G01 X19.6383 Y0.1100
G01 X19.4065 Y1.0861
G01 X19.3169 Y1.5093
G00 Z2.0000
G00 X19.1487 Y1.5192
G01 F30.00
G01 Z-0.0601
G01 F60.00
G01 X19.2479 Y1.0505
G01 X19.4818 Y0.0660
G01 X19.3147 Y0.0660
G01 X19.0893 Y1.0149
G01 X18.9731 Y1.5640
G00 Z2.0000
G00 X18.7875 Y1.6559
G01 F30.00
G01 Z-0.0601
G01 F60.00
G01 X18.9307 Y0.9793
G01 X19.1476 Y0.0660
G01 X18.9806 Y0.0660
G01 X18.7721 Y0.9437
G01 X18.5830 Y1.8369
G00 Z2.0000
G00 X20.3528 Y2.9727
G01 F30.00
G01 Z-0.0601
G01 F60.00
G01 X20.4740 Y2.3214
G01 X20.6752 Y1.3710
G01 X20.8997 Y0.4259
G01 X20.9945 Y0.0660
G01 X21.1626 Y0.0660
G01 X21.0573 Y0.4654
G01 X20.8338 Y1.4066
G01 X20.6334 Y2.3531
G01 X20.5384 Y2.8638
G00 Z2.0000
G00 X20.6956 Y2.9072
G01 F30.00
G01 Z-0.0601
G01 F60.00
G01 X20.7929 Y2.3848
G01 X20.9924 Y1.4423
G01 X21.2150 Y0.5049
G01 X21.3307 Y0.0660
G01 X21.4988 Y0.0660
G01 X21.3727 Y0.5444
G01 X21.1510 Y1.4779
G01 X21.0553 Y1.9297
G00 Z2.0000
G00 X21.2709 Y1.6964
G01 F30.00
G01 Z-0.0601
G01 F60.00
G01 X21.3096 Y1.5135
G01 X21.5303 Y0.5839
G01 X21.6668 Y0.0660
G01 X21.8349 Y0.0660
G01 X21.6880 Y0.6234
G01 X21.4682 Y1.5491
G01 X21.4607 Y1.5845
G00 Z2.0000
G00 X21.6404 Y1.5271
G01 F30.00
G01 Z-0.0601
G01 F60.00
G01 X21.8457 Y0.6629
G01 X22.0030 Y0.0660
G01 X22.1711 Y0.0660
G01 X22.0033 Y0.7024
G01 X21.8119 Y1.5085
G00 Z2.0000
G00 X21.9760 Y1.5211
G01 F30.00
G01 Z-0.0601
G01 F60.00
G01 X22.1610 Y0.7419
G01 X22.3391 Y0.0660
G01 X22.5072 Y0.0660
G01 X22.3187 Y0.7814
G01 X22.1333 Y1.5620
G00 Z2.0000
G00 X22.2838 Y1.6315
G01 F30.00
G01 Z-0.0601
G01 F60.00
G01 X22.4763 Y0.8209
G01 X22.6753 Y0.0660
G01 X22.8434 Y0.0660
G01 X22.6340 Y0.8604
G01 X22.4267 Y1.7334
G00 Z2.0000
G00 X22.5612 Y1.8791
G01 F30.00
G01 Z-0.0601
G01 F60.00
G01 X22.5783 Y1.7984
G01 X22.7917 Y0.8999
G01 X23.0115 Y0.0660
G01 X23.1795 Y0.0660
G01 X22.9494 Y0.9394
G01 X22.7369 Y1.8340
G01 X22.6811 Y2.0975
G01 X23.4519 Y2.3802
G01 X23.3435 Y2.8921
G01 X23.3221 Y3.0070
G00 Z2.0000
G00 X23.1808 Y2.8785
G01 F30.00
G01 Z-0.0601
G01 F60.00
G01 X23.1841 Y2.8604
G01 X23.3713 Y1.9765
G01 X23.5800 Y1.0973
G01 X23.8103 Y0.2236
G01 X23.8560 Y0.0660
G01 X24.0252 Y0.0660
G01 X23.9670 Y0.2670
G01 X23.7377 Y1.1368
G01 X23.5298 Y2.0121
G01 X23.5130 Y2.0914
G00 Z2.0000
G00 X23.7625 Y1.7359
G01 F30.00
G01 Z-0.0601
G01 F60.00
G01 X23.8954 Y1.1763
G01 X24.1236 Y0.3103
G01 X24.1945 Y0.0660
G01 X24.3637 Y0.0660
G01 X24.2803 Y0.3537
G01 X24.0530 Y1.2158
G01 X23.9610 Y1.6032
G00 Z2.0000
G00 X24.1440 Y1.5362
G01 F30.00
G01 Z-0.0601
G01 F60.00
G01 X24.2107 Y1.2553
G01 X24.4369 Y0.3970
G01 X24.5329 Y0.0660
G01 X24.7021 Y0.0660
G01 X24.5936 Y0.4404
G01 X24.3684 Y1.2948
G01 X24.3172 Y1.5102
G00 Z2.0000
G00 X24.4829 Y1.5162
G01 F30.00
G01 Z-0.0601
G01 F60.00
G01 X24.5260 Y1.3343
G01 X24.7502 Y0.4837
G01 X24.8714 Y0.0660
G01 X25.0406 Y0.0660
G01 X24.9069 Y0.5271
G01 X24.6837 Y1.3738
G01 X24.6417 Y1.5507
G00 Z2.0000
G00 X24.7937 Y1.6140
G01 F30.00
G01 Z-0.0601
G01 F60.00
G01 X24.8414 Y1.4133
G01 X25.0635 Y0.5704
G01 X25.2098 Y0.0660
G01 X25.3790 Y0.0660
G01 X25.2202 Y0.6138
G01 X24.9991 Y1.4528
G01 X24.9382 Y1.7090
G00 Z2.0000
G00 X25.0736 Y1.8422
G01 F30.00
G01 Z-0.0601
G01 F60.00
G01 X25.1567 Y1.4923
G01 X25.3768 Y0.6571
G01 X25.5483 Y0.0660
G01 X25.7175 Y0.0660
G01 X25.5335 Y0.7005
G01 X25.3144 Y1.5318
G01 X25.1947 Y2.0358
G00 Z2.0000
G00 X25.2801 Y2.3797
G01 F30.00
G01 Z-0.0601
G01 F60.00
G01 X25.4721 Y1.5713
G01 X25.6901 Y0.7438
G01 X25.8867 Y0.0660
G01 X26.0559 Y0.0660
G01 X25.8468 Y0.7872
G01 X25.6297 Y1.6108
G01 X25.4329 Y2.4394
G01 X25.2565 Y3.2727
G01 X25.1006 Y4.1100
G01 X24.9653 Y4.9508
G01 X24.8823 Y5.5623
G00 Z2.0000
G00 X23.8497 Y5.9740
G01 F30.00
G01 Z-0.0601
G01 F60.00
G01 X23.7863 Y6.5457
G01 X23.7112 Y7.4181
G01 X23.6575 Y8.2921
G01 X23.6252 Y9.1672
G01 X23.6146 Y10.0357
G00 Z2.0000
G00 X23.7771 Y10.0357
G01 F30.00
G01 Z-0.0601
G01 F60.00
G01 X23.7855 Y9.3539
G00 Z2.0000
G00 X23.9457 Y9.5447
G01 F30.00
G01 Z-0.0601
G01 F60.00
G01 X23.9397 Y10.0357
G00 Z2.0000
G00 X24.1022 Y10.0357
G01 F30.00
G01 Z-0.0601
G01 F60.00
G01 X24.1070 Y9.6416
G00 Z2.0000
G00 X24.2690 Y9.6863
G01 F30.00
G01 Z-0.0601
G01 F60.00
G01 X24.2647 Y10.0357
G00 Z2.0000
G00 X24.4273 Y10.0357
G01 F30.00
G01 Z-0.0601
G01 F60.00
G01 X24.4315 Y9.6909
G00 Z2.0000
G00 X24.5945 Y9.6530
G01 F30.00
G01 Z-0.0601
G01 F60.00
G01 X24.5898 Y10.0357
G00 Z2.0000
G00 X24.7524 Y10.0357
G01 F30.00
G01 Z-0.0601
G01 F60.00
G01 X24.7581 Y9.5656
G00 Z2.0000
G00 X24.9228 Y9.3934
G01 F30.00
G01 Z-0.0601
G01 F60.00
G01 X24.9149 Y10.0357
G00 Z2.0000
G00 X25.0774 Y10.0357
G01 F30.00
G01 Z-0.0601
G01 F60.00
G01 X25.0877 Y9.2031
G01 X25.1186 Y8.3639
G01 X25.1701 Y7.5257
G01 X25.2421 Y6.6891
G01 X25.3347 Y5.8545
G01 X25.4477 Y5.0224
G01 X25.5811 Y4.1933
G01 X25.7348 Y3.3678
G01 X25.9087 Y2.5463
G01 X26.1027 Y1.7292
G01 X26.3168 Y0.9172
G01 X26.5506 Y0.1107
G01 X26.5648 Y0.0660
G01 X26.3944 Y0.0660
G01 X26.1601 Y0.8739
G01 X25.9451 Y1.6898
G01 X25.7501 Y2.5106
G01 X25.5754 Y3.3361
G01 X25.4209 Y4.1655
G01 X25.2869 Y4.9985
G01 X25.1734 Y5.8346
G01 X25.0804 Y6.6732
G01 X25.0080 Y7.5138
G01 X24.9562 Y8.3559
G01 X24.9437 Y8.6974
G00 Z2.0000
G00 X23.8497 Y8.6072
G01 F30.00
G01 Z-0.0601
G01 F60.00
G01 X23.8497 Y3.1804
G01 X23.7848 Y3.1322
G01 X23.7223 Y3.0757
G01 X23.7143 Y3.0677
G01 X23.6578 Y3.0052
G01 X23.6076 Y2.9376
G01 X23.6012 Y2.9281
G01 X23.5581 Y2.8558
G01 X23.5219 Y2.7798
G01 X23.5176 Y2.7693
G01 X23.4893 Y2.6899
G01 X23.4688 Y2.6083
G01 X23.4665 Y2.5971
G01 X23.4543 Y2.5138
G01 X23.4500 Y2.4297
G01 X23.4500 Y2.4183
G01 X23.4541 Y2.3370
G01 X23.4550 Y2.3286
G01 X23.4675 Y2.2453
G01 X23.4893 Y2.1581
G01 X23.5196 Y2.0734
G01 X23.5581 Y1.9922
G01 X23.6043 Y1.9150
G01 X23.6578 Y1.8428
G01 X23.7182 Y1.7762
G01 X23.7848 Y1.7158
G01 X23.8570 Y1.6623
G01 X23.9342 Y1.6161
